;FLAVOR:Marlin
;TIME:19564
;Filament used: 16.719m
;Layer height: 0.2
;MINX:36.828
;MINY:45.6
;MINZ:0.2
;MAXX:184.968
;MAXY:175.8
;MAXZ:32
;Generated with Cura_SteamEngine 5.3.1
M140 S60
M105
M190 S60
M104 S200
M105
M109 S200
M82 ;absolute extrusion mode
G28 ;Home
G1 Z15.0 F1200 ;Move the platform down 15mm
;Prime the extruder
G92 E0
G1 F200 E3
G92 E0
G92 E0
G92 E0
G1 F2400 E-6
;LAYER_COUNT:160
;LAYER:0
M107
M204 S2000
M205 X10 Y10
G0 F3000 X38.184 Y47.36 Z0.2
M204 S1000
M205 X8 Y8
;TYPE:SKIRT
G1 F2400 E0
G1 X37.819 Y47.771 E0.01828
G1 X37.373 Y48.617 E0.05009
G1 X37.135 Y49.51 E0.08083
G1 X37.109 Y50.067 E0.09938
G1 X36.9 Y51.007 E0.1314
G1 X36.869 Y51.873 E0.16023
G1 X37.1 Y52.771 E0.19106
G1 X37.1 Y53.599 E0.2186
G1 X37.279 Y54.416 E0.24642
G1 X37.419 Y54.971 E0.26546
G1 X37.448 Y55.197 E0.27304
G1 X37.568 Y55.772 E0.29258
G1 X37.697 Y56.284 E0.31014
G1 X37.708 Y56.39 E0.31368
G1 X37.845 Y57.085 E0.33724
G1 X37.969 Y57.589 E0.3545
G1 X38.004 Y57.85 E0.36326
G1 X38.155 Y58.496 E0.38533
G1 X38.174 Y58.673 E0.39125
G1 X38.379 Y59.731 E0.42709
G1 X38.58 Y60.579 E0.45608
G1 X38.815 Y61.886 E0.50025
G1 X39.027 Y62.769 E0.53045
G1 X39.229 Y63.908 E0.56892
G1 X39.426 Y64.621 E0.59353
G1 X39.491 Y65.033 E0.6074
G1 X39.666 Y65.853 E0.63529
G1 X39.921 Y66.715 E0.66519
G1 X40.083 Y67.363 E0.6874
G1 X40.395 Y68.355 E0.72199
G1 X40.945 Y69.294 E0.75818
G1 X41.696 Y70.064 E0.79396
G1 X42.866 Y70.664 E0.83769
G1 X44.215 Y70.821 E0.88286
G1 X45.298 Y70.607 E0.91958
G1 X46.77 Y70.036 E0.97209
G1 X47.333 Y69.892 E0.99142
G1 X47.785 Y69.744 E1.00724
G1 X47.785 Y151.26 E3.71847
G1 X47.285 Y151.118 E3.73576
G1 X46.941 Y151.057 E3.74738
G1 X45.696 Y150.644 E3.79101
G1 X44.791 Y150.38 E3.82236
G1 X43.651 Y150.292 E3.86039
G1 X42.675 Y150.549 E3.89396
G1 X41.762 Y151.01 E3.92798
G1 X41.057 Y151.673 E3.96017
G1 X40.525 Y152.468 E3.99198
G1 X40.06 Y153.769 E4.03794
G1 X39.761 Y154.898 E4.07678
G1 X39.627 Y155.539 E4.09856
G1 X39.522 Y155.871 E4.11014
G1 X39.335 Y156.675 E4.1376
G1 X39.281 Y157.043 E4.14997
G1 X39.126 Y157.71 E4.17274
G1 X39.095 Y157.934 E4.18027
G1 X38.965 Y158.453 E4.19806
G1 X38.911 Y158.82 E4.2104
G1 X38.761 Y159.462 E4.23233
G1 X38.721 Y159.739 E4.24164
G1 X38.553 Y160.453 E4.26603
G1 X38.452 Y161.068 E4.28676
G1 X38.291 Y161.771 E4.31075
G1 X38.255 Y162.043 E4.31987
G1 X38.112 Y162.658 E4.34087
G1 X38.072 Y162.95 E4.35068
G1 X37.948 Y163.438 E4.36742
G1 X37.816 Y164.195 E4.39298
G1 X37.653 Y164.833 E4.41488
G1 X37.451 Y165.858 E4.44963
G1 X37.416 Y166.147 E4.45931
G1 X37.205 Y166.969 E4.48754
G1 X36.926 Y168.272 E4.53186
G1 X36.904 Y169.152 E4.56114
G1 X36.863 Y169.794 E4.58253
G1 X36.828 Y170.125 E4.5936
G1 X36.834 Y172.174 E4.66176
G1 X36.966 Y173.077 E4.69211
G1 X37.46 Y174.069 E4.72897
G1 X38.044 Y174.794 E4.75993
G1 X38.478 Y175.127 E4.77813
G1 X39.41 Y175.62 E4.81319
G1 X40.457 Y175.8 E4.84853
G1 X73.835 Y175.8 E5.95868
G1 X74.871 Y175.484 E5.99471
G1 X75.522 Y175.169 E6.01876
G1 X76.206 Y174.576 E6.04887
G1 X76.656 Y173.958 E6.0743
G1 X76.828 Y173.589 E6.08784
G1 X77.4 Y172.993 E6.11532
G1 X77.85 Y172.104 E6.14846
G1 X78.024 Y171.518 E6.16879
G1 X78.085 Y170.564 E6.20058
G1 X111.674 Y170.561 E7.31776
G1 X119.454 Y170.576 E7.57652
G1 X144.855 Y170.575 E8.42136
G1 X144.826 Y171.028 E8.43646
G1 X145.03 Y172.09 E8.47243
G1 X145.449 Y172.849 E8.50126
G1 X145.593 Y173.408 E8.52046
G1 X145.951 Y174.093 E8.54617
G1 X146.553 Y174.811 E8.57733
G1 X147.575 Y175.501 E8.61835
G1 X148.829 Y175.8 E8.66122
G1 X158.446 Y175.8 E8.98109
G1 X159.533 Y175.597 E9.01787
G1 X160.391 Y175.165 E9.04982
G1 X162.043 Y173.867 E9.11969
G1 X162.603 Y173.296 E9.14629
G1 X163.137 Y172.365 E9.18199
G1 X163.371 Y171.381 E9.21563
G1 X163.369 Y170.777 E9.23572
G1 X164.287 Y170.608 E9.26677
G1 X165.256 Y170.111 E9.30299
G1 X171.153 Y165.527 E9.55141
G1 X171.762 Y164.761 E9.58396
G1 X171.891 Y164.531 E9.59273
G1 X172.664 Y164.663 E9.61881
G1 X173.795 Y164.453 E9.65707
G1 X174.737 Y164.016 E9.69161
G1 X178.191 Y161.331 E9.83712
G1 X178.406 Y161.184 E9.84578
G1 X179.123 Y160.611 E9.87631
G1 X179.973 Y159.949 E9.91214
G1 X180.736 Y159.166 E9.94851
G1 X181.212 Y158.168 E9.98528
G1 X181.452 Y157.168 E10.01949
G1 X181.304 Y156 E10.05865
G1 X181.067 Y155.43 E10.07918
G1 X181.021 Y155.223 E10.08623
G1 X181.021 Y154.309 E10.11663
G1 X180.695 Y152.633 E10.17342
G1 X180.508 Y151.931 E10.19758
G1 X180.408 Y151.399 E10.21559
G1 X180.12 Y150.275 E10.25418
G1 X179.657 Y149.416 E10.28663
G1 X178.99 Y148.684 E10.31957
G1 X177.993 Y148.082 E10.35831
G1 X177.745 Y147.999 E10.36701
G1 X176.766 Y147.841 E10.39999
G1 X175.591 Y147.901 E10.43912
G1 X174.122 Y148.416 E10.4909
G1 X173.208 Y148.554 E10.52164
G1 X172.389 Y148.796 E10.55004
G1 X172.389 Y72.236 E13.09644
G1 X173.224 Y72.556 E13.12618
G1 X174.058 Y72.619 E13.154
G1 X175.362 Y73.04 E13.19958
G1 X176.339 Y73.217 E13.2326
G1 X177.543 Y73.106 E13.27281
G1 X178.531 Y72.658 E13.3089
G1 X179.357 Y71.989 E13.34425
G1 X179.618 Y71.662 E13.35817
G1 X180.082 Y70.817 E13.39023
G1 X180.303 Y69.976 E13.41915
G1 X180.515 Y69.233 E13.44485
G1 X180.712 Y68.167 E13.4809
G1 X180.853 Y67.602 E13.50027
G1 X181.02 Y66.747 E13.52925
G1 X181.02 Y65.872 E13.55835
G1 X181.062 Y65.627 E13.56662
G1 X181.284 Y65.089 E13.58597
G1 X181.447 Y64.064 E13.62049
G1 X181.267 Y62.992 E13.65665
G1 X180.807 Y61.971 E13.69389
G1 X180.074 Y61.196 E13.72937
G1 X178.372 Y59.852 E13.8015
G1 X174.739 Y57.036 E13.95439
G1 X173.605 Y56.502 E13.99608
G1 X172.327 Y56.416 E14.03868
G1 X171.886 Y56.507 E14.05366
G1 X171.76 Y56.288 E14.06206
G1 X171.154 Y55.525 E14.09447
G1 X166.451 Y51.869 E14.29259
G1 X165.68 Y51.462 E14.32159
G1 X164.619 Y51.227 E14.35774
G1 X164.619 Y51.004 E14.36515
G1 X164.486 Y50.037 E14.39762
G1 X164.009 Y48.913 E14.43823
G1 X163.275 Y48.113 E14.47434
G1 X162.366 Y47.412 E14.51252
G1 X161.759 Y46.807 E14.54102
G1 X160.72 Y46.349 E14.57879
G1 X159.779 Y46.208 E14.61044
G1 X151.615 Y46.195 E14.88197
G1 X150.863 Y46.18 E14.90699
G1 X149.94 Y46.008 E14.93822
G1 X149.134 Y45.982 E14.96504
G1 X148.335 Y46.17 E14.99234
G1 X148.052 Y46.272 E15.00235
G1 X147.662 Y46.347 E15.01555
G1 X146.825 Y46.655 E15.04522
G1 X145.84 Y47.377 E15.08584
G1 X145.309 Y48.182 E15.11791
G1 X145.104 Y48.688 E15.13607
G1 X144.864 Y48.984 E15.14875
G1 X144.439 Y49.721 E15.17704
G1 X144.196 Y50.762 E15.2126
G1 X144.215 Y51.375 E15.23299
G1 X143.018 Y51.439 E15.27286
G1 X115.706 Y51.439 E16.18126
G1 X93.517 Y51.336 E16.91928
G1 X78.433 Y51.337 E17.42098
G1 X78.453 Y50.66 E17.4435
G1 X78.108 Y49.454 E17.48523
G1 X77.507 Y48.653 E17.51853
G1 X77.331 Y48.468 E17.52703
G1 X77.264 Y48.32 E17.53243
G1 X76.909 Y47.721 E17.55559
G1 X76.318 Y47.104 E17.584
G1 X75.422 Y46.5 E17.61994
G1 X74.166 Y46.201 E17.66289
G1 X56.864 Y46.198 E18.23835
G1 X54.159 Y46.135 E18.32835
G1 X53.847 Y46.085 E18.33886
G1 X52.478 Y45.6 E18.38716
G1 X48.925 Y45.602 E18.50534
G1 X47.409 Y46.081 E18.55821
G1 X46.952 Y46.149 E18.57358
G1 X40.76 Y46.208 E18.77954
G1 X39.793 Y46.351 E18.81205
G1 X38.829 Y46.84 E18.848
G1 X38.184 Y47.36 E18.87556
M204 S2000
M205 X10 Y10
G0 F3000 X38.435 Y47.671
M204 S1000
M205 X8 Y8
G1 F2400 X38.15 Y48 E18.89004
G1 X37.749 Y48.761 E18.91865
G1 X37.533 Y49.572 E18.94656
G1 X37.507 Y50.12 E18.96481
G1 X37.299 Y51.054 E18.99663
G1 X37.271 Y51.831 E19.02249
G1 X37.5 Y52.722 E19.05309
G1 X37.5 Y53.554 E19.08076
G1 X37.67 Y54.33 E19.10719
G1 X37.813 Y54.899 E19.1267
G1 X37.84 Y55.115 E19.13394
G1 X37.96 Y55.69 E19.15348
G1 X38.092 Y56.214 E19.17145
G1 X38.106 Y56.348 E19.17593
G1 X38.237 Y57.007 E19.19828
G1 X38.364 Y57.519 E19.21582
G1 X38.394 Y57.759 E19.22387
G1 X38.55 Y58.428 E19.24671
G1 X38.572 Y58.629 E19.25344
G1 X38.772 Y59.654 E19.28817
G1 X38.974 Y60.508 E19.31736
G1 X39.209 Y61.815 E19.36153
G1 X39.419 Y62.687 E19.39136
G1 X39.623 Y63.838 E19.43024
G1 X39.818 Y64.538 E19.45441
G1 X39.886 Y64.971 E19.46899
G1 X40.05 Y65.74 E19.49514
G1 X40.305 Y66.602 E19.52504
G1 X40.465 Y67.243 E19.54701
G1 X40.764 Y68.194 E19.58017
G1 X41.266 Y69.051 E19.6132
G1 X41.935 Y69.737 E19.64507
G1 X42.986 Y70.276 E19.68436
G1 X44.199 Y70.417 E19.72498
G1 X45.182 Y70.223 E19.7583
G1 X46.65 Y69.653 E19.81068
G1 X47.234 Y69.504 E19.83072
G1 X48.185 Y69.192 E19.86401
G1 X48.185 Y151.79 E22.61123
G1 X47.176 Y151.503 E22.64612
G1 X46.84 Y151.445 E22.65747
G1 X45.57 Y151.024 E22.70197
G1 X44.72 Y150.776 E22.73142
G1 X43.688 Y150.696 E22.76584
G1 X42.816 Y150.926 E22.79584
G1 X41.993 Y151.341 E22.82649
G1 X41.366 Y151.931 E22.85513
G1 X40.886 Y152.649 E22.88386
G1 X40.437 Y153.904 E22.92819
G1 X40.148 Y155 E22.96589
G1 X40.013 Y155.643 E22.98774
G1 X39.912 Y155.962 E22.99887
G1 X39.725 Y156.766 E23.02632
G1 X39.674 Y157.121 E23.03825
G1 X39.516 Y157.801 E23.06147
G1 X39.489 Y158.008 E23.06841
G1 X39.361 Y158.512 E23.08571
G1 X39.304 Y158.896 E23.09862
G1 X39.151 Y159.553 E23.12106
G1 X39.115 Y159.812 E23.12976
G1 X38.948 Y160.518 E23.15388
G1 X38.846 Y161.141 E23.17488
G1 X38.681 Y161.86 E23.19942
G1 X38.649 Y162.118 E23.20806
G1 X38.502 Y162.749 E23.22961
G1 X38.466 Y163.027 E23.23894
G1 X38.336 Y163.537 E23.25644
G1 X38.206 Y164.284 E23.28166
G1 X38.041 Y164.932 E23.3039
G1 X37.848 Y165.906 E23.33693
G1 X37.81 Y166.218 E23.34738
G1 X37.592 Y167.068 E23.37657
G1 X37.325 Y168.318 E23.41908
G1 X37.304 Y169.163 E23.44719
G1 X37.261 Y169.836 E23.46962
G1 X37.226 Y170.167 E23.48069
G1 X37.23 Y172.116 E23.54552
G1 X37.353 Y172.957 E23.57379
G1 X37.797 Y173.849 E23.60693
G1 X38.356 Y174.543 E23.63657
G1 X38.665 Y174.773 E23.64938
G1 X39.542 Y175.237 E23.68238
G1 X40.49 Y175.4 E23.71437
G1 X73.774 Y175.4 E24.8214
G1 X74.754 Y175.101 E24.85548
G1 X75.301 Y174.831 E24.87577
G1 X75.909 Y174.304 E24.90253
G1 X76.309 Y173.755 E24.92512
G1 X76.5 Y173.345 E24.94017
G1 X76.571 Y173.283 E24.9433
G1 X77.07 Y172.759 E24.96737
G1 X77.493 Y171.923 E24.99853
G1 X77.628 Y171.446 E25.01502
G1 X77.686 Y170.533 E25.04545
G1 X77.616 Y170.164 E25.05794
G1 X111.674 Y170.161 E26.19071
G1 X119.454 Y170.176 E26.44948
G1 X145.296 Y170.175 E27.30898
G1 X145.219 Y170.953 E27.33499
G1 X145.411 Y171.952 E27.36882
G1 X145.825 Y172.701 E27.39729
G1 X145.97 Y173.268 E27.41675
G1 X146.283 Y173.866 E27.4392
G1 X146.823 Y174.51 E27.46715
G1 X147.74 Y175.129 E27.50395
G1 X148.876 Y175.4 E27.5428
G1 X158.409 Y175.4 E27.85986
G1 X159.404 Y175.214 E27.89353
G1 X160.173 Y174.827 E27.92217
G1 X161.796 Y173.552 E27.99081
G1 X162.282 Y173.052 E28.014
G1 X162.761 Y172.216 E28.04605
G1 X162.971 Y171.335 E28.07617
G1 X162.968 Y170.541 E28.10258
G1 X162.94 Y170.389 E28.10772
G1 X163.311 Y170.382 E28.12006
G1 X164.155 Y170.226 E28.14861
G1 X165.042 Y169.771 E28.18177
G1 X170.87 Y165.241 E28.42728
G1 X171.413 Y164.565 E28.45612
G1 X171.68 Y164.089 E28.47427
G1 X172.661 Y164.257 E28.50737
G1 X173.67 Y164.07 E28.5415
G1 X174.529 Y163.671 E28.573
G1 X177.96 Y161.004 E28.71754
G1 X178.156 Y160.871 E28.72542
G1 X178.877 Y160.295 E28.75611
G1 X179.727 Y159.633 E28.79195
G1 X180.403 Y158.935 E28.82427
G1 X180.833 Y158.034 E28.85747
G1 X181.046 Y157.146 E28.88784
G1 X180.914 Y156.103 E28.92281
G1 X180.683 Y155.548 E28.9428
G1 X180.621 Y155.268 E28.95234
G1 X180.621 Y154.349 E28.98291
G1 X180.308 Y152.736 E29.03756
G1 X180.12 Y152.029 E29.06189
G1 X180.02 Y151.498 E29.07986
G1 X179.744 Y150.42 E29.11687
G1 X179.328 Y149.649 E29.14601
G1 X178.733 Y148.996 E29.17539
G1 X177.824 Y148.447 E29.21071
G1 X177.681 Y148.394 E29.21579
G1 X176.741 Y148.242 E29.24746
G1 X175.669 Y148.297 E29.28316
G1 X174.214 Y148.807 E29.33444
G1 X173.321 Y148.938 E29.36446
G1 X172.449 Y149.196 E29.3947
G1 X171.989 Y149.419 E29.41171
G1 X171.989 Y71.618 E31.99938
G1 X172.238 Y71.75 E32.00875
G1 X173.313 Y72.161 E32.04703
G1 X174.136 Y72.224 E32.07448
G1 X175.485 Y72.659 E32.12163
G1 X176.358 Y72.814 E32.15112
G1 X177.439 Y72.714 E32.18722
G1 X178.317 Y72.316 E32.21929
G1 X179.105 Y71.678 E32.25301
G1 X179.267 Y71.469 E32.2618
G1 X179.708 Y70.666 E32.29227
G1 X179.918 Y69.866 E32.31978
G1 X180.13 Y69.123 E32.34548
G1 X180.324 Y68.07 E32.3811
G1 X180.46 Y67.525 E32.39978
G1 X180.62 Y66.706 E32.42753
G1 X180.62 Y65.839 E32.45637
G1 X180.676 Y65.513 E32.46737
G1 X180.897 Y64.978 E32.48662
G1 X181.042 Y64.064 E32.5174
G1 X180.882 Y63.112 E32.54951
G1 X180.47 Y62.198 E32.58286
G1 X179.783 Y61.471 E32.61613
G1 X178.125 Y60.166 E32.6863
G1 X174.529 Y57.379 E32.83762
G1 X173.503 Y56.896 E32.87534
G1 X172.3 Y56.815 E32.91544
G1 X171.682 Y56.971 E32.93664
G1 X171.447 Y56.537 E32.95306
G1 X170.87 Y55.811 E32.9839
G1 X166.235 Y52.208 E33.17916
G1 X165.539 Y51.84 E33.20535
G1 X164.572 Y51.622 E33.23832
G1 X164.142 Y51.612 E33.25262
G1 X164.217 Y51.293 E33.26352
G1 X164.223 Y51.059 E33.27131
G1 X164.097 Y50.144 E33.30203
G1 X163.668 Y49.133 E33.33855
G1 X163.004 Y48.409 E33.37123
G1 X162.105 Y47.716 E33.40898
G1 X161.53 Y47.143 E33.43598
G1 X160.61 Y46.737 E33.46943
G1 X159.72 Y46.604 E33.49936
G1 X151.607 Y46.595 E33.7692
G1 X150.821 Y46.579 E33.79535
G1 X149.927 Y46.408 E33.82562
G1 X149.171 Y46.384 E33.85078
G1 X148.426 Y46.559 E33.87623
G1 X148.157 Y46.66 E33.88579
G1 X147.8 Y46.722 E33.89784
G1 X147.017 Y47.01 E33.92559
G1 X146.134 Y47.657 E33.962
G1 X145.643 Y48.402 E33.99167
G1 X145.453 Y48.893 E34.00918
G1 X145.21 Y49.184 E34.02179
G1 X144.816 Y49.867 E34.04802
G1 X144.586 Y50.853 E34.08169
G1 X144.637 Y51.752 E34.11164
G1 X143.02 Y51.839 E34.1655
G1 X115.704 Y51.839 E35.07403
G1 X93.515 Y51.736 E35.81205
G1 X78.021 Y51.737 E36.32738
G1 X78.051 Y50.711 E36.36152
G1 X77.743 Y49.634 E36.39878
G1 X77.187 Y48.893 E36.42959
G1 X76.994 Y48.696 E36.43877
G1 X76.92 Y48.524 E36.44499
G1 X76.589 Y47.966 E36.46657
G1 X76.059 Y47.413 E36.49205
G1 X75.257 Y46.872 E36.52423
G1 X74.119 Y46.601 E36.56313
G1 X56.855 Y46.598 E37.13734
G1 X54.124 Y46.534 E37.22819
G1 X53.747 Y46.474 E37.24089
G1 X52.409 Y46 E37.2881
G1 X48.985 Y46.002 E37.40199
G1 X47.494 Y46.473 E37.45399
G1 X46.986 Y46.549 E37.47108
G1 X40.818 Y46.604 E37.67623
G1 X39.916 Y46.737 E37.70656
G1 X39.045 Y47.179 E37.73905
G1 X38.435 Y47.671 E37.76511
M204 S2000
M205 X10 Y10
G0 F3000 X38.686 Y47.982
M204 S1000
M205 X8 Y8
G1 F2400 X39.261 Y47.518 E37.78969
G1 X40.039 Y47.124 E37.81869
G1 X40.877 Y47 E37.84687
G1 X46.592 Y46.953 E38.03695
G1 X47.092 Y46.938 E38.05359
G1 X47.579 Y46.865 E38.06997
G1 X49.045 Y46.402 E38.1211
G1 X52.34 Y46.4 E38.2307
G1 X53.647 Y46.863 E38.27681
G1 X54.09 Y46.933 E38.29173
G1 X56.846 Y46.998 E38.38342
G1 X74.072 Y47.001 E38.95636
G1 X75.092 Y47.244 E38.99124
G1 X75.803 Y47.724 E39.01977
G1 X76.268 Y48.208 E39.04209
G1 X76.576 Y48.728 E39.06219
G1 X76.654 Y48.923 E39.06918
G1 X76.867 Y49.133 E39.07913
G1 X77.378 Y49.814 E39.10744
G1 X77.649 Y50.762 E39.14024
G1 X77.625 Y51.597 E39.16802
G1 X77.478 Y52.137 E39.18664
G1 X93.513 Y52.136 E39.71996
G1 X115.702 Y52.239 E40.45798
G1 X143.022 Y52.239 E41.36665
G1 X144.916 Y52.138 E41.42973
G1 X145.208 Y52.177 E41.43953
G1 X145.033 Y51.679 E41.45708
G1 X144.988 Y50.887 E41.48347
G1 X145.191 Y50.019 E41.51312
G1 X145.557 Y49.384 E41.5375
G1 X145.804 Y49.099 E41.55004
G1 X145.977 Y48.622 E41.56692
G1 X146.428 Y47.937 E41.59419
G1 X147.209 Y47.365 E41.62639
G1 X147.902 Y47.11 E41.65095
G1 X148.264 Y47.047 E41.66317
G1 X148.566 Y46.934 E41.6739
G1 X149.211 Y46.786 E41.69591
G1 X149.852 Y46.801 E41.71723
G1 X150.779 Y46.978 E41.74862
G1 X151.599 Y46.995 E41.7759
G1 X159.661 Y47 E42.04404
G1 X160.498 Y47.125 E42.07219
G1 X161.302 Y47.48 E42.10142
G1 X161.845 Y48.021 E42.12692
G1 X162.733 Y48.705 E42.1642
G1 X163.327 Y49.353 E42.19344
G1 X163.708 Y50.251 E42.22588
G1 X163.827 Y51.114 E42.25486
G1 X163.818 Y51.27 E42.26005
G1 X163.623 Y52.011 E42.28554
G1 X164.484 Y52.012 E42.31418
G1 X165.397 Y52.218 E42.34531
G1 X166.019 Y52.547 E42.36871
G1 X170.587 Y56.097 E42.56113
G1 X171.1 Y56.736 E42.58838
G1 X171.296 Y57.078 E42.60149
G1 X171.417 Y57.467 E42.61504
G1 X172.273 Y57.214 E42.64473
G1 X173.401 Y57.29 E42.68233
G1 X174.319 Y57.722 E42.71608
G1 X177.878 Y60.481 E42.86585
G1 X179.492 Y61.746 E42.93406
G1 X180.132 Y62.424 E42.96507
G1 X180.497 Y63.233 E42.99459
G1 X180.637 Y64.064 E43.02262
G1 X180.502 Y64.915 E43.05128
G1 X180.29 Y65.399 E43.06885
