;FLAVOR:Marlin
;TIME:3282
;Filament used: 2.78487m
;Layer height: 0.2
;MINX:93.545
;MINY:88.908
;MINZ:0.2
;MAXX:137.233
;MAXY:133.092
;MAXZ:13.2
;Generated with Cura_SteamEngine 5.3.1
M140 S60
M105
M190 S60
M104 S200
M105
M109 S200
M82 ;absolute extrusion mode
G28 ;Home
G1 Z15.0 F1200 ;Move the platform down 15mm
;Prime the extruder
G92 E0
G1 F200 E3
G92 E0
G92 E0
G92 E0
G1 F2400 E-6
;LAYER_COUNT:66
;LAYER:0
M107
M204 S2000
M205 X10 Y10
G0 F3000 X120.6 Y94.155 Z0.2
M204 S1000
M205 X8 Y8
;TYPE:SKIRT
G1 F2400 E0
G1 X120.794 Y93.915 E0.01026
G1 X121.516 Y93.312 E0.04155
G1 X122.572 Y92.779 E0.08089
G1 X123.474 Y92.648 E0.11121
G1 X128.03 Y92.622 E0.26275
G1 X128.923 Y92.627 E0.29245
G1 X129.897 Y92.818 E0.32546
G1 X130.88 Y93.35 E0.36264
G1 X131.721 Y94.16 E0.40147
G1 X132.315 Y95.361 E0.44604
G1 X132.439 Y96.191 E0.47395
G1 X132.449 Y97.237 E0.50874
G1 X133.639 Y97.366 E0.54855
G1 X133.89 Y97.435 E0.55721
G1 X135.037 Y98.046 E0.60043
G1 X135.807 Y98.826 E0.63689
G1 X136.327 Y99.682 E0.6702
G1 X136.925 Y101.525 E0.73464
G1 X136.946 Y103.773 E0.80942
G1 X136.819 Y105.249 E0.85869
G1 X136.828 Y106.286 E0.89318
G1 X136.866 Y107.413 E0.93069
G1 X137.233 Y108.534 E0.96992
G1 X137.123 Y110.648 E1.04033
G1 X137.233 Y113.022 E1.11937
G1 X136.868 Y114.155 E1.15896
G1 X136.838 Y115.585 E1.20653
G1 X136.943 Y116.839 E1.24839
G1 X136.927 Y119.146 E1.32512
G1 X136.346 Y120.937 E1.38775
G1 X135.859 Y121.774 E1.41995
G1 X134.99 Y122.685 E1.46183
G1 X133.935 Y123.192 E1.50076
G1 X133.176 Y123.39 E1.52685
G1 X132.455 Y123.412 E1.55084
G1 X132.455 Y125.117 E1.60755
G1 X132.275 Y126.164 E1.64288
G1 X131.782 Y127.096 E1.67795
G1 X131.449 Y127.53 E1.69615
G1 X130.723 Y128.115 E1.72716
G1 X129.719 Y128.612 E1.76442
G1 X128.885 Y128.736 E1.79246
G1 X123.391 Y128.718 E1.97519
G1 X122.454 Y128.565 E2.00677
G1 X121.416 Y128.01 E2.04592
G1 X120.996 Y127.638 E2.06458
G1 X120.492 Y127.007 E2.09144
G1 X119.999 Y126.015 E2.12828
G1 X119.867 Y125.112 E2.15864
G1 X119.855 Y96.271 E3.11789
G1 X120.035 Y95.224 E3.15323
G1 X120.6 Y94.155 E3.19344
M204 S2000
M205 X10 Y10
G0 F3000 X120.954 Y94.342
M204 S1000
M205 X8 Y8
G1 F2400 X121.051 Y94.222 E3.19858
G1 X121.739 Y93.647 E3.2284
G1 X122.693 Y93.166 E3.26393
G1 X123.532 Y93.044 E3.29213
G1 X128.028 Y93.022 E3.44167
G1 X128.881 Y93.027 E3.47004
G1 X129.76 Y93.199 E3.49983
G1 X130.644 Y93.678 E3.53327
G1 X131.394 Y94.4 E3.5679
G1 X131.928 Y95.479 E3.60794
G1 X132.043 Y96.25 E3.63387
G1 X132.052 Y97.727 E3.68299
G1 X132.51 Y97.646 E3.69846
G1 X133.596 Y97.764 E3.7348
G1 X133.741 Y97.809 E3.73985
G1 X134.794 Y98.37 E3.77953
G1 X135.489 Y99.074 E3.81243
G1 X135.963 Y99.853 E3.84276
G1 X136.526 Y101.588 E3.90343
G1 X136.546 Y103.777 E3.97624
G1 X136.419 Y105.238 E4.02502
G1 X136.428 Y106.3 E4.06034
G1 X136.468 Y107.482 E4.09968
G1 X136.83 Y108.588 E4.13838
G1 X136.723 Y110.656 E4.20726
G1 X136.83 Y112.968 E4.28424
G1 X136.469 Y114.087 E4.32334
G1 X136.437 Y115.601 E4.37371
G1 X136.544 Y116.873 E4.41617
G1 X136.527 Y119.08 E4.48957
G1 X135.978 Y120.774 E4.5488
G1 X135.537 Y121.531 E4.57794
G1 X134.751 Y122.356 E4.61584
G1 X133.795 Y122.815 E4.65111
G1 X133.12 Y122.991 E4.67431
G1 X132.356 Y123.015 E4.69974
G1 X132.055 Y122.953 E4.70996
G1 X132.055 Y125.084 E4.78083
G1 X131.892 Y126.032 E4.81283
G1 X131.428 Y126.909 E4.84583
G1 X131.198 Y127.218 E4.85864
G1 X130.504 Y127.777 E4.88828
G1 X129.6 Y128.225 E4.92184
G1 X128.826 Y128.34 E4.94786
G1 X123.455 Y128.323 E5.1265
G1 X122.585 Y128.181 E5.15582
G1 X121.644 Y127.678 E5.19131
G1 X121.309 Y127.389 E5.20603
G1 X120.831 Y126.79 E5.23151
G1 X120.386 Y125.895 E5.26476
G1 X120.263 Y125.054 E5.29303
G1 X120.255 Y96.304 E6.24926
G1 X120.418 Y95.356 E6.28125
G1 X120.954 Y94.342 E6.3194
M204 S2000
M205 X10 Y10
G0 F3000 X121.308 Y94.529
M204 S1000
M205 X8 Y8
G1 F2400 X121.962 Y93.982 E6.34776
G1 X122.814 Y93.553 E6.37948
G1 X123.59 Y93.44 E6.40556
G1 X128.026 Y93.422 E6.55311
G1 X128.838 Y93.427 E6.58012
G1 X129.625 Y93.581 E6.60679
G1 X130.405 Y94.003 E6.63628
G1 X131.066 Y94.64 E6.66682
G1 X131.541 Y95.6 E6.70244
G1 X131.647 Y96.309 E6.72628
G1 X131.654 Y98.225 E6.79001
G1 X132.467 Y98.044 E6.81771
G1 X133.553 Y98.162 E6.85405
G1 X134.553 Y98.695 E6.89174
G1 X135.17 Y99.319 E6.92092
G1 X135.599 Y100.024 E6.94837
G1 X136.127 Y101.651 E7.00526
G1 X136.147 Y103.742 E7.07481
G1 X136.019 Y105.217 E7.12406
G1 X136.028 Y106.314 E7.16054
G1 X136.07 Y107.551 E7.20171
G1 X136.427 Y108.642 E7.23989
G1 X136.323 Y110.664 E7.30723
G1 X136.427 Y112.914 E7.38215
G1 X136.07 Y114.019 E7.42077
G1 X136.037 Y115.616 E7.4739
G1 X136.145 Y116.906 E7.51695
G1 X136.127 Y119.014 E7.58707
G1 X135.61 Y120.611 E7.6429
G1 X135.214 Y121.291 E7.66907
G1 X134.513 Y122.026 E7.70285
G1 X133.655 Y122.438 E7.73451
G1 X133.064 Y122.592 E7.75482
G1 X132.343 Y122.615 E7.77882
G1 X131.655 Y122.435 E7.80247
G1 X131.655 Y125.051 E7.88948
G1 X131.509 Y125.9 E7.91813
G1 X131.074 Y126.722 E7.94906
G1 X130.907 Y126.939 E7.95817
G1 X130.288 Y127.438 E7.98461
G1 X129.481 Y127.838 E8.01457
G1 X128.767 Y127.944 E8.03858
G1 X123.52 Y127.928 E8.2131
G1 X122.714 Y127.796 E8.24026
G1 X121.832 Y127.325 E8.27352
G1 X121.622 Y127.14 E8.28283
G1 X121.17 Y126.573 E8.30694
G1 X120.773 Y125.775 E8.33659
G1 X120.659 Y124.996 E8.36277
G1 X120.655 Y96.337 E9.31598
G1 X120.801 Y95.488 E9.34463
G1 X121.308 Y94.529 E9.38071
M204 S2000
M205 X10 Y10
G0 F3000 X121.626 Y94.784
M204 S1000
M205 X8 Y8
G1 F2400 X122.183 Y94.319 E9.40484
G1 X122.935 Y93.94 E9.43285
G1 X123.648 Y93.836 E9.45681
G1 X128.023 Y93.822 E9.60233
G1 X128.795 Y93.827 E9.62801
G1 X129.49 Y93.963 E9.65156
G1 X130.168 Y94.33 E9.6772
G1 X130.737 Y94.878 E9.70348
G1 X131.154 Y95.721 E9.73476
G1 X131.251 Y96.368 E9.75652
G1 X131.255 Y98.876 E9.83993
G1 X131.75 Y98.613 E9.85858
G1 X132.49 Y98.449 E9.88379
G1 X133.434 Y98.552 E9.91537
G1 X134.313 Y99.02 E9.94849
G1 X134.851 Y99.564 E9.97394
G1 X135.235 Y100.195 E9.99851
G1 X135.728 Y101.714 E10.05162
G1 X135.748 Y103.707 E10.11792
G1 X135.619 Y105.196 E10.16763
G1 X135.628 Y106.328 E10.20528
G1 X135.672 Y107.62 E10.24827
G1 X136.024 Y108.696 E10.28593
G1 X135.922 Y110.672 E10.35174
G1 X136.024 Y112.86 E10.42459
G1 X135.671 Y113.951 E10.46273
G1 X135.636 Y115.632 E10.51865
G1 X135.746 Y116.94 E10.56231
G1 X135.728 Y118.948 E10.6291
G1 X135.242 Y120.449 E10.68157
G1 X134.893 Y121.047 E10.7046
G1 X134.274 Y121.697 E10.73446
G1 X133.482 Y122.077 E10.76367
G1 X133.01 Y122.193 E10.77984
G1 X132.387 Y122.213 E10.80057
G1 X131.738 Y122.043 E10.82288
G1 X131.255 Y121.792 E10.84099
G1 X131.255 Y125.018 E10.94829
G1 X131.126 Y125.768 E10.9736
G1 X130.72 Y126.535 E11.00246
G1 X130.617 Y126.659 E11.00782
G1 X130.072 Y127.099 E11.03112
G1 X129.362 Y127.451 E11.05748
G1 X128.708 Y127.548 E11.07947
G1 X123.584 Y127.533 E11.24989
G1 X122.843 Y127.412 E11.27487
G1 X122.06 Y126.994 E11.30439
G1 X121.935 Y126.89 E11.3098
G1 X121.507 Y126.354 E11.33261
G1 X121.16 Y125.655 E11.35857
G1 X121.055 Y124.938 E11.38267
G1 X121.055 Y96.37 E12.33284
G1 X121.184 Y95.62 E12.35815
G1 X121.626 Y94.784 E12.38961
M204 S2000
M205 X10 Y10
G0 F3000 X121.943 Y95.041
M204 S1000
M205 X8 Y8
G1 F2400 X122.406 Y94.654 E12.40968
G1 X123.058 Y94.326 E12.43395
G1 X123.649 Y94.236 E12.45384
G1 X128.02 Y94.222 E12.59922
G1 X128.752 Y94.227 E12.62356
G1 X129.355 Y94.345 E12.644
G1 X129.929 Y94.655 E12.6657
G1 X130.411 Y95.12 E12.68797
G1 X130.767 Y95.839 E12.71466
G1 X130.855 Y96.427 E12.73443
G1 X130.855 Y99.838 E12.84788
G1 X131.084 Y99.522 E12.86086
G1 X131.379 Y99.263 E12.87392
G1 X131.888 Y98.992 E12.8931
G1 X132.512 Y98.854 E12.91435
G1 X133.315 Y98.942 E12.94122
G1 X134.073 Y99.345 E12.96977
G1 X134.532 Y99.809 E12.99148
G1 X134.87 Y100.365 E13.01312
G1 X135.329 Y101.778 E13.06254
G1 X135.349 Y103.673 E13.12557
G1 X135.219 Y105.176 E13.17575
G1 X135.228 Y106.342 E13.21453
G1 X135.274 Y107.689 E13.25936
G1 X135.621 Y108.75 E13.29648
G1 X135.522 Y110.681 E13.36079
G1 X135.621 Y112.806 E13.43155
G1 X135.272 Y113.883 E13.4692
G1 X135.235 Y115.648 E13.52792
G1 X135.347 Y116.974 E13.57218
G1 X135.329 Y118.885 E13.63574
G1 X134.876 Y120.282 E13.68459
G1 X134.57 Y120.807 E13.7048
G1 X134.036 Y121.367 E13.73054
G1 X133.309 Y121.716 E13.75736
G1 X132.997 Y121.793 E13.76805
G1 X132.431 Y121.811 E13.78688
G1 X131.884 Y121.668 E13.80569
G1 X131.322 Y121.375 E13.82677
G1 X131.199 Y121.275 E13.83204
G1 X130.855 Y120.846 E13.85033
G1 X130.855 Y124.985 E13.98799
G1 X130.743 Y125.636 E14.00996
G1 X130.366 Y126.348 E14.03676
G1 X129.856 Y126.76 E14.05857
G1 X129.243 Y127.064 E14.08132
G1 X128.649 Y127.152 E14.1013
G1 X123.649 Y127.138 E14.2676
G1 X122.972 Y127.027 E14.29041
G1 X122.248 Y126.641 E14.3177
G1 X121.846 Y126.137 E14.33915
G1 X121.546 Y125.533 E14.36158
G1 X121.455 Y124.938 E14.3816
G1 X121.455 Y96.403 E15.33067
G1 X121.567 Y95.752 E15.35265
G1 X121.943 Y95.041 E15.3794
M204 S2000
M205 X10 Y10
G0 F3000 X122.26 Y95.298
M204 S1000
M205 X8 Y8
G1 F2400 X122.629 Y94.989 E15.3954
G1 X123.18 Y94.712 E15.41592
G1 X123.65 Y94.636 E15.43175
G1 X128.017 Y94.622 E15.577
G1 X128.709 Y94.627 E15.60002
G1 X129.22 Y94.727 E15.61733
G1 X129.739 Y95.007 E15.63695
G1 X130.085 Y95.361 E15.65341
G1 X130.381 Y95.959 E15.6756
G1 X130.455 Y96.427 E15.69136
G1 X130.455 Y124.952 E16.64011
G1 X130.36 Y125.504 E16.65874
G1 X130.05 Y126.09 E16.68079
G1 X129.678 Y126.402 E16.69694
G1 X129.122 Y126.678 E16.71758
G1 X128.65 Y126.752 E16.73347
G1 X123.65 Y126.738 E16.89977
G1 X123.102 Y126.643 E16.91827
G1 X122.509 Y126.327 E16.94062
G1 X122.204 Y125.959 E16.95652
G1 X121.932 Y125.412 E16.97684
G1 X121.855 Y124.938 E16.99281
G1 X121.855 Y96.436 E17.94079
G1 X121.95 Y95.884 E17.95942
G1 X122.26 Y95.298 E17.98147
M204 S2000
M205 X10 Y10
G0 F3000 X122.578 Y95.553
M204 S1000
M205 X8 Y8
G1 F2400 X122.808 Y95.346 E17.99176
G1 X123.302 Y95.098 E18.01015
G1 X123.651 Y95.036 E18.02193
G1 X128.014 Y95.022 E18.16705
G1 X128.666 Y95.027 E18.18874
G1 X129.085 Y95.109 E18.20294
G1 X129.549 Y95.359 E18.22047
G1 X129.752 Y95.589 E18.23067
G1 X129.995 Y96.08 E18.24889
G1 X130.055 Y96.427 E18.2606
G1 X130.055 Y124.952 E19.20935
G1 X129.977 Y125.371 E19.22352
G1 X129.732 Y125.835 E19.24098
G1 X129.5 Y126.044 E19.25136
G1 X128.999 Y126.293 E19.26997
G1 X128.651 Y126.352 E19.28171
G1 X123.651 Y126.338 E19.44801
G1 X123.234 Y126.26 E19.46212
G1 X122.767 Y126.011 E19.47972
G1 X122.562 Y125.781 E19.48997
G1 X122.317 Y125.289 E19.50825
G1 X122.255 Y124.938 E19.52011
G1 X122.255 Y96.436 E20.46809
G1 X122.333 Y96.017 E20.48226
G1 X122.578 Y95.553 E20.49971
M204 S2000
M205 X10 Y10
G0 F3000 X122.862 Y95.835
M204 S1000
M205 X8 Y8
G1 F2400 X122.999 Y95.697 E20.50618
G1 X123.38 Y95.49 E20.5206
G1 X123.652 Y95.436 E20.52983
G1 X128.011 Y95.422 E20.67481
G1 X128.663 Y95.427 E20.69649
G1 X129 Y95.5 E20.70796
G1 X129.264 Y95.64 E20.7179
G1 X129.399 Y95.777 E20.7243
G1 X129.602 Y96.157 E20.73863
G1 X129.655 Y96.427 E20.74778
G1 X129.655 Y124.952 E21.69653
G1 X129.585 Y125.29 E21.70801
G1 X129.448 Y125.553 E21.71787
G1 X129.31 Y125.692 E21.72438
G1 X128.924 Y125.9 E21.73897
G1 X128.652 Y125.952 E21.74818
G1 X123.652 Y125.938 E21.91448
G1 X123.316 Y125.868 E21.92589
G1 X123.051 Y125.729 E21.93585
G1 X122.914 Y125.591 E21.94232
G1 X122.709 Y125.211 E21.95668
G1 X122.655 Y124.938 E21.96593
G1 X122.655 Y96.436 E22.91391
G1 X122.725 Y96.098 E22.92539
G1 X122.862 Y95.835 E22.93526
M204 S2000
M205 X10 Y10
G0 F3000 X123.205 Y96.04
M204 S1000
M205 X8 Y8
G1 F2400 X123.473 Y95.879 E22.94565
G1 X123.653 Y95.836 E22.95181
G1 X128.008 Y95.822 E23.09666
G1 X128.66 Y95.827 E23.11834
G1 X128.903 Y95.888 E23.12668
G1 X129.055 Y95.981 E23.1326
G1 X129.213 Y96.248 E23.14292
G1 X129.255 Y96.427 E23.14904
G1 X129.255 Y124.952 E24.09778
G1 X129.196 Y125.196 E24.10613
G1 X129.105 Y125.348 E24.11203
G1 X128.833 Y125.51 E24.12255
G1 X128.653 Y125.552 E24.1287
G1 X123.653 Y125.538 E24.295
G1 X123.41 Y125.479 E24.30332
G1 X123.258 Y125.387 E24.30923
G1 X123.098 Y125.118 E24.31964
G1 X123.055 Y124.938 E24.3258
G1 X123.055 Y96.436 E25.27378
G1 X123.114 Y96.192 E25.28213
G1 X123.205 Y96.04 E25.28802
M204 S2000
M205 X10 Y10
G0 F3000 X123.494 Y96.317
M204 S1000
M205 X8 Y8
G1 F2400 X123.654 Y96.236 E25.29398
G1 X128.005 Y96.222 E25.4387
G1 X128.657 Y96.227 E25.46038
G1 X128.775 Y96.267 E25.46453
G1 X128.855 Y96.427 E25.47048
G1 X128.855 Y124.952 E26.41922
G1 X128.816 Y125.071 E26.42339
G1 X128.654 Y125.152 E26.42941
G1 X123.654 Y125.138 E26.59571
G1 X123.536 Y125.099 E26.59985
G1 X123.455 Y124.938 E26.60584
G1 X123.455 Y96.436 E27.55382
G1 X123.494 Y96.317 E27.55799
M204 S2000
M205 X10 Y10
G1 F2400 E21.55799
G0 F3000 X123.492 Y95.772
G0 X129.308 Y95.779
G0 X131.014 Y100.318
M204 S1000
M205 X8 Y8
G1 F2400 E27.55799
G1 X131.348 Y99.823 E27.57785
G1 X131.643 Y99.564 E27.59091
G1 X131.975 Y99.383 E27.60348
G1 X132.534 Y99.259 E27.62253
G1 X133.196 Y99.332 E27.64468
G1 X133.831 Y99.669 E27.66859
G1 X134.214 Y100.057 E27.68672
G1 X134.505 Y100.535 E27.70533
G1 X134.93 Y101.842 E27.75105
G1 X134.95 Y103.639 E27.81082
G1 X134.819 Y105.156 E27.86146
G1 X134.828 Y106.356 E27.90137
G1 X134.876 Y107.758 E27.94803
G1 X135.218 Y108.804 E27.98463
G1 X135.121 Y110.689 E28.04741
G1 X135.218 Y112.755 E28.1162
G1 X134.873 Y113.818 E28.15338
G1 X134.835 Y115.664 E28.21479
G1 X134.948 Y117.008 E28.25965
G1 X134.93 Y118.822 E28.31998
G1 X134.51 Y120.116 E28.36523
G1 X134.249 Y120.563 E28.38245
G1 X133.797 Y121.038 E28.40426
G1 X133.136 Y121.355 E28.42864
G1 X132.984 Y121.393 E28.43385
G1 X132.474 Y121.409 E28.45082
G1 X132.069 Y121.313 E28.46466
G1 X131.507 Y121.02 E28.48574
G1 X131.201 Y120.65 E28.50171
G1 X130.929 Y120.101 E28.52209
G1 X130.855 Y119.633 E28.53785
G1 X130.855 Y100.986 E29.15805
G1 X131.014 Y100.318 E29.18089
M204 S2000
M205 X10 Y10
G0 F3000 X131.68 Y100.047
M204 S1000
M205 X8 Y8
G1 F2400 X131.893 Y99.877 E29.18996
G1 X132.16 Y99.738 E29.19997
G1 X132.49 Y99.657 E29.21127
G1 X133.076 Y99.722 E29.23088
G1 X133.592 Y99.995 E29.25029
G1 X133.877 Y100.273 E29.26354
G1 X134.125 Y100.659 E29.2788
G1 X134.531 Y101.907 E29.32245
G1 X134.551 Y103.605 E29.37893
G1 X134.419 Y105.136 E29.43004
G1 X134.428 Y106.37 E29.47108
G1 X134.478 Y107.827 E29.51957
G1 X134.815 Y108.858 E29.55565
G1 X134.72 Y110.697 E29.61689
G1 X134.815 Y112.703 E29.68369
G1 X134.474 Y113.752 E29.72037
G1 X134.434 Y115.68 E29.78451
G1 X134.549 Y117.042 E29.82998
G1 X134.531 Y118.758 E29.88705
G1 X134.143 Y119.952 E29.92881
G1 X133.959 Y120.287 E29.94152
G1 X133.558 Y120.709 E29.96088
G1 X132.963 Y120.994 E29.98283
G1 X132.551 Y121.016 E29.99655
G1 X132.254 Y120.958 E30.00661
G1 X131.763 Y120.702 E30.02503
G1 X131.559 Y120.473 E30.03523
G1 X131.315 Y119.98 E30.05353
G1 X131.255 Y119.633 E30.06524
G1 X131.255 Y101.033 E30.68388
G1 X131.386 Y100.483 E30.70268
G1 X131.68 Y100.047 E30.72017
M204 S2000
M205 X10 Y10
G0 F3000 X131.941 Y100.35
M204 S1000
M205 X8 Y8
G1 F2400 X132.078 Y100.232 E30.72619
G1 X132.345 Y100.093 E30.7362
G1 X132.566 Y100.05 E30.74369
G1 X133.016 Y100.118 E30.75882
G1 X133.319 Y100.287 E30.77036
G1 X133.549 Y100.502 E30.78084
G1 X133.745 Y100.783 E30.79223
G1 X134.132 Y101.972 E30.83382
G1 X134.152 Y103.571 E30.88701
G1 X134.019 Y105.116 E30.93858
G1 X134.028 Y106.384 E30.98076
G1 X134.08 Y107.896 E31.03108
G1 X134.412 Y108.912 E31.06663
G1 X134.319 Y110.705 E31.12634
G1 X134.412 Y112.651 E31.19114
G1 X134.075 Y113.686 E31.22734
G1 X134.033 Y115.696 E31.29421
G1 X134.15 Y117.076 E31.34028
G1 X134.132 Y118.694 E31.39409
G1 X133.763 Y119.828 E31.43376
G1 X133.613 Y120.087 E31.44371
G1 X133.319 Y120.379 E31.45749
G1 X132.86 Y120.599 E31.47442
G1 X132.628 Y120.623 E31.48218
G1 X132.331 Y120.565 E31.49225
G1 X132.047 Y120.42 E31.50285
G1 X131.912 Y120.284 E31.50923
G1 X131.708 Y119.903 E31.5236
G1 X131.655 Y119.633 E31.53275
G1 X131.655 Y101.033 E32.15139
G1 X131.725 Y100.695 E32.16287
G1 X131.941 Y100.35 E32.17641
M204 S2000
M205 X10 Y10
G0 F3000 X132.263 Y100.587
M204 S1000
M205 X8 Y8
G1 F2400 X132.53 Y100.448 E32.18642
G1 X132.838 Y100.476 E32.19671
G1 X133.046 Y100.579 E32.20443
G1 X133.276 Y100.794 E32.2149
G1 X133.383 Y100.962 E32.22152
G1 X133.733 Y102.037 E32.25912
