;FLAVOR:Marlin
;TIME:2566
;Filament used: 2.01684m
;Layer height: 0.2
;MINX:84.347
;MINY:81.113
;MINZ:0.2
;MAXX:146.412
;MAXY:131.8
;MAXZ:18
;Generated with Cura_SteamEngine 5.3.1
M140 S60
M105
M190 S60
M104 S200
M105
M109 S200
M82 ;absolute extrusion mode
G28 ;Home
G1 Z15.0 F1200 ;Move the platform down 15mm
;Prime the extruder
G92 E0
G1 F200 E3
G92 E0
G92 E0
G92 E0
G1 F2400 E-6
;LAYER_COUNT:90
;LAYER:0
M107
M204 S2000
M205 X10 Y10
G0 F3000 X90.385 Y82.985 Z0.2
M204 S1000
M205 X8 Y8
;TYPE:SKIRT
G1 F2400 E0
G1 X91.671 Y82.052 E0.05284
G1 X92.485 Y81.629 E0.08335
G1 X93.559 Y81.404 E0.11985
G1 X95.194 Y81.404 E0.17423
G1 X95.346 Y81.391 E0.17931
G1 X98.574 Y81.387 E0.28667
G1 X98.717 Y81.375 E0.29144
G1 X100.845 Y81.37 E0.36222
G1 X101.319 Y81.212 E0.37884
G1 X101.995 Y81.113 E0.40156
G1 X106.822 Y81.113 E0.56211
G1 X107.498 Y81.212 E0.58483
G1 X107.972 Y81.371 E0.60146
G1 X111.464 Y81.371 E0.71761
G1 X112.538 Y81.596 E0.7541
G1 X113.352 Y82.019 E0.78461
G1 X114.483 Y82.842 E0.83114
G1 X115.132 Y83.46 E0.86094
G1 X115.749 Y84.461 E0.90005
G1 X115.999 Y85.564 E0.93767
G1 X116.01 Y86.204 E0.95896
G1 X135.409 Y86.228 E1.60417
G1 X136.789 Y86.429 E1.65056
G1 X138.452 Y87.28 E1.71269
G1 X139.736 Y88.565 E1.77311
G1 X140.534 Y90.162 E1.83249
G1 X140.799 Y91.434 E1.8757
G1 X140.799 Y104.248 E2.3019
G1 X141.034 Y104.225 E2.30975
G1 X141.892 Y104.32 E2.33846
G1 X142.984 Y104.699 E2.37691
G1 X144.478 Y105.784 E2.43832
G1 X145.127 Y106.39 E2.46785
G1 X145.696 Y107.339 E2.50466
G1 X146.295 Y109.186 E2.56924
G1 X146.412 Y110.26 E2.60517
G1 X146.256 Y111.145 E2.63506
G1 X146.083 Y111.621 E2.6519
G1 X146.161 Y111.924 E2.66231
G1 X146.242 Y112.837 E2.6928
G1 X146.093 Y113.709 E2.72222
G1 X145.611 Y115.204 E2.77446
G1 X145.143 Y116.153 E2.80966
G1 X144.398 Y116.93 E2.84546
G1 X143.016 Y117.932 E2.90224
G1 X141.865 Y118.423 E2.94386
G1 X140.8 Y118.487 E2.97934
G1 X140.8 Y127.698 E3.2857
G1 X140.62 Y128.745 E3.32103
G1 X140.127 Y129.677 E3.3561
G1 X139.794 Y130.111 E3.3743
G1 X139.069 Y130.695 E3.40526
G1 X138.077 Y131.189 E3.44212
G1 X137.174 Y131.321 E3.47247
G1 X132.835 Y131.333 E3.61679
G1 X131.788 Y131.153 E3.65212
G1 X130.856 Y130.66 E3.68719
G1 X130.422 Y130.327 E3.70539
G1 X129.838 Y129.602 E3.73635
G1 X129.344 Y128.61 E3.77321
G1 X129.212 Y127.707 E3.80356
G1 X129.2 Y119.361 E4.08115
G1 X128.921 Y119.382 E4.09046
G1 X127.821 Y119.222 E4.12743
G1 X126.854 Y118.787 E4.16269
G1 X125.329 Y117.679 E4.22539
G1 X124.622 Y116.879 E4.2609
G1 X124.142 Y115.781 E4.30076
G1 X123.598 Y113.006 E4.39481
G1 X123.607 Y108.421 E4.54731
G1 X123.664 Y107.506 E4.5778
G1 X123.503 Y107.097 E4.59242
G1 X122.662 Y106.258 E4.63193
G1 X121.551 Y105.582 E4.67519
G1 X121.103 Y105.219 E4.69436
G1 X120.796 Y104.849 E4.71035
G1 X120.657 Y104.757 E4.7159
G1 X119.779 Y104.56 E4.74583
G1 X118.251 Y103.738 E4.80354
G1 X117.799 Y103.707 E4.8186
G1 X117.305 Y103.604 E4.83539
G1 X116.672 Y103.37 E4.85783
G1 X116.407 Y103.219 E4.86798
G1 X115.436 Y103.146 E4.90037
G1 X114.56 Y102.818 E4.93148
G1 X114.404 Y102.741 E4.93726
G1 X113.69 Y102.63 E4.9613
G1 X110.487 Y102.616 E5.06783
G1 X110.369 Y102.626 E5.07177
G1 X109.234 Y102.63 E5.10952
G1 X108.381 Y102.895 E5.13923
G1 X102.448 Y102.895 E5.33656
G1 X101.678 Y102.63 E5.36364
G1 X98.814 Y102.625 E5.4589
G1 X98.671 Y102.613 E5.46367
G1 X95.682 Y102.608 E5.56309
G1 X95.538 Y102.596 E5.5679
G1 X93.55 Y102.596 E5.63402
G1 X92.483 Y102.371 E5.67029
G1 X91.691 Y101.967 E5.69986
G1 X90.237 Y100.915 E5.75955
G1 X89.543 Y99.939 E5.79938
G1 X89.211 Y99.186 E5.82675
G1 X89.019 Y98.177 E5.86091
G1 X89.021 Y97.752 E5.87505
G1 X88.254 Y97.62 E5.90093
G1 X87.322 Y97.127 E5.936
G1 X86.888 Y96.794 E5.9542
G1 X86.304 Y96.069 E5.98516
G1 X85.81 Y95.077 E6.02202
G1 X85.678 Y94.174 E6.05237
G1 X85.667 Y89.835 E6.19669
G1 X85.847 Y88.788 E6.23202
G1 X86.34 Y87.856 E6.26709
G1 X86.673 Y87.422 E6.28528
G1 X87.398 Y86.838 E6.31625
G1 X88.39 Y86.344 E6.35311
G1 X89.021 Y86.252 E6.37432
G1 X89.127 Y85.096 E6.41293
G1 X89.559 Y83.947 E6.45375
G1 X90.385 Y82.985 E6.49593
M204 S2000
M205 X10 Y10
G0 F3000 X90.659 Y83.28
M204 S1000
M205 X8 Y8
G1 F2400 X91.906 Y82.376 E6.54715
G1 X92.622 Y82.009 E6.57391
G1 X93.598 Y81.804 E6.60708
G1 X95.216 Y81.804 E6.6609
G1 X95.38 Y81.79 E6.66637
G1 X98.595 Y81.787 E6.7733
G1 X98.75 Y81.774 E6.77848
G1 X100.914 Y81.77 E6.85045
G1 X101.377 Y81.608 E6.86677
G1 X102.053 Y81.509 E6.88949
G1 X106.764 Y81.509 E7.04618
G1 X107.44 Y81.608 E7.0689
G1 X107.904 Y81.771 E7.08526
G1 X111.425 Y81.771 E7.20237
G1 X112.401 Y81.976 E7.23554
G1 X113.117 Y82.343 E7.2623
G1 X114.207 Y83.132 E7.30706
G1 X114.82 Y83.716 E7.33522
G1 X115.374 Y84.614 E7.37031
G1 X115.6 Y85.611 E7.40431
G1 X115.614 Y86.429 E7.43152
G1 X115.579 Y86.604 E7.43746
G1 X135.352 Y86.624 E8.09511
G1 X136.667 Y86.815 E8.13931
G1 X138.213 Y87.607 E8.19708
G1 X139.407 Y88.802 E8.25327
G1 X140.153 Y90.294 E8.30875
G1 X140.399 Y91.477 E8.34894
G1 X140.399 Y104.715 E8.78923
G1 X140.99 Y104.623 E8.80913
G1 X141.805 Y104.713 E8.8364
G1 X142.796 Y105.057 E8.87129
G1 X144.243 Y106.108 E8.93077
G1 X144.812 Y106.643 E8.95675
G1 X145.331 Y107.508 E8.9903
G1 X145.901 Y109.266 E9.05177
G1 X146.008 Y110.248 E9.08462
G1 X145.862 Y111.076 E9.11259
G1 X145.663 Y111.603 E9.13132
G1 X145.763 Y111.959 E9.14362
G1 X145.839 Y112.818 E9.17231
G1 X145.712 Y113.586 E9.1982
G1 X145.23 Y115.081 E9.25044
G1 X144.811 Y115.92 E9.28163
G1 X144.134 Y116.627 E9.31419
G1 X142.817 Y117.582 E9.3683
G1 X141.771 Y118.028 E9.40612
G1 X140.848 Y118.084 E9.43687
G1 X140.4 Y118.008 E9.45199
G1 X140.4 Y127.665 E9.77318
G1 X140.237 Y128.613 E9.80517
G1 X139.773 Y129.49 E9.83817
G1 X139.543 Y129.799 E9.85098
G1 X138.849 Y130.358 E9.88062
G1 X137.957 Y130.802 E9.91376
G1 X137.116 Y130.925 E9.94203
G1 X132.868 Y130.933 E10.08332
G1 X131.92 Y130.77 E10.11532
G1 X131.043 Y130.306 E10.14832
G1 X130.734 Y130.076 E10.16113
G1 X130.175 Y129.382 E10.19077
G1 X129.731 Y128.49 E10.22391
G1 X129.608 Y127.649 E10.25218
G1 X129.6 Y118.906 E10.54297
G1 X128.979 Y118.986 E10.5638
G1 X127.934 Y118.834 E10.59892
G1 X127.056 Y118.439 E10.63094
G1 X125.6 Y117.381 E10.6908
G1 X124.964 Y116.661 E10.72275
G1 X124.527 Y115.661 E10.75905
G1 X123.998 Y112.965 E10.85043
G1 X124.006 Y108.446 E11.00073
G1 X124.068 Y107.443 E11.03416
G1 X123.844 Y106.872 E11.05456
G1 X122.912 Y105.942 E11.09835
G1 X121.803 Y105.271 E11.14146
G1 X121.387 Y104.934 E11.15927
G1 X121.068 Y104.55 E11.17587
G1 X120.816 Y104.383 E11.18593
G1 X119.921 Y104.182 E11.21644
G1 X118.364 Y103.344 E11.27525
G1 X117.881 Y103.315 E11.29134
G1 X117.387 Y103.212 E11.30812
G1 X116.813 Y102.996 E11.32852
G1 X116.531 Y102.827 E11.33946
G1 X115.523 Y102.751 E11.37308
G1 X114.7 Y102.443 E11.4023
G1 X114.531 Y102.356 E11.40863
G1 X113.72 Y102.23 E11.43592
G1 X110.467 Y102.216 E11.54412
G1 X110.336 Y102.227 E11.54849
G1 X109.172 Y102.23 E11.58721
G1 X108.32 Y102.495 E11.61688
G1 X102.514 Y102.495 E11.80999
G1 X101.744 Y102.23 E11.83708
G1 X98.847 Y102.226 E11.93343
G1 X98.692 Y102.213 E11.93861
G1 X95.715 Y102.209 E12.03762
G1 X95.559 Y102.196 E12.04283
G1 X93.59 Y102.196 E12.10832
G1 X92.618 Y101.991 E12.14136
G1 X91.926 Y101.643 E12.16712
G1 X90.525 Y100.629 E12.22464
G1 X89.893 Y99.741 E12.26089
G1 X89.595 Y99.066 E12.28543
G1 X89.412 Y98.102 E12.31807
G1 X89.406 Y97.868 E12.32585
G1 X89.495 Y97.4 E12.3417
G1 X89.299 Y97.394 E12.34822
G1 X88.386 Y97.237 E12.37903
G1 X87.509 Y96.773 E12.41203
G1 X87.2 Y96.543 E12.42485
G1 X86.641 Y95.849 E12.45448
G1 X86.197 Y94.957 E12.48762
G1 X86.074 Y94.116 E12.51589
G1 X86.067 Y89.868 E12.65718
G1 X86.23 Y88.92 E12.68918
G1 X86.694 Y88.043 E12.72218
G1 X86.924 Y87.734 E12.73499
G1 X87.618 Y87.175 E12.76463
G1 X88.51 Y86.731 E12.79777
G1 X89.499 Y86.586 E12.83101
G1 X89.428 Y86.186 E12.84453
G1 X89.52 Y85.186 E12.87793
G1 X89.907 Y84.156 E12.91452
G1 X90.659 Y83.28 E12.95292
M204 S2000
M205 X10 Y10
G0 F3000 X90.933 Y83.575
M204 S1000
M205 X8 Y8
G1 F2400 X92.141 Y82.7 E13.00253
G1 X92.758 Y82.389 E13.02551
G1 X93.637 Y82.204 E13.05539
G1 X95.238 Y82.204 E13.10864
G1 X95.414 Y82.189 E13.11451
G1 X98.616 Y82.187 E13.22101
G1 X98.783 Y82.173 E13.22659
G1 X100.984 Y82.17 E13.29979
G1 X101.435 Y82.004 E13.31578
G1 X102.111 Y81.905 E13.3385
G1 X106.706 Y81.905 E13.49133
G1 X107.382 Y82.004 E13.51405
G1 X107.832 Y82.171 E13.53002
G1 X111.386 Y82.171 E13.64823
G1 X112.265 Y82.356 E13.6781
G1 X112.882 Y82.667 E13.70108
G1 X113.972 Y83.456 E13.74584
G1 X114.507 Y83.97 E13.77051
G1 X114.999 Y84.767 E13.80167
G1 X115.201 Y85.658 E13.83205
G1 X115.214 Y86.436 E13.85793
G1 X115.023 Y87.004 E13.87786
G1 X135.294 Y87.02 E14.55208
G1 X136.545 Y87.202 E14.59413
G1 X137.974 Y87.934 E14.64753
G1 X139.078 Y89.039 E14.69948
G1 X139.771 Y90.426 E14.75105
G1 X139.999 Y91.521 E14.78825
G1 X139.999 Y105.195 E15.24305
G1 X140.946 Y105.021 E15.27507
G1 X141.718 Y105.106 E15.30091
G1 X142.608 Y105.415 E15.33224
G1 X144.008 Y106.432 E15.38979
G1 X144.497 Y106.895 E15.41219
G1 X144.964 Y107.674 E15.4424
G1 X145.507 Y109.35 E15.501
G1 X145.604 Y110.236 E15.53064
G1 X145.468 Y111.007 E15.55668
G1 X145.24 Y111.586 E15.57738
G1 X145.365 Y111.994 E15.59157
G1 X145.436 Y112.801 E15.61852
G1 X145.331 Y113.463 E15.64081
G1 X144.849 Y114.958 E15.69305
G1 X144.48 Y115.687 E15.72023
G1 X143.87 Y116.324 E15.74956
G1 X142.618 Y117.232 E15.801
G1 X141.677 Y117.633 E15.83503
G1 X140.824 Y117.685 E15.86345
G1 X140 Y117.52 E15.8914
G1 X140 Y127.632 E16.22773
G1 X139.854 Y128.481 E16.25638
G1 X139.419 Y129.303 E16.28731
G1 X139.252 Y129.52 E16.29642
G1 X138.633 Y130.019 E16.32286
G1 X137.837 Y130.415 E16.35243
G1 X137.058 Y130.529 E16.37862
G1 X132.901 Y130.533 E16.51688
G1 X132.052 Y130.387 E16.54553
G1 X131.23 Y129.952 E16.57647
G1 X131.013 Y129.785 E16.58557
G1 X130.514 Y129.166 E16.61202
G1 X130.118 Y128.37 E16.64159
G1 X130.004 Y127.591 E16.66777
G1 X130 Y118.396 E16.9736
G1 X129.788 Y118.478 E16.98116
G1 X128.982 Y118.582 E17.00819
G1 X128.047 Y118.446 E17.03962
G1 X127.258 Y118.091 E17.06839
G1 X125.871 Y117.083 E17.12542
G1 X125.306 Y116.443 E17.15381
G1 X124.912 Y115.541 E17.18655
G1 X124.398 Y112.924 E17.27526
G1 X124.405 Y108.471 E17.42336
G1 X124.473 Y107.38 E17.45972
G1 X124.185 Y106.647 E17.48592
G1 X123.16 Y105.624 E17.53408
G1 X122.055 Y104.96 E17.57696
G1 X121.639 Y104.623 E17.59477
G1 X121.34 Y104.249 E17.61069
G1 X120.941 Y103.985 E17.6266
G1 X120.798 Y103.969 E17.63139
G1 X120.063 Y103.804 E17.65644
G1 X118.473 Y102.948 E17.71651
G1 X117.963 Y102.923 E17.73349
G1 X117.469 Y102.82 E17.75027
G1 X116.957 Y102.623 E17.76852
G1 X116.66 Y102.435 E17.78021
G1 X115.61 Y102.356 E17.81523
G1 X114.84 Y102.068 E17.84257
G1 X114.663 Y101.972 E17.84927
G1 X113.751 Y101.83 E17.87997
G1 X110.447 Y101.816 E17.98986
G1 X110.303 Y101.828 E17.99467
G1 X109.11 Y101.83 E18.03435
G1 X108.259 Y102.095 E18.06399
G1 X102.58 Y102.095 E18.25288
G1 X101.81 Y101.83 E18.27996
G1 X98.88 Y101.827 E18.37741
G1 X98.713 Y101.813 E18.38299
G1 X95.748 Y101.81 E18.4816
G1 X95.58 Y101.796 E18.48721
G1 X93.629 Y101.796 E18.5521
G1 X92.751 Y101.611 E18.58195
G1 X92.161 Y101.319 E18.60384
G1 X90.813 Y100.343 E18.65919
G1 X90.242 Y99.541 E18.69194
G1 X89.98 Y98.947 E18.71353
G1 X89.805 Y98.027 E18.74468
G1 X89.806 Y97.871 E18.74987
G1 X89.986 Y97 E18.77945
G1 X89.367 Y97 E18.80004
G1 X88.518 Y96.854 E18.82869
G1 X87.696 Y96.419 E18.85962
G1 X87.479 Y96.252 E18.86873
G1 X86.98 Y95.633 E18.89517
G1 X86.584 Y94.837 E18.92474
G1 X86.47 Y94.058 E18.95093
G1 X86.467 Y89.901 E19.08919
G1 X86.613 Y89.052 E19.11784
G1 X87.048 Y88.23 E19.14878
G1 X87.215 Y88.013 E19.15788
G1 X87.834 Y87.514 E19.18433
G1 X88.63 Y87.118 E19.2139
G1 X89.409 Y87.004 E19.24008
G1 X90.005 Y87 E19.25991
G1 X89.826 Y86.223 E19.28643
G1 X89.913 Y85.276 E19.31806
G1 X90.255 Y84.365 E19.35042
G1 X90.933 Y83.575 E19.38505
M204 S2000
M205 X10 Y10
G0 F3000 X91.205 Y83.872
M204 S1000
M205 X8 Y8
G1 F2400 X90.604 Y84.572 E19.41573
G1 X90.306 Y85.366 E19.44394
G1 X90.23 Y86.194 E19.4716
G1 X90.396 Y86.915 E19.4962
G1 X90.653 Y87.4 E19.51446
G1 X89.467 Y87.4 E19.55391
G1 X88.75 Y87.505 E19.57801
G1 X88.05 Y87.853 E19.60401
G1 X87.505 Y88.293 E19.62731
G1 X87.402 Y88.417 E19.63267
G1 X86.996 Y89.184 E19.66153
G1 X86.867 Y89.934 E19.68684
G1 X86.866 Y94 E19.82208
G1 X86.971 Y94.717 E19.84618
G1 X87.319 Y95.417 E19.87218
G1 X87.759 Y95.962 E19.89548
G1 X87.883 Y96.065 E19.90084
G1 X88.65 Y96.471 E19.9297
G1 X89.4 Y96.6 E19.95502
G1 X90.626 Y96.6 E19.99579
G1 X90.35 Y97.218 E20.0183
G1 X90.198 Y97.952 E20.04323
G1 X90.365 Y98.828 E20.0729
G1 X90.591 Y99.341 E20.09154
G1 X91.102 Y100.059 E20.12085
G1 X92.368 Y100.975 E20.17282
G1 X92.884 Y101.231 E20.19198
G1 X93.668 Y101.396 E20.21863
G1 X95.601 Y101.396 E20.28292
G1 X95.781 Y101.411 E20.28893
G1 X98.734 Y101.413 E20.38715
G1 X98.913 Y101.428 E20.39312
G1 X101.876 Y101.43 E20.49167
G1 X102.646 Y101.695 E20.51876
G1 X108.198 Y101.695 E20.70342
G1 X109.049 Y101.43 E20.73306
G1 X110.27 Y101.429 E20.77367
G1 X110.427 Y101.416 E20.77891
G1 X113.782 Y101.43 E20.8905
G1 X114.793 Y101.588 E20.92453
G1 X115.03 Y101.716 E20.93349
G1 X115.695 Y101.961 E20.95706
G1 X116.797 Y102.044 E20.99382
G1 X117.104 Y102.251 E21.00614
G1 X117.551 Y102.428 E21.02213
G1 X118.045 Y102.531 E21.03891
G1 X118.58 Y102.551 E21.05672
G1 X120.205 Y103.426 E21.1181
G1 X120.886 Y103.579 E21.14132
G1 X121.079 Y103.596 E21.14776
G1 X121.614 Y103.95 E21.1691
G1 X121.893 Y104.314 E21.18435
G1 X122.261 Y104.617 E21.20021
G1 X123.408 Y105.306 E21.24471
G1 X124.526 Y106.422 E21.29725
G1 X124.878 Y107.316 E21.32921
G1 X124.804 Y108.496 E21.36853
G1 X124.798 Y112.888 E21.51461
G1 X125.295 Y115.417 E21.60033
G1 X125.648 Y116.225 E21.62966
G1 X126.142 Y116.785 E21.6545
G1 X127.46 Y117.743 E21.70869
G1 X128.16 Y118.058 E21.73422
G1 X128.985 Y118.178 E21.76195
G1 X129.737 Y118.081 E21.78717
G1 X130.4 Y117.742 E21.81193
G1 X130.4 Y127.533 E22.13758
G1 X130.505 Y128.25 E22.16169
G1 X130.853 Y128.95 E22.18769
G1 X131.293 Y129.495 E22.21098
G1 X131.417 Y129.598 E22.21635
G1 X132.184 Y130.004 E22.24521
G1 X132.934 Y130.133 E22.27052
G1 X137 Y130.133 E22.40576
G1 X137.717 Y130.028 E22.42986
G1 X138.417 Y129.68 E22.45586
G1 X138.962 Y129.24 E22.47916
G1 X139.065 Y129.116 E22.48452
G1 X139.471 Y128.349 E22.51338
G1 X139.6 Y127.599 E22.53869
G1 X139.6 Y116.854 E22.89607
G1 X140.156 Y117.143 E22.91691
G1 X140.852 Y117.283 E22.94053
G1 X141.583 Y117.238 E22.96489
G1 X142.419 Y116.882 E22.99511
G1 X143.606 Y116.021 E23.04388
G1 X144.15 Y115.453 E23.07004
G1 X144.468 Y114.835 E23.09316
G1 X144.95 Y113.34 E23.1454
G1 X145.034 Y112.787 E23.164
G1 X144.971 Y112.075 E23.18778
G1 X144.817 Y111.571 E23.20531
G1 X145.081 Y110.9 E23.22929
G1 X145.2 Y110.224 E23.25212
G1 X145.114 Y109.435 E23.27852
G1 X144.597 Y107.84 E23.33428
G1 X144.182 Y107.148 E23.36112
G1 X143.773 Y106.756 E23.37996
G1 X142.42 Y105.773 E23.43559
G1 X141.631 Y105.499 E23.46337
G1 X140.958 Y105.425 E23.48589
G1 X140.199 Y105.565 E23.51156
G1 X139.599 Y105.859 E23.53378
G1 X139.599 Y91.565 E24.0092
G1 X139.389 Y90.558 E24.04341
G1 X138.749 Y89.276 E24.09107
G1 X137.735 Y88.261 E24.13879
G1 X136.423 Y87.589 E24.18782
G1 X135.236 Y87.416 E24.22771
G1 X114.436 Y87.404 E24.91953
G1 X114.814 Y86.443 E24.95387
G1 X114.802 Y85.706 E24.97839
G1 X114.623 Y84.919 E25.00523
G1 X114.195 Y84.225 E25.03235
G1 X113.737 Y83.78 E25.05359
G1 X112.647 Y82.991 E25.09835
G1 X112.132 Y82.736 E25.11746
G1 X111.347 Y82.571 E25.14414
G1 X107.756 Y82.571 E25.26358
G1 X107.322 Y82.399 E25.2791
G1 X106.706 Y82.305 E25.29983
G1 X102.111 Y82.305 E25.45266
G1 X101.495 Y82.399 E25.47338
G1 X101.059 Y82.57 E25.48896
G1 X98.816 Y82.572 E25.56356
G1 X98.637 Y82.587 E25.56954
G1 X95.448 Y82.588 E25.6756
G1 X95.26 Y82.604 E25.68188
G1 X93.676 Y82.604 E25.73456
G1 X92.891 Y82.769 E25.76124
G1 X92.376 Y83.024 E25.78036
G1 X91.205 Y83.872 E25.82845
M204 S2000
M205 X10 Y10
G0 F3000 X91.477 Y84.169
M204 S1000
M205 X8 Y8
G1 F2400 X92.611 Y83.348 E25.87501
G1 X93.026 Y83.149 E25.89032
G1 X93.715 Y83.004 E25.91374
G1 X95.282 Y83.004 E25.96585
G1 X95.482 Y82.987 E25.97253
G1 X98.658 Y82.987 E26.07816
G1 X98.849 Y82.971 E26.08454
