;FLAVOR:Marlin
;TIME:10259
;Filament used: 5.45979m
;Layer height: 0.2
;MINX:50.466
;MINY:50.436
;MINZ:0.2
;MAXX:171.534
;MAXY:171.564
;MAXZ:2
;Generated with Cura_SteamEngine 5.3.1
M140 S60
M105
M190 S60
M104 S200
M105
M109 S200
M82 ;absolute extrusion mode
G28 ;Home
G1 Z15.0 F1200 ;Move the platform down 15mm
;Prime the extruder
G92 E0
G1 F200 E3
G92 E0
G92 E0
G92 E0
G1 F2400 E-6
;LAYER_COUNT:10
;LAYER:0
M107
M204 S2000
M205 X10 Y10
G0 F3000 X73.061 Y53.787 Z0.2
M204 S1000
M205 X8 Y8
;TYPE:SKIRT
G1 F2400 E0
G1 X74.013 Y52.765 E0.04645
G1 X74.952 Y51.954 E0.08772
G1 X76.252 Y51.195 E0.13779
G1 X77.279 Y50.82 E0.17415
G1 X78.225 Y50.587 E0.20656
G1 X79.608 Y50.436 E0.25283
G1 X81.051 Y50.572 E0.30104
G1 X82.491 Y50.988 E0.35089
G1 X83.528 Y51.507 E0.38946
G1 X84.699 Y52.317 E0.43682
G1 X85.396 Y52.967 E0.46852
G1 X86.127 Y53.796 E0.50528
G1 X86.995 Y55.234 E0.56114
G1 X87.445 Y56.462 E0.60464
G1 X87.639 Y57.222 E0.63073
G1 X87.812 Y58.507 E0.67386
G1 X87.827 Y59.071 E0.69262
G1 X87.747 Y60.296 E0.73345
G1 X87.552 Y61.461 E0.77274
G1 X87.251 Y62.915 E0.82212
G1 X87.174 Y63.577 E0.84429
G1 X87.321 Y64.015 E0.85966
G1 X87.701 Y64.601 E0.88289
G1 X88.14 Y65.145 E0.90614
G1 X88.981 Y66.005 E0.94614
G1 X89.815 Y66.703 E0.98232
G1 X90.329 Y67.061 E1.00315
G1 X90.651 Y67.214 E1.01501
G1 X91.025 Y67.293 E1.02772
G1 X91.442 Y67.209 E1.04187
G1 X91.73 Y67.092 E1.05221
G1 X92.643 Y66.548 E1.08756
G1 X93.58 Y65.802 E1.12739
G1 X94.577 Y64.985 E1.17026
G1 X95.851 Y63.962 E1.22461
G1 X96.689 Y63.306 E1.26
G1 X97.847 Y62.467 E1.30757
G1 X99.629 Y61.325 E1.37796
G1 X101.111 Y60.522 E1.43402
G1 X102.929 Y59.666 E1.50086
G1 X104.3 Y59.082 E1.55042
G1 X105.501 Y58.609 E1.59335
G1 X106.687 Y58.194 E1.63515
G1 X108.177 Y57.781 E1.68657
G1 X109.386 Y57.561 E1.72744
G1 X110.988 Y57.46 E1.78083
G1 X111.724 Y57.478 E1.80532
G1 X113.382 Y57.699 E1.86095
G1 X114.452 Y57.943 E1.89745
G1 X115.349 Y58.208 E1.92856
G1 X116.931 Y58.77 E1.9844
G1 X118.825 Y59.562 E2.05268
G1 X119.965 Y60.078 E2.0943
G1 X120.649 Y60.407 E2.11955
G1 X121.766 Y60.988 E2.16142
G1 X122.475 Y61.398 E2.18867
G1 X123.506 Y62.03 E2.22889
G1 X125.298 Y63.298 E2.3019
G1 X127.017 Y64.649 E2.37462
G1 X128.679 Y66.011 E2.44609
G1 X129.234 Y66.445 E2.46952
G1 X129.99 Y66.942 E2.49961
G1 X130.402 Y67.154 E2.51502
G1 X130.751 Y67.27 E2.52726
G1 X131.046 Y67.288 E2.53709
G1 X131.344 Y67.213 E2.54731
G1 X131.671 Y67.062 E2.55929
G1 X132.3 Y66.622 E2.58482
G1 X132.838 Y66.164 E2.60832
G1 X133.344 Y65.673 E2.63177
G1 X133.884 Y65.117 E2.65755
G1 X134.308 Y64.588 E2.6801
G1 X134.653 Y64.06 E2.70107
G1 X134.763 Y63.806 E2.71028
G1 X134.817 Y63.349 E2.72558
G1 X134.643 Y62.345 E2.75948
G1 X134.383 Y61.116 E2.80126
G1 X134.236 Y60.143 E2.83399
G1 X134.172 Y59.063 E2.86997
G1 X134.202 Y58.3 E2.89537
G1 X134.315 Y57.451 E2.92385
G1 X134.571 Y56.416 E2.95932
G1 X135.024 Y55.202 E3.00241
G1 X135.879 Y53.785 E3.05746
G1 X136.794 Y52.74 E3.10366
G1 X138.154 Y51.671 E3.16119
G1 X139.598 Y50.948 E3.2149
G1 X140.725 Y50.636 E3.2538
G1 X141.985 Y50.466 E3.29608
G1 X143.071 Y50.462 E3.3322
G1 X144.502 Y50.761 E3.38083
G1 X145.799 Y51.217 E3.42655
G1 X147.102 Y51.996 E3.47705
G1 X148.087 Y52.865 E3.52073
G1 X148.874 Y53.726 E3.55953
G1 X149.732 Y55.188 E3.61591
G1 X150.153 Y56.49 E3.66143
G1 X150.378 Y57.639 E3.70037
G1 X150.347 Y59.362 E3.75768
G1 X150.228 Y60.161 E3.78455
G1 X149.894 Y61.511 E3.83081
G1 X150.948 Y61.967 E3.869
G1 X151.783 Y62.368 E3.89981
G1 X152.595 Y62.791 E3.93026
G1 X153.378 Y63.252 E3.96049
G1 X154.382 Y63.913 E4.00047
G1 X155.456 Y64.743 E4.04561
G1 X156.558 Y65.81 E4.09663
G1 X157.067 Y66.417 E4.12298
G1 X157.622 Y67.192 E4.15468
G1 X158.045 Y67.857 E4.1809
G1 X158.429 Y68.591 E4.20845
G1 X158.801 Y69.429 E4.23894
G1 X159.119 Y70.242 E4.26798
G1 X159.57 Y71.619 E4.31617
G1 X159.856 Y72.613 E4.35057
G1 X160.469 Y72.366 E4.37255
G1 X161.136 Y72.12 E4.3962
G1 X162.25 Y71.804 E4.43471
G1 X163.628 Y71.661 E4.48079
G1 X165.134 Y71.802 E4.5311
G1 X166.383 Y72.17 E4.57441
G1 X167.645 Y72.751 E4.62062
G1 X168.387 Y73.232 E4.65003
G1 X169.365 Y74.068 E4.69282
G1 X170.188 Y75.127 E4.73743
G1 X170.611 Y75.858 E4.76552
G1 X171.035 Y76.833 E4.80088
G1 X171.383 Y78.119 E4.84519
G1 X171.495 Y78.966 E4.87361
G1 X171.486 Y80.754 E4.93308
G1 X171.065 Y82.481 E4.9922
G1 X170.17 Y84.111 E5.05405
G1 X169.753 Y84.681 E5.07754
G1 X168.72 Y85.729 E5.12648
G1 X168.242 Y86.092 E5.14645
G1 X166.852 Y86.866 E5.19936
G1 X165.665 Y87.264 E5.241
G1 X164.815 Y87.451 E5.26995
G1 X163.382 Y87.621 E5.31795
G1 X162.77 Y87.635 E5.33831
G1 X162.086 Y87.637 E5.36106
G1 X160.886 Y87.601 E5.40099
G1 X160.394 Y87.618 E5.41736
G1 X160.153 Y87.841 E5.42828
G1 X159.82 Y88.26 E5.44608
G1 X159.485 Y88.758 E5.46604
G1 X159.178 Y89.251 E5.48536
G1 X158.764 Y89.98 E5.51324
G1 X158.444 Y90.606 E5.53663
G1 X158.136 Y91.241 E5.5601
G1 X157.896 Y91.788 E5.57997
G1 X157.587 Y92.644 E5.61024
G1 X157.537 Y93.159 E5.62745
G1 X157.565 Y93.464 E5.63763
G1 X157.694 Y93.877 E5.65203
G1 X158.229 Y94.814 E5.68791
G1 X159.155 Y96.179 E5.74277
G1 X160.301 Y97.907 E5.81174
G1 X161.124 Y99.299 E5.86552
G1 X161.819 Y100.607 E5.91479
G1 X162.47 Y101.958 E5.96467
G1 X163.075 Y103.334 E6.01466
G1 X163.534 Y104.477 E6.05563
G1 X164.11 Y106.144 E6.11429
G1 X164.477 Y107.499 E6.16098
G1 X164.715 Y108.712 E6.20209
G1 X164.848 Y109.86 E6.24053
G1 X164.89 Y110.608 E6.26545
G1 X164.884 Y111.68 E6.3011
G1 X164.815 Y112.524 E6.32927
G1 X164.634 Y113.783 E6.37157
G1 X164.286 Y115.274 E6.4225
G1 X163.877 Y116.591 E6.46837
G1 X163.509 Y117.591 E6.50381
G1 X163.17 Y118.441 E6.53424
G1 X162.661 Y119.617 E6.57686
G1 X161.596 Y121.831 E6.65858
G1 X160.489 Y123.797 E6.73362
G1 X159.636 Y125.125 E6.78612
G1 X158.381 Y126.966 E6.86022
G1 X158.03 Y127.533 E6.8824
G1 X157.734 Y128.073 E6.90288
G1 X157.561 Y128.545 E6.9196
G1 X157.538 Y128.902 E6.9315
G1 X157.659 Y129.553 E6.95353
G1 X157.986 Y130.444 E6.98509
G1 X158.423 Y131.365 E7.019
G1 X158.805 Y132.103 E7.04664
G1 X159.118 Y132.65 E7.0676
G1 X159.51 Y133.279 E7.09225
G1 X159.81 Y133.725 E7.11013
G1 X160.159 Y134.167 E7.12886
G1 X160.39 Y134.382 E7.13936
G1 X160.833 Y134.396 E7.1541
G1 X161.484 Y134.371 E7.17577
G1 X162.859 Y134.363 E7.2215
G1 X163.412 Y134.38 E7.2399
G1 X164.889 Y134.559 E7.28939
G1 X165.611 Y134.719 E7.31398
G1 X166.971 Y135.183 E7.36178
G1 X168.28 Y135.939 E7.41205
G1 X169.116 Y136.595 E7.4474
G1 X169.951 Y137.571 E7.49012
G1 X170.3 Y138.088 E7.51086
G1 X171.032 Y139.488 E7.56341
G1 X171.497 Y141.214 E7.62286
G1 X171.534 Y142.894 E7.67875
G1 X171.262 Y144.419 E7.73028
G1 X170.9 Y145.512 E7.76857
G1 X170.378 Y146.576 E7.80799
G1 X170.08 Y147.04 E7.82633
G1 X169.032 Y148.266 E7.87998
G1 X168.115 Y148.956 E7.91814
G1 X167.543 Y149.308 E7.94048
G1 X166.273 Y149.903 E7.98713
G1 X165.104 Y150.182 E8.0271
G1 X163.631 Y150.343 E8.07639
G1 X162.045 Y150.135 E8.12959
G1 X161.288 Y149.932 E8.15566
G1 X160.321 Y149.577 E8.18992
G1 X159.858 Y149.387 E8.20656
G1 X159.538 Y150.5 E8.24508
G1 X159.138 Y151.709 E8.28744
G1 X158.735 Y152.738 E8.32419
G1 X158.422 Y153.431 E8.34948
G1 X158.008 Y154.209 E8.3788
G1 X157.041 Y155.612 E8.43547
G1 X156.293 Y156.474 E8.47343
G1 X155.644 Y157.094 E8.50328
G1 X154.266 Y158.166 E8.56135
G1 X153.301 Y158.797 E8.5997
G1 X152.311 Y159.359 E8.63756
G1 X151.671 Y159.687 E8.66148
G1 X150.83 Y160.089 E8.69248
G1 X149.901 Y160.494 E8.72619
G1 X150.2 Y161.676 E8.76674
G1 X150.394 Y163.593 E8.83083
G1 X150.368 Y164.184 E8.8505
G1 X150.213 Y165.402 E8.89134
G1 X149.719 Y166.787 E8.94025
G1 X148.939 Y168.213 E8.99431
G1 X147.955 Y169.266 E9.04224
G1 X147.048 Y170.045 E9.08201
G1 X145.689 Y170.807 E9.13383
G1 X144.697 Y171.186 E9.16915
G1 X143.775 Y171.413 E9.20073
G1 X142.393 Y171.564 E9.24697
G1 X140.953 Y171.429 E9.29508
G1 X139.5 Y171.012 E9.34536
G1 X138.267 Y170.372 E9.39156
G1 X137.472 Y169.822 E9.42371
G1 X136.562 Y168.991 E9.4647
G1 X135.881 Y168.215 E9.49904
G1 X134.996 Y166.748 E9.55602
G1 X134.573 Y165.595 E9.59687
G1 X134.288 Y164.415 E9.63725
G1 X134.206 Y163.761 E9.65917
G1 X134.173 Y162.962 E9.68577
G1 X134.253 Y161.706 E9.72763
G1 X134.448 Y160.539 E9.76698
G1 X134.75 Y159.078 E9.8166
G1 X134.826 Y158.424 E9.8385
G1 X134.677 Y157.975 E9.85423
G1 X134.318 Y157.424 E9.87611
G1 X133.855 Y156.852 E9.90058
G1 X132.965 Y155.943 E9.94289
G1 X132.233 Y155.332 E9.97461
G1 X131.664 Y154.937 E9.99765
G1 X131.341 Y154.783 E10.00955
G1 X131.063 Y154.713 E10.01908
G1 X130.746 Y154.733 E10.02965
G1 X130.345 Y154.872 E10.04376
G1 X129.976 Y155.062 E10.05757
G1 X129.274 Y155.523 E10.0855
G1 X128.686 Y155.983 E10.11033
G1 X126.979 Y157.383 E10.18376
G1 X125.199 Y158.776 E10.25894
G1 X124.381 Y159.368 E10.29252
G1 X123.769 Y159.792 E10.31728
G1 X122.626 Y160.509 E10.36216
G1 X121.935 Y160.909 E10.38872
G1 X120.758 Y161.534 E10.43304
G1 X119.017 Y162.36 E10.49713
G1 X117.402 Y163.036 E10.55536
G1 X116.204 Y163.497 E10.59806
G1 X115.079 Y163.882 E10.6376
G1 X113.857 Y164.211 E10.6797
G1 X112.59 Y164.438 E10.72251
G1 X111.304 Y164.528 E10.76538
G1 X110.495 Y164.534 E10.79229
G1 X108.938 Y164.36 E10.8444
G1 X107.795 Y164.119 E10.88325
G1 X106.617 Y163.782 E10.92401
G1 X104.878 Y163.158 E10.98546
G1 X103.154 Y162.432 E11.04767
G1 X101.593 Y161.715 E11.10481
G1 X99.933 Y160.851 E11.16705
G1 X98.43 Y159.931 E11.22566
G1 X96.608 Y158.63 E11.30012
G1 X94.686 Y157.107 E11.38169
G1 X93.339 Y156.005 E11.43957
G1 X92.55 Y155.395 E11.47274
G1 X91.821 Y154.955 E11.50106
G1 X91.228 Y154.729 E11.52217
G1 X90.938 Y154.713 E11.53183
G1 X90.648 Y154.785 E11.54177
G1 X90.346 Y154.926 E11.55285
G1 X89.712 Y155.369 E11.57858
G1 X89.163 Y155.835 E11.60253
G1 X88.656 Y156.327 E11.62603
G1 X88.127 Y156.869 E11.65122
G1 X87.688 Y157.415 E11.67452
G1 X87.352 Y157.931 E11.695
G1 X87.19 Y158.448 E11.71302
G1 X87.218 Y158.854 E11.72655
G1 X87.331 Y159.528 E11.74929
G1 X87.617 Y160.883 E11.79535
G1 X87.764 Y161.855 E11.82804
G1 X87.828 Y162.933 E11.86396
G1 X87.801 Y163.658 E11.88809
G1 X87.672 Y164.627 E11.9206
G1 X87.468 Y165.468 E11.94939
G1 X86.984 Y166.788 E11.99615
G1 X86.136 Y168.193 E12.05073
G1 X85.167 Y169.3 E12.09966
G1 X83.831 Y170.34 E12.15597
G1 X82.388 Y171.05 E12.20946
G1 X81.499 Y171.313 E12.2403
G1 X79.827 Y171.543 E12.29643
G1 X78.912 Y171.538 E12.32687
G1 X77.268 Y171.174 E12.38287
G1 X76.203 Y170.784 E12.42059
G1 X74.899 Y170.005 E12.47111
G1 X73.911 Y169.133 E12.51494
G1 X73.128 Y168.275 E12.55358
G1 X72.267 Y166.808 E12.61015
G1 X71.847 Y165.51 E12.65553
G1 X71.622 Y164.361 E12.69447
G1 X71.653 Y162.638 E12.75179
G1 X71.772 Y161.839 E12.77865
G1 X72.104 Y160.494 E12.82473
G1 X71.052 Y160.033 E12.86293
G1 X70.217 Y159.632 E12.89374
G1 X69.405 Y159.209 E12.92419
G1 X68.622 Y158.748 E12.95442
G1 X67.618 Y158.087 E12.9944
G1 X66.544 Y157.257 E13.03954
G1 X65.441 Y156.189 E13.09061
G1 X64.932 Y155.582 E13.11695
G1 X64.391 Y154.826 E13.14787
G1 X63.956 Y154.142 E13.17484
G1 X63.556 Y153.375 E13.20361
G1 X63.2 Y152.571 E13.23285
G1 X62.873 Y151.735 E13.26271
G1 X62.43 Y150.384 E13.31
G1 X62.14 Y149.389 E13.34447
G1 X61.526 Y149.636 E13.36648
G1 X60.864 Y149.88 E13.38995
G1 X59.75 Y150.196 E13.42846
G1 X58.372 Y150.339 E13.47454
G1 X56.866 Y150.198 E13.52485
G1 X55.617 Y149.83 E13.56816
G1 X54.355 Y149.249 E13.61436
G1 X53.613 Y148.768 E13.64377
G1 X52.599 Y147.896 E13.68826
G1 X51.898 Y147.001 E13.72607
G1 X51.368 Y146.096 E13.76095
G1 X50.856 Y144.85 E13.80575
G1 X50.632 Y143.964 E13.83615
G1 X50.502 Y142.976 E13.86929
G1 X50.515 Y141.243 E13.92694
G1 X50.934 Y139.522 E13.98585
G1 X51.859 Y137.844 E14.04958
G1 X52.247 Y137.319 E14.07129
G1 X53.28 Y136.271 E14.12023
G1 X53.758 Y135.908 E14.1402
G1 X55.148 Y135.134 E14.19311
G1 X56.335 Y134.736 E14.23475
G1 X57.185 Y134.549 E14.2637
G1 X58.618 Y134.379 E14.3117
G1 X59.23 Y134.365 E14.33206
G1 X59.914 Y134.363 E14.35481
G1 X61.114 Y134.399 E14.39474
G1 X61.606 Y134.382 E14.41111
G1 X61.723 Y134.315 E14.41559
G1 X62.193 Y133.721 E14.44079
G1 X62.511 Y133.249 E14.45972
G1 X62.827 Y132.74 E14.47964
G1 X63.236 Y132.02 E14.50718
G1 X63.557 Y131.392 E14.53064
G1 X63.864 Y130.759 E14.55404
G1 X64.1 Y130.224 E14.57349
G1 X64.415 Y129.349 E14.60442
G1 X64.463 Y128.839 E14.62146
G1 X64.432 Y128.51 E14.63245
G1 X64.338 Y128.216 E14.64272
G1 X64.117 Y127.771 E14.65924
G1 X63.539 Y126.838 E14.69575
G1 X62.389 Y125.155 E14.76354
G1 X61.483 Y123.746 E14.81926
G1 X60.289 Y121.612 E14.90059
G1 X59.301 Y119.547 E14.97673
G1 X58.786 Y118.33 E15.02068
G1 X58.437 Y117.443 E15.05238
G1 X57.812 Y115.609 E15.11683
G1 X57.527 Y114.537 E15.15372
G1 X57.267 Y113.188 E15.19941
G1 X57.191 Y112.605 E15.21897
G1 X57.105 Y111.26 E15.2638
G1 X57.131 Y109.993 E15.30595
G1 X57.364 Y108.24 E15.36476
G1 X57.716 Y106.737 E15.41611
G1 X58.102 Y105.474 E15.46003
G1 X58.523 Y104.328 E15.50064
G1 X58.969 Y103.22 E15.54036
G1 X59.587 Y101.83 E15.59096
G1 X60.216 Y100.533 E15.6389
G1 X60.986 Y99.101 E15.69298
G1 X61.797 Y97.742 E15.74562
G1 X62.518 Y96.663 E15.78878
G1 X63.761 Y94.829 E15.86247
G1 X64.284 Y93.889 E15.89825
G1 X64.439 Y93.461 E15.91339
G1 X64.462 Y93.094 E15.92562
G1 X64.345 Y92.462 E15.94699
G1 X64.019 Y91.572 E15.97852
G1 X63.574 Y90.636 E16.01299
G1 X63.186 Y89.89 E16.04096
G1 X62.821 Y89.25 E16.06546
G1 X62.507 Y88.748 E16.08516
G1 X62.164 Y88.239 E16.10557
G1 X61.841 Y87.831 E16.12288
G1 X61.611 Y87.618 E16.1333
G1 X61.167 Y87.604 E16.14808
G1 X60.516 Y87.629 E16.16975
G1 X59.141 Y87.637 E16.21548
G1 X58.588 Y87.62 E16.23388
G1 X57.111 Y87.441 E16.28337
G1 X56.389 Y87.281 E16.30796
G1 X55.029 Y86.817 E16.35576
G1 X53.72 Y86.061 E16.40604
G1 X52.896 Y85.416 E16.44084
G1 X52.185 Y84.597 E16.47691
G1 X51.491 Y83.55 E16.51869
G1 X50.966 Y82.502 E16.55768
G1 X50.503 Y80.786 E16.61679
G1 X50.466 Y79.106 E16.67268
G1 X50.738 Y77.581 E16.7242
G1 X51.1 Y76.488 E16.7625
G1 X51.622 Y75.424 E16.80192
G1 X51.92 Y74.96 E16.82026
G1 X52.968 Y73.734 E16.8739
G1 X53.885 Y73.044 E16.91207
G1 X54.457 Y72.692 E16.93441
G1 X55.727 Y72.097 E16.98106
G1 X56.896 Y71.818 E17.02103
G1 X58.369 Y71.657 E17.07032
G1 X59.955 Y71.865 E17.12352
G1 X60.712 Y72.068 E17.14959
G1 X61.679 Y72.423 E17.18385
G1 X62.142 Y72.613 E17.20049
G1 X62.462 Y71.5 E17.23901
G1 X62.862 Y70.291 E17.28137
G1 X63.265 Y69.262 E17.31812
G1 X63.578 Y68.569 E17.34341
G1 X63.992 Y67.791 E17.37272
G1 X64.959 Y66.388 E17.4294
G1 X65.707 Y65.526 E17.46736
G1 X66.356 Y64.906 E17.49721
G1 X67.734 Y63.834 E17.55528
G1 X68.699 Y63.203 E17.59363
G1 X69.689 Y62.641 E17.63149
G1 X70.329 Y62.313 E17.65541
G1 X71.17 Y61.911 E17.68641
G1 X72.099 Y61.505 E17.72013
G1 X71.8 Y60.324 E17.76065
G1 X71.606 Y58.407 E17.82474
G1 X71.632 Y57.816 E17.84441
G1 X71.787 Y56.598 E17.88525
G1 X72.281 Y55.213 E17.93416
G1 X73.061 Y53.787 E17.98822
M204 S2000
M205 X10 Y10
G0 F3000 X73.386 Y54.026
M204 S1000
M205 X8 Y8
G1 F2400 X74.306 Y53.038 E18.03312
G1 X75.182 Y52.283 E18.07159
G1 X76.425 Y51.558 E18.11945
G1 X77.416 Y51.196 E18.15454
G1 X78.268 Y50.985 E18.18373
G1 X79.614 Y50.838 E18.22877
G1 X80.976 Y50.966 E18.27427
G1 X82.342 Y51.361 E18.32156
G1 X83.349 Y51.865 E18.35901
G1 X84.427 Y52.61 E18.4026
G1 X85.096 Y53.232 E18.43298
G1 X85.805 Y54.036 E18.46863
G1 X86.633 Y55.408 E18.52193
G1 X87.057 Y56.561 E18.56279
G1 X87.251 Y57.321 E18.58888
G1 X87.412 Y58.518 E18.62905
G1 X87.427 Y59.082 E18.64782
G1 X87.352 Y60.23 E18.68608
G1 X87.16 Y61.38 E18.72486
G1 X86.857 Y62.845 E18.77462
G1 X86.784 Y63.465 E18.79538
G1 X86.802 Y63.725 E18.80405
G1 X86.956 Y64.188 E18.82028
G1 X87.377 Y64.836 E18.84598
G1 X87.845 Y65.416 E18.87077
G1 X88.44 Y66.024 E18.89906
G1 X88.798 Y66.374 E18.91571
G1 X89.569 Y67.019 E18.94915
G1 X90.126 Y67.407 E18.97173
G1 X90.52 Y67.595 E18.98625
G1 X91.024 Y67.701 E19.00337
G1 X91.561 Y67.593 E19.02159
G1 X91.908 Y67.452 E19.03405
G1 X92.868 Y66.88 E19.07122
G1 X93.829 Y66.115 E19.11207
G1 X94.827 Y65.297 E19.15499
G1 X96.097 Y64.277 E19.20917
G1 X96.924 Y63.63 E19.24409
G1 X98.063 Y62.804 E19.29089
G1 X99.82 Y61.677 E19.36032
G1 X101.302 Y60.874 E19.41638
G1 X103.086 Y60.034 E19.48196
G1 X104.447 Y59.454 E19.53117
G1 X105.633 Y58.987 E19.57356
G1 X106.819 Y58.572 E19.61535
G1 X108.249 Y58.175 E19.66472
