;FLAVOR:Marlin
;TIME:5825
;Filament used: 4.75593m
;Layer height: 0.2
;MINX:84.347
;MINY:76.833
;MINZ:0.2
;MAXX:146.236
;MAXY:136.068
;MAXZ:18
;Generated with Cura_SteamEngine 5.3.1
M140 S60
M105
M190 S60
M104 S200
M105
M109 S200
M82 ;absolute extrusion mode
G28 ;Home
G1 Z15.0 F1200 ;Move the platform down 15mm
;Prime the extruder
G92 E0
G1 F200 E3
G92 E0
G92 E0
G92 E0
G1 F2400 E-6
;LAYER_COUNT:90
;LAYER:0
M107
M204 S2000
M205 X10 Y10
G0 F3000 X86.673 Y83.154 Z0.2
M204 S1000
M205 X8 Y8
;TYPE:SKIRT
G1 F2400 E0
G1 X87.398 Y82.57 E0.03096
G1 X88.39 Y82.076 E0.06782
G1 X89.293 Y81.944 E0.09818
G1 X93.689 Y81.934 E0.24439
G1 X93.675 Y81.735 E0.25102
G1 X93.763 Y80.811 E0.28189
G1 X94.217 Y79.647 E0.32345
G1 X95.04 Y78.694 E0.36533
G1 X96.522 Y77.615 E0.4263
G1 X97.419 Y77.255 E0.45845
G1 X98.285 Y77.103 E0.48769
G1 X101.653 Y77.103 E0.59971
G1 X102.127 Y76.944 E0.61634
G1 X102.803 Y76.845 E0.63907
G1 X107.801 Y76.833 E0.8053
G1 X108.427 Y76.947 E0.82646
G1 X108.888 Y77.103 E0.84265
G1 X111.641 Y77.107 E0.93422
G1 X111.784 Y77.119 E0.93899
G1 X116.084 Y77.124 E1.08201
G1 X116.228 Y77.136 E1.08681
G1 X121.001 Y77.136 E1.24556
G1 X122.078 Y77.362 E1.28217
G1 X122.833 Y77.751 E1.31041
G1 X124.304 Y78.809 E1.37068
G1 X125.153 Y79.984 E1.41889
G1 X125.503 Y81.256 E1.46277
G1 X125.514 Y81.941 E1.48556
G1 X135.41 Y81.96 E1.8147
G1 X136.799 Y82.165 E1.8614
G1 X138.442 Y83.008 E1.92282
G1 X139.627 Y84.196 E1.97863
G1 X140.183 Y85.144 E2.01518
G1 X140.482 Y85.862 E2.04105
G1 X140.799 Y87.055 E2.08211
G1 X140.8 Y103.176 E2.6183
G1 X141.289 Y103.182 E2.63456
G1 X142.148 Y103.324 E2.66352
G1 X143.034 Y103.722 E2.69582
G1 X144.495 Y104.794 E2.7561
G1 X145.043 Y105.388 E2.78298
G1 X145.526 Y106.202 E2.81446
G1 X146.143 Y108.097 E2.88074
G1 X146.236 Y109.147 E2.9158
G1 X146.087 Y110.018 E2.94519
G1 X145.534 Y111.732 E3.00509
G1 X145.04 Y112.558 E3.0371
G1 X144.543 Y113.121 E3.06208
G1 X143.015 Y114.238 E3.12503
G1 X141.976 Y114.683 E3.16263
G1 X141.006 Y114.801 E3.19513
G1 X140.8 Y114.785 E3.202
G1 X140.8 Y123.43 E3.48953
G1 X140.62 Y124.477 E3.52487
G1 X140.127 Y125.409 E3.55994
G1 X139.794 Y125.843 E3.57813
G1 X139.069 Y126.427 E3.60909
G1 X138.077 Y126.921 E3.64595
G1 X137.174 Y127.053 E3.67631
G1 X132.835 Y127.065 E3.82062
G1 X131.788 Y126.885 E3.85596
G1 X130.856 Y126.392 E3.89103
G1 X130.422 Y126.059 E3.90922
G1 X129.838 Y125.334 E3.94018
G1 X129.526 Y124.707 E3.96348
G1 X129.358 Y124.977 E3.97405
G1 X128.816 Y125.536 E3.99995
G1 X127.642 Y126.388 E4.0482
G1 X126.752 Y126.852 E4.08158
G1 X125.698 Y127.036 E4.11717
G1 X125.093 Y127.034 E4.13729
G1 X125.436 Y127.507 E4.15672
G1 X125.791 Y128.421 E4.18933
G1 X125.993 Y129.307 E4.21956
G1 X125.846 Y130.534 E4.26066
G1 X125.381 Y131.569 E4.2984
G1 X124.411 Y132.906 E4.35334
G1 X123.515 Y133.68 E4.39272
G1 X122.489 Y134.122 E4.42988
G1 X120.881 Y134.445 E4.48443
G1 X120.062 Y134.428 E4.51167
G1 X119.241 Y134.511 E4.53912
G1 X117.397 Y134.335 E4.60073
G1 X116.202 Y133.912 E4.64289
G1 X115.239 Y133.152 E4.68369
G1 X114.233 Y131.87 E4.73789
G1 X113.733 Y130.935 E4.77316
G1 X113.537 Y129.712 E4.81436
G1 X113.649 Y128.826 E4.84406
G1 X114.007 Y127.805 E4.88004
G1 X114.812 Y126.587 E4.9286
G1 X115.607 Y125.823 E4.96528
G1 X116.569 Y125.296 E5.00176
G1 X117.424 Y125.129 E5.03073
G1 X117.998 Y125.138 E5.04983
G1 X118.63 Y124.906 E5.07222
G1 X119.548 Y124.832 E5.10285
G1 X120.024 Y124.874 E5.11874
G1 X120.514 Y124.779 E5.13535
G1 X120.347 Y124.548 E5.14483
G1 X119.926 Y123.593 E5.17954
G1 X119.613 Y121.945 E5.23533
G1 X119.181 Y119.238 E5.32651
G1 X119.387 Y117.555 E5.3829
G1 X119.352 Y117.338 E5.39021
G1 X119.302 Y116.486 E5.4186
G1 X119.458 Y115.735 E5.44411
G1 X119.956 Y114.259 E5.49592
G1 X119.458 Y112.551 E5.55509
G1 X119.291 Y109.535 E5.65556
G1 X119.385 Y108.239 E5.69878
G1 X119.389 Y106.787 E5.74707
G1 X119.29 Y106.009 E5.77316
G1 X119.351 Y104.95 E5.80844
G1 X119.879 Y103.321 E5.86539
G1 X120.341 Y102.511 E5.89641
G1 X120.477 Y102.346 E5.90352
G1 X120.005 Y102.179 E5.92017
G1 X119.761 Y102.048 E5.92938
G1 X119.007 Y102.262 E5.95545
G1 X117.781 Y102.291 E5.99624
G1 X116.627 Y101.863 E6.03718
G1 X115.06 Y100.796 E6.10023
G1 X114.183 Y99.56 E6.15064
G1 X113.894 Y98.468 E6.18821
G1 X113.733 Y97.258 E6.22881
G1 X113.782 Y96.221 E6.26334
G1 X114.239 Y95.005 E6.30654
G1 X114.972 Y94.118 E6.34482
G1 X115.789 Y93.532 E6.37826
G1 X89.301 Y93.532 E7.25925
G1 X88.254 Y93.352 E7.29459
G1 X87.322 Y92.859 E7.32965
G1 X86.888 Y92.526 E7.34785
G1 X86.304 Y91.801 E7.37881
G1 X85.81 Y90.809 E7.41567
G1 X85.678 Y89.906 E7.44602
G1 X85.667 Y85.567 E7.59034
G1 X85.847 Y84.52 E7.62567
G1 X86.34 Y83.588 E7.66074
G1 X86.673 Y83.154 E7.67894
M204 S2000
M205 X10 Y10
G0 F3000 X86.924 Y83.466
M204 S1000
M205 X8 Y8
G1 F2400 X87.618 Y82.907 E7.70858
G1 X88.51 Y82.463 E7.74172
G1 X89.351 Y82.34 E7.76999
G1 X94.136 Y82.333 E7.92914
G1 X94.073 Y81.773 E7.94788
G1 X94.155 Y80.907 E7.97681
G1 X94.566 Y79.855 E8.01438
G1 X95.314 Y78.989 E8.05244
G1 X96.716 Y77.968 E8.11012
G1 X97.528 Y77.642 E8.13922
G1 X98.32 Y77.503 E8.16597
G1 X101.721 Y77.503 E8.27909
G1 X102.185 Y77.34 E8.29544
G1 X102.861 Y77.241 E8.31817
G1 X107.762 Y77.233 E8.48118
G1 X108.355 Y77.341 E8.50122
G1 X108.819 Y77.503 E8.51757
G1 X111.608 Y77.506 E8.61033
G1 X111.763 Y77.519 E8.61551
G1 X116.051 Y77.523 E8.75812
G1 X116.207 Y77.536 E8.76333
G1 X120.962 Y77.536 E8.92148
G1 X121.94 Y77.741 E8.95472
G1 X122.599 Y78.076 E8.97931
G1 X124.02 Y79.098 E9.03752
G1 X124.786 Y80.158 E9.08102
G1 X125.104 Y81.314 E9.1209
G1 X125.117 Y82.168 E9.14931
G1 X125.083 Y82.34 E9.15514
G1 X135.352 Y82.356 E9.49669
G1 X136.675 Y82.551 E9.54116
G1 X138.205 Y83.336 E9.59836
G1 X139.308 Y84.442 E9.65031
G1 X139.814 Y85.299 E9.68341
G1 X140.095 Y85.965 E9.70746
G1 X140.399 Y87.109 E9.74683
G1 X140.4 Y103.623 E10.29608
G1 X140.627 Y103.576 E10.30379
G1 X141.224 Y103.577 E10.32365
G1 X142.032 Y103.711 E10.35089
G1 X142.833 Y104.07 E10.38009
G1 X144.227 Y105.093 E10.4376
G1 X144.72 Y105.628 E10.46179
G1 X145.16 Y106.369 E10.49046
G1 X145.749 Y108.178 E10.55373
G1 X145.833 Y109.128 E10.58545
G1 X145.706 Y109.895 E10.61131
G1 X145.166 Y111.569 E10.66981
G1 X144.718 Y112.318 E10.69884
G1 X144.271 Y112.824 E10.7213
G1 X142.816 Y113.888 E10.78125
G1 X141.87 Y114.293 E10.81548
G1 X140.958 Y114.404 E10.84603
G1 X140.4 Y114.321 E10.8648
G1 X140.4 Y123.397 E11.16667
G1 X140.237 Y124.345 E11.19866
G1 X139.773 Y125.222 E11.23166
G1 X139.543 Y125.531 E11.24447
G1 X138.849 Y126.09 E11.27411
G1 X137.957 Y126.534 E11.30725
G1 X137.116 Y126.657 E11.33552
G1 X132.868 Y126.665 E11.47681
G1 X131.92 Y126.502 E11.5088
G1 X131.043 Y126.038 E11.5418
G1 X130.734 Y125.808 E11.55461
G1 X130.175 Y125.114 E11.58425
G1 X129.731 Y124.222 E11.61739
G1 X129.638 Y123.587 E11.63874
G1 X129.528 Y123.898 E11.64971
G1 X129.071 Y124.698 E11.68035
G1 X128.553 Y125.232 E11.7051
G1 X127.407 Y126.064 E11.7522
G1 X126.624 Y126.468 E11.78151
G1 X125.664 Y126.636 E11.81392
G1 X124.307 Y126.631 E11.85906
G1 X125.082 Y127.701 E11.903
G1 X125.401 Y128.51 E11.93192
G1 X125.588 Y129.329 E11.95986
G1 X125.456 Y130.425 E11.99658
G1 X125.033 Y131.367 E12.03092
G1 X124.113 Y132.635 E12.08303
G1 X123.299 Y133.338 E12.1188
G1 X122.371 Y133.738 E12.15241
G1 X120.846 Y134.044 E12.20415
G1 X120.047 Y134.028 E12.23073
G1 X119.239 Y134.109 E12.25773
G1 X117.485 Y133.942 E12.31634
G1 X116.398 Y133.557 E12.35469
G1 X115.525 Y132.868 E12.39168
G1 X114.57 Y131.651 E12.44313
G1 X114.117 Y130.804 E12.47508
G1 X113.941 Y129.706 E12.51207
G1 X114.041 Y128.915 E12.53859
G1 X114.366 Y127.988 E12.57126
G1 X115.122 Y126.844 E12.61686
G1 X115.847 Y126.148 E12.65029
G1 X116.706 Y125.677 E12.68287
G1 X117.501 Y125.522 E12.70981
G1 X118.063 Y125.54 E12.72852
G1 X118.716 Y125.301 E12.75164
G1 X119.58 Y125.231 E12.78047
G1 X120.043 Y125.278 E12.79595
G1 X120.689 Y125.153 E12.81784
G1 X121.319 Y125.151 E12.83879
G1 X120.713 Y124.387 E12.87123
G1 X120.311 Y123.475 E12.90438
G1 X120.008 Y121.882 E12.95831
G1 X119.585 Y119.231 E13.0476
G1 X119.791 Y117.546 E13.10406
G1 X119.751 Y117.314 E13.11189
G1 X119.704 Y116.518 E13.13841
G1 X119.85 Y115.817 E13.16222
G1 X120.375 Y114.268 E13.21662
G1 X119.854 Y112.481 E13.27853
G1 X119.69 Y109.564 E13.37571
G1 X119.785 Y108.255 E13.41936
G1 X119.789 Y106.76 E13.46908
G1 X119.691 Y105.992 E13.49483
G1 X119.747 Y105.023 E13.52712
G1 X120.246 Y103.484 E13.58093
G1 X120.688 Y102.709 E13.6106
G1 X121.229 Y102.115 E13.63732
G1 X120.879 Y102.064 E13.64909
G1 X120.139 Y101.802 E13.6752
G1 X119.812 Y101.618 E13.68768
G1 X118.947 Y101.863 E13.71758
G1 X117.848 Y101.889 E13.75414
G1 X116.813 Y101.505 E13.79086
G1 X115.343 Y100.505 E13.84999
G1 X114.551 Y99.388 E13.89553
G1 X114.291 Y98.415 E13.92903
G1 X114.135 Y97.24 E13.96846
G1 X114.179 Y96.3 E13.99975
G1 X114.589 Y95.209 E14.03852
G1 X115.247 Y94.413 E14.07287
G1 X116.093 Y93.806 E14.1075
G1 X116.948 Y93.421 E14.13869
G1 X117.598 Y93.34 E14.16047
G1 X118.048 Y93.132 E14.17696
G1 X89.334 Y93.132 E15.13199
G1 X88.386 Y92.969 E15.16399
G1 X87.509 Y92.505 E15.19699
G1 X87.2 Y92.275 E15.2098
G1 X86.641 Y91.581 E15.23944
G1 X86.197 Y90.689 E15.27258
G1 X86.074 Y89.848 E15.30085
G1 X86.067 Y85.6 E15.44214
G1 X86.23 Y84.652 E15.47413
G1 X86.694 Y83.775 E15.50713
G1 X86.924 Y83.466 E15.51994
M204 S2000
M205 X10 Y10
G0 F3000 X87.215 Y83.745
M204 S1000
M205 X8 Y8
G1 F2400 X87.834 Y83.246 E15.54639
G1 X88.63 Y82.85 E15.57596
G1 X89.409 Y82.736 E15.60214
G1 X94.644 Y82.733 E15.77626
G1 X94.558 Y82.507 E15.7843
G1 X94.475 Y81.771 E15.80894
G1 X94.548 Y81.002 E15.83463
G1 X94.914 Y80.064 E15.86812
G1 X95.586 Y79.286 E15.90231
G1 X96.912 Y78.32 E15.95688
G1 X97.637 Y78.029 E15.98286
G1 X98.355 Y77.903 E16.00711
G1 X101.793 Y77.903 E16.12145
G1 X102.243 Y77.736 E16.13742
G1 X102.919 Y77.637 E16.16014
G1 X107.723 Y77.633 E16.31992
G1 X108.283 Y77.735 E16.33886
G1 X108.751 Y77.903 E16.35539
G1 X111.575 Y77.905 E16.44932
G1 X111.742 Y77.919 E16.45489
G1 X116.018 Y77.922 E16.59711
G1 X116.186 Y77.936 E16.60272
G1 X120.923 Y77.936 E16.76028
G1 X121.803 Y78.121 E16.79018
G1 X122.418 Y78.433 E16.81312
G1 X123.734 Y79.385 E16.86714
G1 X124.419 Y80.332 E16.90602
G1 X124.705 Y81.372 E16.94189
G1 X124.717 Y82.174 E16.96857
G1 X124.526 Y82.739 E16.98841
G1 X135.294 Y82.752 E17.34655
G1 X136.551 Y82.937 E17.38881
G1 X137.968 Y83.664 E17.44178
G1 X138.987 Y84.686 E17.48978
G1 X139.446 Y85.457 E17.51963
G1 X139.708 Y86.068 E17.54174
G1 X139.999 Y87.163 E17.57942
G1 X140 Y104.139 E18.14404
G1 X140.63 Y103.976 E18.16569
G1 X141.158 Y103.972 E18.18325
G1 X141.917 Y104.098 E18.20884
G1 X142.628 Y104.417 E18.23476
G1 X143.962 Y105.395 E18.28977
G1 X144.397 Y105.868 E18.31115
G1 X144.794 Y106.536 E18.33699
G1 X145.355 Y108.259 E18.39726
G1 X145.43 Y109.111 E18.42571
G1 X145.325 Y109.772 E18.44797
G1 X144.798 Y111.406 E18.50507
G1 X144.396 Y112.078 E18.53112
G1 X143.999 Y112.527 E18.55105
G1 X142.617 Y113.538 E18.608
G1 X141.764 Y113.903 E18.63886
G1 X140.965 Y114 E18.66563
G1 X140.165 Y113.881 E18.69253
G1 X140 Y113.819 E18.6984
G1 X140 Y123.364 E19.01587
G1 X139.854 Y124.213 E19.04452
G1 X139.419 Y125.035 E19.07545
G1 X139.252 Y125.252 E19.08456
G1 X138.633 Y125.751 E19.111
G1 X137.837 Y126.147 E19.14057
G1 X137.058 Y126.261 E19.16676
G1 X132.901 Y126.265 E19.30502
G1 X132.052 Y126.119 E19.33367
G1 X131.23 Y125.684 E19.3646
G1 X131.013 Y125.517 E19.37371
G1 X130.514 Y124.898 E19.40016
G1 X130.118 Y124.102 E19.42973
G1 X130.004 Y123.323 E19.45591
G1 X130 Y119.077 E19.59713
G1 X129.489 Y119.225 E19.61483
G1 X129.434 Y119.78 E19.63338
G1 X129.692 Y121.237 E19.68259
G1 X129.693 Y122.123 E19.71206
G1 X129.181 Y123.7 E19.76721
G1 X128.751 Y124.453 E19.79605
G1 X128.29 Y124.928 E19.81806
G1 X127.172 Y125.74 E19.86402
G1 X126.494 Y126.085 E19.88932
G1 X125.63 Y126.236 E19.9185
G1 X124.361 Y126.236 E19.9607
G1 X123.497 Y126.085 E19.98988
G1 X122.819 Y125.74 E20.01518
G1 X121.594 Y124.854 E20.06546
G1 X121.058 Y124.178 E20.09416
G1 X120.696 Y123.356 E20.12403
G1 X120.403 Y121.819 E20.17607
G1 X119.989 Y119.223 E20.2635
G1 X120.195 Y117.534 E20.3201
G1 X120.15 Y117.29 E20.32835
G1 X120.106 Y116.549 E20.35304
G1 X120.229 Y115.946 E20.37351
G1 X120.795 Y114.278 E20.43209
G1 X120.25 Y112.411 E20.49678
G1 X120.089 Y109.593 E20.59066
G1 X120.185 Y108.271 E20.63475
G1 X120.189 Y106.733 E20.6859
G1 X120.092 Y105.975 E20.71132
G1 X120.143 Y105.1 E20.74047
G1 X120.615 Y103.643 E20.79141
G1 X121.012 Y102.947 E20.81806
G1 X121.471 Y102.444 E20.84071
G1 X122.575 Y101.637 E20.88619
G1 X121.764 Y101.777 E20.91356
G1 X121.013 Y101.687 E20.93872
G1 X120.273 Y101.425 E20.96483
G1 X119.866 Y101.187 E20.98051
G1 X118.887 Y101.464 E21.01435
G1 X117.915 Y101.487 E21.04669
G1 X116.999 Y101.147 E21.07919
G1 X115.626 Y100.214 E21.1344
G1 X114.919 Y99.216 E21.17508
G1 X114.688 Y98.362 E21.2045
G1 X114.537 Y97.222 E21.24275
G1 X114.576 Y96.379 E21.27082
G1 X114.939 Y95.413 E21.30514
G1 X115.522 Y94.708 E21.33557
G1 X116.293 Y94.155 E21.36713
G1 X117.058 Y93.81 E21.39504
G1 X117.709 Y93.729 E21.41686
G1 X118.419 Y93.401 E21.44287
G1 X119.12 Y93.285 E21.4665
G1 X120.836 Y93.292 E21.52358
G1 X121.782 Y93.492 E21.55574
G1 X122.539 Y93.928 E21.58479
G1 X122.853 Y94.199 E21.59859
G1 X122.808 Y93.867 E21.60973
G1 X122.828 Y93.231 E21.6309
G1 X123.005 Y92.732 E21.64851
G1 X89.367 Y92.732 E22.76731
G1 X88.518 Y92.586 E22.79596
G1 X87.696 Y92.151 E22.82689
G1 X87.479 Y91.984 E22.836
G1 X86.98 Y91.365 E22.86245
G1 X86.584 Y90.569 E22.89202
G1 X86.47 Y89.79 E22.9182
G1 X86.467 Y85.633 E23.05646
G1 X86.613 Y84.784 E23.08512
G1 X87.048 Y83.962 E23.11605
G1 X87.215 Y83.745 E23.12516
M204 S2000
M205 X10 Y10
G0 F3000 X87.505 Y84.025
M204 S1000
M205 X8 Y8
G1 F2400 X88.05 Y83.585 E23.14845
G1 X88.75 Y83.237 E23.17445
G1 X89.467 Y83.132 E23.19856
G1 X95.292 Y83.133 E23.3923
G1 X94.955 Y82.462 E23.41727
G1 X94.877 Y81.769 E23.44047
G1 X94.941 Y81.097 E23.46292
G1 X95.262 Y80.273 E23.49233
G1 X95.858 Y79.583 E23.52265
G1 X97.108 Y78.672 E23.5741
G1 X97.746 Y78.416 E23.59696
G1 X98.39 Y78.303 E23.61871
G1 X101.869 Y78.303 E23.73442
G1 X102.303 Y78.131 E23.74995
G1 X102.919 Y78.037 E23.77068
G1 X107.684 Y78.033 E23.92916
G1 X108.211 Y78.129 E23.94698
G1 X108.679 Y78.303 E23.96358
G1 X111.542 Y78.304 E24.05881
G1 X111.721 Y78.319 E24.06478
G1 X115.985 Y78.321 E24.2066
G1 X116.165 Y78.336 E24.21261
G1 X120.884 Y78.336 E24.36957
G1 X121.668 Y78.501 E24.39621
G1 X122.183 Y78.757 E24.41534
G1 X123.447 Y79.672 E24.46724
G1 X124.052 Y80.508 E24.50156
G1 X124.306 Y81.43 E24.53337
G1 X124.317 Y82.18 E24.55832
G1 X124.003 Y82.974 E24.58672
G1 X123.894 Y83.138 E24.59327
G1 X135.236 Y83.148 E24.9705
G1 X136.427 Y83.323 E25.01054
G1 X137.731 Y83.992 E25.05929
G1 X138.667 Y84.931 E25.10339
G1 X139.078 Y85.615 E25.12993
G1 X139.34 Y86.226 E25.15204
G1 X139.599 Y87.215 E25.18604
G1 X139.6 Y104.785 E25.77042
G1 X140.118 Y104.519 E25.78979
G1 X140.683 Y104.376 E25.80917
G1 X141.092 Y104.367 E25.82278
G1 X141.802 Y104.485 E25.84672
G1 X142.426 Y104.765 E25.86947
G1 X143.692 Y105.693 E25.92168
G1 X144.074 Y106.109 E25.94046
G1 X144.429 Y106.705 E25.96353
G1 X144.961 Y108.34 E26.02072
G1 X145.028 Y109.097 E26.046
G1 X144.944 Y109.649 E26.06457
G1 X144.431 Y111.241 E26.1202
G1 X144.072 Y111.84 E26.14343
G1 X143.727 Y112.23 E26.16074
G1 X142.418 Y113.188 E26.2147
G1 X141.658 Y113.513 E26.24219
G1 X140.972 Y113.596 E26.26517
G1 X140.224 Y113.485 E26.29032
G1 X139.6 Y113.161 E26.31371
G1 X139.6 Y123.331 E26.65196
G1 X139.471 Y124.081 E26.67727
G1 X139.065 Y124.848 E26.70614
G1 X138.962 Y124.972 E26.7115
G1 X138.417 Y125.412 E26.7348
G1 X137.717 Y125.76 E26.7608
G1 X137 Y125.865 E26.7849
G1 X132.934 Y125.865 E26.92013
G1 X132.184 Y125.736 E26.94545
G1 X131.417 Y125.33 E26.97431
G1 X131.293 Y125.227 E26.97967
G1 X130.853 Y124.682 E27.00297
G1 X130.505 Y123.982 E27.02897
G1 X130.4 Y123.265 E27.05307
G1 X130.4 Y118.406 E27.21468
G1 X129.857 Y118.706 E27.23532
G1 X129.117 Y118.914 E27.26088
G1 X129.031 Y119.797 E27.29039
G1 X129.292 Y121.273 E27.34024
G1 X129.293 Y122.062 E27.36649
G1 X128.815 Y123.535 E27.41799
G1 X128.429 Y124.21 E27.44385
G1 X128.026 Y124.625 E27.46309
