;FLAVOR:Marlin
;TIME:4769
;Filament used: 3.89556m
;Layer height: 0.2
;MINX:36.867
;MINY:71.467
;MINZ:0.2
;MAXX:153.956
;MAXY:139.159
;MAXZ:3.4
;Generated with Cura_SteamEngine 5.3.1
M140 S60
M105
M190 S60
M104 S200
M105
M109 S200
M82 ;absolute extrusion mode
G28 ;Home
G1 Z15.0 F1200 ;Move the platform down 15mm
;Prime the extruder
G92 E0
G1 F200 E3
G92 E0
G92 E0
G92 E0
G1 F2400 E-6
;LAYER_COUNT:17
;LAYER:0
M107
M204 S2000
M205 X10 Y10
G0 F3000 X40.543 Y80.965 Z0.2
M204 S1000
M205 X8 Y8
;TYPE:SKIRT
G1 F2400 E0
G1 X42.066 Y80.388 E0.05417
G1 X42.503 Y80.23 E0.06962
G1 X45.044 Y79.224 E0.16052
G1 X47.573 Y78.137 E0.25208
G1 X50.024 Y77.003 E0.3419
G1 X52.505 Y75.769 E0.43406
G1 X54.912 Y74.484 E0.52481
G1 X57.306 Y73.119 E0.61647
G1 X59.263 Y71.935 E0.69255
G1 X59.715 Y71.708 E0.70937
G1 X60.197 Y71.555 E0.72619
G1 X60.991 Y71.467 E0.75276
G1 X81.475 Y72.283 E1.4346
G1 X84.601 Y72.371 E1.53861
G1 X117.405 Y73.683 E2.63055
G1 X118.142 Y73.723 E2.6551
G1 X118.644 Y73.79 E2.67194
G1 X119.128 Y73.935 E2.68875
G1 X119.583 Y74.155 E2.70556
G1 X120.077 Y74.499 E2.72558
G1 X120.733 Y75.159 E2.75653
G1 X140.044 Y95.131 E3.68054
G1 X140.565 Y95.686 E3.70586
G1 X140.881 Y96.081 E3.72268
G1 X141.16 Y96.585 E3.74184
G1 X141.564 Y97.502 E3.77517
G1 X142.722 Y100.035 E3.8678
G1 X143.926 Y102.481 E3.95848
G1 X145.212 Y104.918 E4.05013
G1 X146.555 Y107.296 E4.14096
G1 X147.953 Y109.618 E4.23111
G1 X149.456 Y111.961 E4.32369
G1 X150.973 Y114.183 E4.41318
G1 X153.336 Y117.402 E4.54599
G1 X153.602 Y117.832 E4.56281
G1 X153.797 Y118.299 E4.57964
G1 X153.916 Y118.79 E4.59645
G1 X153.956 Y119.294 E4.61326
G1 X153.91 Y119.877 E4.63271
G1 X153.696 Y120.729 E4.66193
G1 X152.107 Y126.658 E4.86609
G1 X151.925 Y127.301 E4.88832
G1 X151.749 Y127.775 E4.90513
G1 X151.501 Y128.215 E4.92193
G1 X151.187 Y128.611 E4.93874
G1 X150.814 Y128.952 E4.95555
G1 X150.185 Y129.335 E4.98004
G1 X147.715 Y130.474 E5.07051
G1 X145.242 Y131.698 E5.16229
G1 X142.819 Y132.986 E5.25355
G1 X140.44 Y134.337 E5.34455
G1 X138.1 Y135.756 E5.43557
G1 X135.8 Y137.24 E5.52661
G1 X133.843 Y138.585 E5.60559
G1 X133.343 Y138.864 E5.62463
G1 X132.868 Y139.037 E5.64145
G1 X132.243 Y139.159 E5.66263
G1 X131.416 Y139.142 E5.69014
G1 X111.574 Y138.347 E6.35062
G1 X110.148 Y138.319 E6.39805
G1 X109.99 Y138.303 E6.40334
G1 X108.307 Y138.256 E6.45933
G1 X75.524 Y136.944 E7.55057
G1 X74.787 Y136.904 E7.57512
G1 X74.285 Y136.837 E7.59197
G1 X73.801 Y136.692 E7.60877
G1 X73.346 Y136.472 E7.62558
G1 X72.855 Y136.13 E7.64548
G1 X72.155 Y135.425 E7.67853
G1 X52.885 Y115.496 E8.60056
G1 X52.365 Y114.942 E8.62583
G1 X51.972 Y114.451 E8.64675
G1 X51.355 Y113.243 E8.69186
G1 X50.072 Y110.812 E8.78329
G1 X48.734 Y108.443 E8.87378
G1 X47.324 Y106.101 E8.9647
G1 X45.827 Y103.768 E9.0569
G1 X44.297 Y101.526 E9.14718
G1 X42.684 Y99.301 E9.23858
G1 X41.026 Y97.144 E9.32907
G1 X39.289 Y95.009 E9.42061
G1 X37.632 Y93.084 E9.50509
G1 X37.333 Y92.675 E9.52194
G1 X37.103 Y92.226 E9.53872
G1 X36.946 Y91.745 E9.55555
G1 X36.867 Y91.246 E9.57235
G1 X36.867 Y90.74 E9.58918
G1 X36.952 Y90.224 E9.60658
G1 X37.194 Y89.251 E9.63992
G1 X38.704 Y83.614 E9.83402
G1 X38.885 Y82.976 E9.85608
G1 X39.061 Y82.502 E9.8729
G1 X39.31 Y82.061 E9.88974
G1 X39.625 Y81.666 E9.90654
G1 X39.998 Y81.324 E9.92338
G1 X40.543 Y80.965 E9.94508
M204 S2000
M205 X10 Y10
G1 F2400 E3.94508
;MESH:Claws v1.stl(1)
G0 F3000 X42.312 Y83.19
G0 X40.714 Y90.467
M204 S1000
M205 X8 Y8
;TYPE:WALL-OUTER
G1 F2400 E9.94508
G1 F1500 X40.926 Y90.546 E9.95261
G1 X41.158 Y90.222 E9.96586
G1 X41.375 Y90.045 E9.97517
G1 X41.666 Y89.904 E9.98593
G1 X42.044 Y89.837 E9.9987
G1 X42.372 Y89.868 E10.00966
G1 X42.632 Y89.956 E10.01879
G1 X42.923 Y90.142 E10.03027
G1 X43.354 Y90.619 E10.05165
G1 X43.598 Y90.792 E10.0616
G1 X43.884 Y90.906 E10.07184
G1 X44.172 Y90.951 E10.08154
G1 X44.477 Y90.923 E10.09173
G1 X44.696 Y90.853 E10.09937
G1 X44.789 Y90.636 E10.10722
G1 X44.988 Y90.375 E10.11814
G1 X45.217 Y90.189 E10.12795
G1 X45.51 Y90.051 E10.13873
G1 X45.832 Y89.991 E10.14962
G1 X46.201 Y90.021 E10.16193
G1 X46.496 Y90.125 E10.17234
G1 X46.765 Y90.304 E10.18308
G1 X47.184 Y90.772 E10.20398
G1 X47.428 Y90.945 E10.21392
G1 X47.714 Y91.059 E10.22416
G1 X48.002 Y91.104 E10.23386
G1 X48.306 Y91.077 E10.24401
G1 X48.526 Y91.005 E10.25171
G1 X48.617 Y90.79 E10.25947
G1 X48.816 Y90.531 E10.27034
G1 X49.047 Y90.344 E10.28022
G1 X49.328 Y90.21 E10.29058
G1 X49.662 Y90.144 E10.3019
G1 X49.984 Y90.165 E10.31263
G1 X50.325 Y90.277 E10.32457
G1 X50.583 Y90.448 E10.33487
G1 X51.015 Y90.925 E10.35627
G1 X51.259 Y91.1 E10.36626
G1 X51.538 Y91.212 E10.37626
G1 X51.839 Y91.255 E10.38637
G1 X52.138 Y91.23 E10.39635
G1 X52.357 Y91.158 E10.40402
G1 X52.45 Y90.942 E10.41184
G1 X52.649 Y90.682 E10.42273
G1 X52.888 Y90.49 E10.43293
G1 X53.159 Y90.364 E10.44287
G1 X53.492 Y90.298 E10.45416
G1 X53.814 Y90.318 E10.46489
G1 X54.155 Y90.43 E10.47683
G1 X54.414 Y90.602 E10.48717
G1 X54.845 Y91.078 E10.50852
G1 X55.09 Y91.253 E10.51854
G1 X55.368 Y91.365 E10.52851
G1 X55.669 Y91.408 E10.53862
G1 X55.968 Y91.383 E10.5486
G1 X56.187 Y91.311 E10.55627
G1 X56.28 Y91.096 E10.56406
G1 X56.479 Y90.835 E10.57497
G1 X56.708 Y90.649 E10.58479
G1 X56.988 Y90.517 E10.59508
G1 X57.323 Y90.451 E10.60644
G1 X57.644 Y90.471 E10.61714
G1 X57.985 Y90.583 E10.62907
G1 X58.244 Y90.755 E10.63941
G1 X58.675 Y91.231 E10.66077
G1 X58.919 Y91.406 E10.67076
G1 X59.205 Y91.519 E10.68099
G1 X59.493 Y91.564 E10.69068
G1 X59.798 Y91.536 E10.70087
G1 X60.017 Y91.466 E10.70852
G1 X60.11 Y91.249 E10.71637
G1 X60.275 Y91.025 E10.72562
G1 X60.537 Y90.803 E10.73704
G1 X60.82 Y90.67 E10.74744
G1 X61.153 Y90.604 E10.75873
G1 X61.523 Y90.634 E10.77108
G1 X61.825 Y90.742 E10.78175
G1 X62.082 Y90.914 E10.79203
G1 X62.312 Y91.175 E10.8036
G1 X62.47 Y91.523 E10.81632
G1 X62.565 Y91.626 E10.82098
G1 X62.883 Y91.791 E10.83289
G1 X63.862 Y91.568 E10.86629
G1 X63.95 Y91.365 E10.87365
G1 X64.126 Y91.128 E10.88347
G1 X64.383 Y90.915 E10.89457
G1 X64.66 Y90.786 E10.90473
G1 X64.993 Y90.72 E10.91602
G1 X65.315 Y90.74 E10.92675
G1 X65.643 Y90.846 E10.93822
G1 X65.904 Y91.017 E10.9486
G1 X66.05 Y91.17 E10.95563
G1 X67.025 Y91.046 E10.98832
G1 X67.13 Y90.852 E10.99566
G1 X67.339 Y90.619 E11.00607
G1 X67.59 Y90.449 E11.01615
G1 X67.939 Y90.327 E11.02845
G1 X68.27 Y90.305 E11.03948
G1 X68.544 Y90.351 E11.04872
G1 X68.862 Y90.487 E11.06022
G1 X69.108 Y90.679 E11.0706
G1 X69.246 Y90.853 E11.07799
G1 X70.219 Y90.811 E11.11038
G1 X70.343 Y90.624 E11.11784
G1 X70.568 Y90.414 E11.12808
G1 X70.836 Y90.266 E11.13826
G1 X71.167 Y90.177 E11.14966
G1 X71.484 Y90.176 E11.16021
G1 X71.839 Y90.27 E11.17242
G1 X72.101 Y90.418 E11.18243
G1 X72.325 Y90.627 E11.19262
G1 X72.45 Y90.816 E11.20016
G1 X73.424 Y90.863 E11.23259
G1 X73.528 Y90.725 E11.23834
G1 X73.81 Y90.497 E11.2504
G1 X74.082 Y90.377 E11.26029
G1 X74.408 Y90.318 E11.2713
G1 X74.731 Y90.342 E11.28208
G1 X75.047 Y90.449 E11.29317
G1 X75.333 Y90.639 E11.30459
G1 X75.54 Y90.871 E11.31494
G1 X75.644 Y91.066 E11.32229
G1 X76.611 Y91.2 E11.35476
G1 X76.767 Y91.037 E11.36226
G1 X77.024 Y90.872 E11.37242
G1 X77.343 Y90.768 E11.38358
G1 X77.686 Y90.75 E11.395
G1 X78.012 Y90.816 E11.40606
G1 X78.257 Y90.931 E11.41507
G1 X78.533 Y91.151 E11.4268
G1 X78.716 Y91.397 E11.437
G1 X78.803 Y91.602 E11.44441
G1 X79.754 Y91.823 E11.47688
G1 X79.924 Y91.675 E11.48438
G1 X80.196 Y91.533 E11.49458
G1 X80.504 Y91.458 E11.50513
G1 X80.821 Y91.462 E11.51567
G1 X81.135 Y91.544 E11.52647
G1 X81.453 Y91.725 E11.53864
G1 X81.674 Y91.944 E11.54898
G1 X81.834 Y92.208 E11.55925
G1 X81.902 Y92.419 E11.56663
G1 X82.83 Y92.724 E11.59912
G1 X83.009 Y92.594 E11.60647
G1 X83.296 Y92.475 E11.61681
G1 X83.605 Y92.429 E11.6272
G1 X83.968 Y92.471 E11.63935
G1 X84.273 Y92.593 E11.65028
G1 X84.513 Y92.764 E11.66008
G1 X84.73 Y93.016 E11.67114
G1 X84.866 Y93.295 E11.68146
G1 X84.915 Y93.511 E11.68883
G1 X85.811 Y93.897 E11.72128
G1 X86.001 Y93.785 E11.72861
G1 X86.3 Y93.691 E11.73904
G1 X86.648 Y93.678 E11.75062
G1 X86.919 Y93.732 E11.75981
G1 X87.218 Y93.869 E11.77075
G1 X87.492 Y94.093 E11.78252
G1 X87.679 Y94.362 E11.79342
G1 X87.788 Y94.65 E11.80366
G1 X87.818 Y94.869 E11.81101
G1 X88.677 Y95.333 E11.84348
G1 X88.877 Y95.237 E11.85086
G1 X89.178 Y95.172 E11.86111
G1 X89.508 Y95.184 E11.87209
G1 X89.818 Y95.275 E11.88283
G1 X90.102 Y95.446 E11.89386
G1 X90.334 Y95.684 E11.90491
G1 X90.493 Y95.961 E11.91554
G1 X90.578 Y96.261 E11.92591
G1 X90.588 Y96.48 E11.9332
G1 X91.401 Y97.019 E11.96564
G1 X91.609 Y96.942 E11.97302
G1 X91.886 Y96.907 E11.98231
G1 X92.264 Y96.953 E11.99497
G1 X92.566 Y97.08 E12.00587
G1 X92.815 Y97.266 E12.01621
G1 X93.012 Y97.507 E12.02656
G1 X93.154 Y97.808 E12.03763
G1 X93.21 Y98.114 E12.04797
G1 X93.201 Y98.335 E12.05533
G1 X93.962 Y98.945 E12.08777
G1 X94.126 Y98.895 E12.09347
G1 X94.487 Y98.877 E12.10549
G1 X94.813 Y98.948 E12.11659
G1 X95.075 Y99.08 E12.12635
G1 X95.339 Y99.304 E12.13786
G1 X95.525 Y99.572 E12.14871
G1 X95.638 Y99.886 E12.15981
G1 X95.668 Y100.196 E12.17017
G1 X95.637 Y100.415 E12.17753
G1 X96.343 Y101.092 E12.21006
G1 X96.56 Y101.053 E12.2174
G1 X96.87 Y101.069 E12.22772
G1 X97.177 Y101.166 E12.23843
G1 X97.46 Y101.34 E12.24948
G1 X97.685 Y101.577 E12.26035
G1 X97.842 Y101.859 E12.27108
G1 X97.927 Y102.179 E12.28209
G1 X97.929 Y102.49 E12.29244
G1 X97.881 Y102.705 E12.29977
G1 X98.522 Y103.442 E12.33225
G1 X98.743 Y103.423 E12.33963
G1 X99.067 Y103.475 E12.35054
G1 X99.362 Y103.603 E12.36124
G1 X99.613 Y103.794 E12.37173
G1 X99.817 Y104.054 E12.38272
G1 X99.943 Y104.338 E12.39306
G1 X99.998 Y104.647 E12.40349
G1 X99.975 Y104.978 E12.41453
G1 X99.905 Y105.189 E12.42192
G1 X100.477 Y105.979 E12.45436
G1 X100.701 Y105.98 E12.46181
G1 X101.002 Y106.052 E12.47211
G1 X101.285 Y106.202 E12.48276
G1 X101.524 Y106.415 E12.49341
G1 X101.7 Y106.676 E12.50388
G1 X101.814 Y106.997 E12.51521
G1 X101.841 Y107.312 E12.52572
G1 X101.79 Y107.638 E12.5367
G1 X101.702 Y107.842 E12.54409
G1 X102.201 Y108.681 E12.57656
G1 X102.428 Y108.702 E12.58414
G1 X102.713 Y108.799 E12.59415
G1 X102.985 Y108.976 E12.60495
G1 X103.209 Y109.217 E12.61589
G1 X103.373 Y109.533 E12.62773
G1 X103.444 Y109.836 E12.63808
G1 X103.441 Y110.131 E12.64789
G1 X103.358 Y110.454 E12.65899
G1 X103.253 Y110.648 E12.66632
G1 X103.675 Y111.527 E12.69875
G1 X103.897 Y111.567 E12.70626
G1 X104.175 Y111.692 E12.71639
G1 X104.425 Y111.886 E12.72692
G1 X104.617 Y112.13 E12.73725
G1 X104.768 Y112.482 E12.74998
G1 X104.808 Y112.758 E12.75926
G1 X104.767 Y113.132 E12.77177
G1 X104.666 Y113.4 E12.7813
G1 X104.546 Y113.58 E12.78849
G1 X104.888 Y114.494 E12.82095
G1 X104.986 Y114.519 E12.82432
G1 X118.951 Y106.992 E13.35197
G1 X98.925 Y86.282 E14.31015
G1 X65 Y84.924 E15.4394
G1 X64.961 Y84.958 E15.44112
G1 X42.108 Y84.046 E16.20182
G1 X40.384 Y90.485 E16.42353
G1 X40.714 Y90.467 E16.43452
M204 S2000
M205 X10 Y10
G0 F3000 X40.901 Y90.536
G0 X40.815 Y90.204
G0 X41.621 Y89.662
G0 X71.532 Y89.937
G0 X74.809 Y90.108
G0 X78.058 Y90.574
G0 X81.252 Y91.329
G0 X84.364 Y92.366
G0 X87.372 Y93.679
G0 X90.251 Y95.256
G0 X92.976 Y97.084
G0 X95.525 Y99.15
G0 X97.881 Y101.436
G0 X100.022 Y103.925
G0 X101.929 Y106.593
G0 X103.592 Y109.423
G0 X103.988 Y110.264
G0 X105.421 Y113.376
G0 X105.142 Y113.272
M204 S1000
M205 X8 Y8
;TYPE:WALL-INNER
G1 F1500 X104.993 Y113.632 E16.44748
G1 X105.126 Y113.99 E16.46018
G1 X118.297 Y106.89 E16.95785
G1 X98.749 Y86.675 E17.89314
G1 X65.042 Y85.326 E19.01514
G1 X65.001 Y85.361 E19.01693
G1 X42.412 Y84.458 E19.76885
G1 X40.963 Y89.865 E19.95503
G1 X41.25 Y89.655 E19.96686
G1 X41.498 Y89.54 E19.97595
G1 X42.074 Y89.438 E19.99541
G1 X42.5 Y89.489 E20.00968
G1 X42.877 Y89.631 E20.02307
G1 X43.203 Y89.849 E20.03612
G1 X43.623 Y90.319 E20.05708
G1 X43.791 Y90.438 E20.06393
G1 X44.185 Y90.548 E20.07754
G1 X44.395 Y90.528 E20.08455
G1 X44.63 Y90.176 E20.09863
G1 X44.988 Y89.861 E20.11449
G1 X45.368 Y89.677 E20.12853
G1 X45.779 Y89.595 E20.14247
G1 X46.182 Y89.612 E20.15589
G1 X46.688 Y89.775 E20.17357
G1 X47.028 Y89.998 E20.18709
G1 X47.453 Y90.472 E20.20827
G1 X47.621 Y90.591 E20.21511
G1 X48.016 Y90.701 E20.22875
G1 X48.223 Y90.682 E20.23567
G1 X48.563 Y90.221 E20.25472
G1 X48.819 Y90.015 E20.26565
G1 X49.16 Y89.847 E20.27829
G1 X49.609 Y89.748 E20.29358
G1 X50.016 Y89.766 E20.30713
G1 X50.518 Y89.927 E20.32467
G1 X50.859 Y90.152 E20.33825
G1 X51.284 Y90.625 E20.3594
G1 X51.453 Y90.747 E20.36634
G1 X51.643 Y90.823 E20.37314
G1 X52.056 Y90.835 E20.38689
G1 X52.396 Y90.372 E20.40599
G1 X52.682 Y90.147 E20.41809
G1 X52.991 Y90.001 E20.42946
G1 X53.439 Y89.902 E20.44472
G1 X53.844 Y89.919 E20.4582
G1 X54.348 Y90.08 E20.4758
G1 X54.693 Y90.309 E20.48957
G1 X55.113 Y90.778 E20.51051
G1 X55.473 Y90.976 E20.52418
G1 X55.886 Y90.988 E20.53792
G1 X56.226 Y90.525 E20.55703
G1 X56.479 Y90.321 E20.56784
G1 X56.82 Y90.154 E20.58046
G1 X57.27 Y90.055 E20.59579
G1 X57.674 Y90.072 E20.60924
G1 X58.178 Y90.233 E20.62684
G1 X58.521 Y90.46 E20.64052
G1 X58.943 Y90.931 E20.66155
G1 X59.111 Y91.052 E20.66844
G1 X59.506 Y91.161 E20.68207
G1 X59.716 Y91.141 E20.68908
G1 X60.056 Y90.679 E20.70816
G1 X60.308 Y90.475 E20.71894
G1 X60.653 Y90.306 E20.73172
G1 X61.1 Y90.208 E20.74694
G1 X61.504 Y90.225 E20.76039
G1 X62.004 Y90.384 E20.77784
G1 X62.311 Y90.585 E20.79005
G1 X62.616 Y90.911 E20.80489
G1 X62.811 Y91.302 E20.81943
G1 X62.935 Y91.367 E20.82408
G1 X63.575 Y91.223 E20.8459
G1 X63.825 Y90.864 E20.86045
G1 X64.166 Y90.579 E20.87523
G1 X64.493 Y90.422 E20.8873
G1 X64.979 Y90.32 E20.90381
G1 X65.455 Y90.36 E20.9197
G1 X65.81 Y90.482 E20.93219
G1 X66.2 Y90.747 E20.94787
G1 X66.77 Y90.675 E20.96698
G1 X67.082 Y90.312 E20.9829
G1 X67.389 Y90.103 E20.99525
G1 X67.877 Y89.932 E21.01245
G1 X68.261 Y89.903 E21.02526
G1 X68.735 Y89.992 E21.0413
G1 X69.061 Y90.14 E21.05321
G1 X69.433 Y90.445 E21.06921
G1 X69.997 Y90.42 E21.08798
G1 X70.34 Y90.085 E21.10393
G1 X70.655 Y89.909 E21.11593
G1 X71.114 Y89.781 E21.13178
G1 X71.5 Y89.776 E21.14462
G1 X71.901 Y89.868 E21.1583
G1 X72.33 Y90.09 E21.17437
G1 X72.673 Y90.426 E21.19034
G1 X73.239 Y90.453 E21.20919
G1 X73.612 Y90.149 E21.22519
G1 X73.931 Y90.007 E21.23681
G1 X74.336 Y89.924 E21.25056
G1 X74.767 Y89.944 E21.26491
G1 X75.297 Y90.128 E21.28357
G1 X75.591 Y90.333 E21.29549
G1 X75.901 Y90.697 E21.31139
G1 X76.463 Y90.775 E21.33026
G1 X76.858 Y90.508 E21.34612
G1 X77.29 Y90.372 E21.36118
G1 X77.674 Y90.347 E21.37398
G1 X78.182 Y90.454 E21.39125
G1 X78.519 Y90.623 E21.40379
G1 X78.817 Y90.869 E21.41664
G1 X79.092 Y91.258 E21.43248
G1 X79.645 Y91.386 E21.45136
G1 X80.063 Y91.156 E21.46723
G1 X80.433 Y91.064 E21.47991
G1 X80.837 Y91.062 E21.49335
G1 X81.243 Y91.158 E21.50723
G1 X81.691 Y91.403 E21.52421
G1 X81.983 Y91.69 E21.53783
G1 X82.222 Y92.102 E21.55367
G1 X82.76 Y92.28 E21.57252
G1 X83.197 Y92.087 E21.58841
G1 X83.574 Y92.03 E21.60109
G1 X83.962 Y92.062 E21.61404
G1 X84.369 Y92.195 E21.62828
G1 X84.8 Y92.484 E21.64554
G1 X85.06 Y92.79 E21.65889
G1 X85.261 Y93.224 E21.6748
G1 X85.782 Y93.449 E21.69367
G1 X86.237 Y93.296 E21.70964
G1 X86.636 Y93.275 E21.72293
G1 X87.139 Y93.388 E21.74008
G1 X87.518 Y93.59 E21.75436
G1 X87.807 Y93.846 E21.7672
G1 X88.029 Y94.168 E21.78021
G1 X88.188 Y94.614 E21.79596
G1 X88.687 Y94.884 E21.81483
G1 X89.148 Y94.773 E21.8306
G1 X89.542 Y94.785 E21.84371
G1 X89.979 Y94.909 E21.85882
G1 X90.351 Y95.133 E21.87326
G1 X90.658 Y95.45 E21.88794
G1 X90.859 Y95.798 E21.90131
G1 X90.978 Y96.259 E21.91714
G1 X91.453 Y96.573 E21.93608
G1 X91.925 Y96.506 E21.95194
G1 X92.322 Y96.554 E21.96524
G1 X92.668 Y96.683 E21.97752
G1 X93.084 Y96.969 E21.99431
G1 X93.341 Y97.279 E22.0077
G1 X93.533 Y97.679 E22.02246
G1 X93.61 Y98.15 E22.03833
G1 X94.053 Y98.505 E22.05721
G1 X94.531 Y98.479 E22.07314
G1 X94.989 Y98.588 E22.0888
G1 X95.32 Y98.761 E22.10122
G1 X95.645 Y99.045 E22.11557
G1 X95.892 Y99.411 E22.13026
G1 X96.027 Y99.792 E22.1437
G1 X96.062 Y100.268 E22.15958
G1 X96.472 Y100.662 E22.17849
G1 X96.949 Y100.677 E22.19436
G1 X97.396 Y100.829 E22.21007
G1 X97.712 Y101.029 E22.2225
G1 X98.021 Y101.359 E22.23754
G1 X98.222 Y101.731 E22.2516
G1 X98.322 Y102.118 E22.2649
G1 X98.317 Y102.596 E22.2808
