;FLAVOR:Marlin
;TIME:1191
;Filament used: 0.977961m
;Layer height: 0.2
;MINX:85.2
;MINY:91.837
;MINZ:0.2
;MAXX:136.8
;MAXY:129.08
;MAXZ:2.4
;Generated with Cura_SteamEngine 5.3.1
M140 S60
M105
M190 S60
M104 S200
M105
M109 S200
M82 ;absolute extrusion mode
G28 ;Home
G1 Z15.0 F1200 ;Move the platform down 15mm
;Prime the extruder
G92 E0
G1 F200 E3
G92 E0
G92 E0
G92 E0
G1 F2400 E-6
;LAYER_COUNT:12
;LAYER:0
M107
M204 S2000
M205 X10 Y10
G0 F3000 X86.594 Y93.138 Z0.2
M204 S1000
M205 X8 Y8
;TYPE:SKIRT
G1 F2400 E0
G1 X86.985 Y92.817 E0.01683
G1 X87.422 Y92.563 E0.03364
G1 X87.893 Y92.38 E0.05044
G1 X88.388 Y92.274 E0.06728
G1 X89.04 Y92.238 E0.089
G1 X132.539 Y92.237 E1.53578
G1 X133.237 Y92.247 E1.559
G1 X133.74 Y92.294 E1.5758
G1 X134.23 Y92.42 E1.59263
G1 X134.694 Y92.622 E1.60946
G1 X135.12 Y92.894 E1.62627
G1 X135.498 Y93.229 E1.64307
G1 X135.818 Y93.62 E1.65988
G1 X136.073 Y94.057 E1.67671
G1 X136.256 Y94.528 E1.69351
G1 X136.363 Y95.022 E1.71032
G1 X136.399 Y95.677 E1.73214
G1 X136.4 Y108.395 E2.15514
G1 X136.386 Y109.289 E2.18488
G1 X136.153 Y111.109 E2.24591
G1 X135.844 Y113.902 E2.33937
G1 X135.623 Y116.605 E2.42957
G1 X135.476 Y119.33 E2.52034
G1 X135.4 Y123.161 E2.64778
G1 X135.4 Y124.789 E2.70193
G1 X135.39 Y125.516 E2.72611
G1 X135.343 Y126.019 E2.74292
G1 X135.217 Y126.509 E2.75974
G1 X135.016 Y126.973 E2.77656
G1 X134.744 Y127.399 E2.79337
G1 X134.409 Y127.778 E2.8102
G1 X134.018 Y128.098 E2.827
G1 X133.582 Y128.353 E2.8438
G1 X133.111 Y128.537 E2.86062
G1 X132.616 Y128.643 E2.87746
G1 X132.172 Y128.68 E2.89228
G1 X90.46 Y128.68 E4.27962
G1 X89.764 Y128.67 E4.30277
G1 X89.261 Y128.622 E4.31958
G1 X88.771 Y128.497 E4.3364
G1 X88.307 Y128.295 E4.35323
G1 X87.881 Y128.023 E4.37004
G1 X87.503 Y127.688 E4.38684
G1 X87.183 Y127.297 E4.40365
G1 X86.928 Y126.86 E4.42047
G1 X86.745 Y126.389 E4.43728
G1 X86.638 Y125.894 E4.45412
G1 X86.601 Y125.448 E4.46901
G1 X86.6 Y123.211 E4.54341
G1 X86.56 Y120.414 E4.63645
G1 X86.445 Y117.697 E4.7269
G1 X86.25 Y114.95 E4.81849
G1 X85.984 Y112.262 E4.90833
G1 X85.803 Y110.908 E4.95377
G1 X85.794 Y110.736 E4.9595
G1 X85.613 Y109.295 E5.0078
G1 X85.6 Y108.437 E5.03634
G1 X85.6 Y96.063 E5.4479
G1 X85.61 Y95.398 E5.47002
G1 X85.658 Y94.895 E5.48683
G1 X85.784 Y94.405 E5.50366
G1 X85.986 Y93.941 E5.52049
G1 X86.258 Y93.515 E5.5373
G1 X86.594 Y93.138 E5.5541
M204 S2000
M205 X10 Y10
G0 F3000 X86.295 Y92.872
M204 S1000
M205 X8 Y8
G1 F2400 X86.784 Y92.471 E5.57513
G1 X87.277 Y92.19 E5.594
G1 X87.748 Y92.007 E5.61081
G1 X88.304 Y91.883 E5.62976
G1 X89.04 Y91.838 E5.65428
G1 X132.545 Y91.837 E7.10126
G1 X133.243 Y91.847 E7.12448
G1 X133.84 Y91.907 E7.14444
G1 X134.39 Y92.053 E7.16337
G1 X134.854 Y92.255 E7.1802
G1 X135.335 Y92.557 E7.19909
G1 X135.808 Y92.976 E7.2201
G1 X136.128 Y93.367 E7.23691
G1 X136.446 Y93.912 E7.2579
G1 X136.629 Y94.383 E7.2747
G1 X136.754 Y94.937 E7.29359
G1 X136.799 Y95.677 E7.31825
G1 X136.8 Y108.401 E7.74145
G1 X136.783 Y109.34 E7.77269
G1 X136.55 Y111.16 E7.83372
G1 X136.242 Y113.946 E7.92694
G1 X136.021 Y116.638 E8.01678
G1 X135.876 Y119.338 E8.10671
G1 X135.8 Y123.169 E8.23416
G1 X135.8 Y124.795 E8.28824
G1 X135.79 Y125.522 E8.31242
G1 X135.73 Y126.119 E8.33238
G1 X135.584 Y126.668 E8.35127
G1 X135.353 Y127.188 E8.3702
G1 X135.044 Y127.664 E8.38907
G1 X134.709 Y128.043 E8.40589
G1 X134.271 Y128.408 E8.42486
G1 X133.728 Y128.726 E8.44579
G1 X133.257 Y128.91 E8.46261
G1 X132.649 Y129.042 E8.4833
G1 X132.205 Y129.079 E8.49812
G1 X90.454 Y129.08 E9.88676
G1 X89.758 Y129.07 E9.90991
G1 X89.162 Y129.01 E9.92984
G1 X88.672 Y128.885 E9.94666
G1 X88.147 Y128.662 E9.96563
G1 X87.666 Y128.36 E9.98452
G1 X87.193 Y127.941 E10.00553
G1 X86.873 Y127.55 E10.02234
G1 X86.555 Y127.005 E10.04333
G1 X86.354 Y126.474 E10.06221
G1 X86.239 Y125.927 E10.0808
G1 X86.202 Y125.481 E10.09569
G1 X86.2 Y123.211 E10.17119
G1 X86.16 Y120.42 E10.26403
G1 X86.045 Y117.714 E10.35411
G1 X85.851 Y114.978 E10.44534
G1 X85.586 Y112.301 E10.53481
G1 X85.404 Y110.929 E10.58084
G1 X85.397 Y110.786 E10.5856
G1 X85.216 Y109.345 E10.63391
G1 X85.2 Y108.443 E10.66391
G1 X85.2 Y96.057 E11.07587
G1 X85.21 Y95.392 E11.09799
G1 X85.271 Y94.795 E11.11795
G1 X85.417 Y94.245 E11.13688
G1 X85.619 Y93.781 E11.15371
G1 X85.959 Y93.249 E11.17471
G1 X86.295 Y92.872 E11.19151
M204 S2000
M205 X10 Y10
G1 F2400 E5.19151
G0 F3000 X88.74 Y96.012
M204 S1000
M205 X8 Y8
;TYPE:SUPPORT
G1 F2400 E11.19151
G1 F1500 X133.26 Y96.012 E12.67225
M204 S2000
M205 X10 Y10
G1 F2400 E6.67225
G0 F3000 X130.683 Y95.377
M204 S1000
M205 X8 Y8
G1 F2400 E12.67225
G1 F1500 X130.683 Y107.796 E13.08531
M204 S2000
M205 X10 Y10
G1 F2400 E7.08531
G0 F3000 X128.016 Y107.785
M204 S1000
M205 X8 Y8
G1 F2400 E13.08531
G1 F1500 X128.016 Y95.377 E13.498
M204 S2000
M205 X10 Y10
G1 F2400 E7.498
G0 F3000 X125.349 Y95.377
M204 S1000
M205 X8 Y8
G1 F2400 E13.498
G1 F1500 X125.349 Y107.782 E13.91059
M204 S2000
M205 X10 Y10
G1 F2400 E7.91059
G0 F3000 X122.682 Y107.779
M204 S1000
M205 X8 Y8
G1 F2400 E13.91059
G1 F1500 X122.682 Y95.377 E14.32308
M204 S2000
M205 X10 Y10
G1 F2400 E8.32308
G0 F3000 X120.015 Y95.377
M204 S1000
M205 X8 Y8
G1 F2400 E14.32308
G1 F1500 X120.015 Y107.805 E14.73644
M204 S2000
M205 X10 Y10
G1 F2400 E8.73644
G0 F3000 X117.348 Y107.794
M204 S1000
M205 X8 Y8
G1 F2400 E14.73644
G1 F1500 X117.348 Y95.377 E15.14943
M204 S2000
M205 X10 Y10
G1 F2400 E9.14943
G0 F3000 X114.681 Y95.377
M204 S1000
M205 X8 Y8
G1 F2400 E15.14943
G1 F1500 X114.681 Y107.801 E15.56265
M204 S2000
M205 X10 Y10
G1 F2400 E9.56265
G0 F3000 X112.014 Y107.807
M204 S1000
M205 X8 Y8
G1 F2400 E15.56265
G1 F1500 X112.014 Y95.377 E15.97608
M204 S2000
M205 X10 Y10
G1 F2400 E9.97608
G0 F3000 X109.347 Y95.377
M204 S1000
M205 X8 Y8
G1 F2400 E15.97608
G1 F1500 X109.347 Y107.813 E16.3897
M204 S2000
M205 X10 Y10
G1 F2400 E10.3897
G0 F3000 X106.68 Y107.812
M204 S1000
M205 X8 Y8
G1 F2400 E16.3897
G1 F1500 X106.68 Y95.377 E16.80329
M204 S2000
M205 X10 Y10
G1 F2400 E10.80329
G0 F3000 X104.013 Y95.377
M204 S1000
M205 X8 Y8
G1 F2400 E16.80329
G1 F1500 X104.013 Y107.812 E17.21688
M204 S2000
M205 X10 Y10
G1 F2400 E11.21688
G0 F3000 X101.346 Y107.787
M204 S1000
M205 X8 Y8
G1 F2400 E17.21688
G1 F1500 X101.346 Y95.377 E17.62964
M204 S2000
M205 X10 Y10
G1 F2400 E11.62964
G0 F3000 X98.679 Y95.377
M204 S1000
M205 X8 Y8
G1 F2400 E17.62964
G1 F1500 X98.679 Y107.784 E18.0423
M204 S2000
M205 X10 Y10
G1 F2400 E12.0423
G0 F3000 X96.012 Y107.781
M204 S1000
M205 X8 Y8
G1 F2400 E18.0423
G1 F1500 X96.012 Y95.377 E18.45486
M204 S2000
M205 X10 Y10
G1 F2400 E12.45486
G0 F3000 X93.345 Y95.377
M204 S1000
M205 X8 Y8
G1 F2400 E18.45486
G1 F1500 X93.345 Y107.778 E18.86732
M204 S2000
M205 X10 Y10
G1 F2400 E12.86732
G0 F3000 X90.678 Y107.796
M204 S1000
M205 X8 Y8
G1 F2400 E18.86732
G1 F1500 X90.678 Y95.377 E19.28037
M204 S2000
M205 X10 Y10
G1 F2400 E13.28037
G0 F3000 X88.74 Y98.679
M204 S1000
M205 X8 Y8
G1 F2400 E19.28037
G1 F1500 X133.26 Y98.679 E20.76111
M204 S2000
M205 X10 Y10
G1 F2400 E14.76111
G0 F3000 X133.26 Y101.346
M204 S1000
M205 X8 Y8
G1 F2400 E20.76111
G1 F1500 X88.74 Y101.346 E22.24186
M204 S2000
M205 X10 Y10
G1 F2400 E16.24186
G0 F3000 X88.74 Y104.013
M204 S1000
M205 X8 Y8
G1 F2400 E22.24186
G1 F1500 X133.26 Y104.013 E23.7226
M204 S2000
M205 X10 Y10
G1 F2400 E17.7226
G0 F3000 X133.26 Y106.68
M204 S1000
M205 X8 Y8
G1 F2400 E23.7226
G1 F1500 X88.74 Y106.68 E25.20334
M204 S2000
M205 X10 Y10
G1 F2400 E19.20334
;MESH:Claw_Holder v1.stl
G0 F3000 X120.184 Y118.973
G0 X120.185 Y120.058
G0 X125.98 Y120.531
G0 X125.992 Y119.832
M204 S1000
M205 X8 Y8
;TYPE:WALL-OUTER
G1 F2400 E25.20334
G1 F1500 X125.622 Y119.827 E25.21564
G1 X96.292 Y119.839 E26.19116
G1 X96.075 Y119.827 E26.19839
G1 X90.715 Y119.832 E26.37667
G1 X90.001 Y119.826 E26.40042
G1 X90 Y125.28 E26.58182
G1 X132 Y125.281 E27.97874
G1 X132 Y119.831 E28.16001
G1 X131.314 Y119.826 E28.18283
G1 X125.992 Y119.832 E28.35984
M204 S2000
M205 X10 Y10
G0 F3000 X125.792 Y119.83
G0 X125.985 Y120.232
M204 S1000
M205 X8 Y8
;TYPE:WALL-INNER
G1 F1500 X125.622 Y120.227 E28.37191
G1 X96.269 Y120.239 E29.3482
G1 X96.063 Y120.227 E29.35506
G1 X90.401 Y120.232 E29.54338
G1 X90.4 Y124.88 E29.69797
G1 X131.6 Y124.881 E31.06829
G1 X131.6 Y120.226 E31.22312
G1 X125.985 Y120.232 E31.40987
M204 S2000
M205 X10 Y10
G0 F3000 X125.98 Y120.531
G0 X96.245 Y120.638
M204 S1000
M205 X8 Y8
G1 F1500 X96.052 Y120.627 E31.4163
G1 X90.8 Y120.632 E31.59098
G1 X90.8 Y124.48 E31.71897
G1 X131.2 Y124.481 E33.06268
G1 X131.2 Y120.627 E33.19086
G1 X96.245 Y120.638 E34.35347
M204 S2000
M205 X10 Y10
G0 F3000 X96.222 Y121.038
M204 S1000
M205 X8 Y8
G1 F1500 X96.04 Y121.027 E34.35954
G1 X91.2 Y121.032 E34.52051
G1 X91.2 Y124.08 E34.62189
G1 X130.8 Y124.081 E35.93899
G1 X130.8 Y121.027 E36.04057
G1 X96.222 Y121.038 E37.19064
M204 S2000
M205 X10 Y10
G0 F3000 X96.298 Y121.419
M204 S1000
M205 X8 Y8
;TYPE:SKIN
G1 F1500 X96.006 Y121.409 E37.20036
G1 X91.58 Y121.411 E37.34757
G1 X91.58 Y123.7 E37.4237
G1 X130.42 Y123.701 E38.71552
G1 X130.42 Y121.409 E38.79175
G1 X96.298 Y121.419 E39.92666
M204 S2000
M205 X10 Y10
G0 F3000 X92.386 Y123.499
M204 S1000
M205 X8 Y8
G1 F1500 X91.779 Y122.892 E39.95521
M204 S2000
M205 X10 Y10
G0 F3000 X91.779 Y122.326
M204 S1000
M205 X8 Y8
G1 F1500 X92.952 Y123.499 E40.01038
M204 S2000
M205 X10 Y10
G0 F3000 X93.517 Y123.499
M204 S1000
M205 X8 Y8
G1 F1500 X91.779 Y121.76 E40.09216
M204 S2000
M205 X10 Y10
G0 F3000 X92.194 Y121.61
M204 S1000
M205 X8 Y8
G1 F1500 X94.083 Y123.499 E40.18101
M204 S2000
M205 X10 Y10
G0 F3000 X94.649 Y123.499
M204 S1000
M205 X8 Y8
G1 F1500 X92.76 Y121.61 E40.26986
M204 S2000
M205 X10 Y10
G0 F3000 X93.326 Y121.61
M204 S1000
M205 X8 Y8
G1 F1500 X95.214 Y123.499 E40.35869
M204 S2000
M205 X10 Y10
G0 F3000 X95.78 Y123.499
M204 S1000
M205 X8 Y8
G1 F1500 X93.891 Y121.61 E40.44754
M204 S2000
M205 X10 Y10
G0 F3000 X94.456 Y121.609
M204 S1000
M205 X8 Y8
G1 F1500 X96.346 Y123.499 E40.53644
M204 S2000
M205 X10 Y10
G0 F3000 X96.911 Y123.499
M204 S1000
M205 X8 Y8
G1 F1500 X95.022 Y121.609 E40.62532
M204 S2000
M205 X10 Y10
G0 F3000 X95.588 Y121.609
M204 S1000
M205 X8 Y8
G1 F1500 X97.477 Y123.499 E40.7142
M204 S2000
M205 X10 Y10
G0 F3000 X98.043 Y123.499
M204 S1000
M205 X8 Y8
G1 F1500 X96.158 Y121.613 E40.80288
M204 S2000
M205 X10 Y10
G0 F3000 X96.727 Y121.618
M204 S1000
M205 X8 Y8
G1 F1500 X98.608 Y123.499 E40.89136
M204 S2000
M205 X10 Y10
G0 F3000 X99.174 Y123.499
M204 S1000
M205 X8 Y8
G1 F1500 X97.293 Y121.618 E40.97984
M204 S2000
M205 X10 Y10
G0 F3000 X97.859 Y121.618
M204 S1000
M205 X8 Y8
G1 F1500 X99.74 Y123.499 E41.06831
M204 S2000
M205 X10 Y10
G0 F3000 X100.305 Y123.499
M204 S1000
M205 X8 Y8
G1 F1500 X98.425 Y121.618 E41.15677
M204 S2000
M205 X10 Y10
G0 F3000 X98.989 Y121.617
M204 S1000
M205 X8 Y8
G1 F1500 X100.871 Y123.499 E41.24529
M204 S2000
M205 X10 Y10
G0 F3000 X101.437 Y123.499
M204 S1000
M205 X8 Y8
G1 F1500 X99.555 Y121.617 E41.33381
M204 S2000
M205 X10 Y10
G0 F3000 X100.121 Y121.617
M204 S1000
M205 X8 Y8
G1 F1500 X102.002 Y123.499 E41.42231
M204 S2000
M205 X10 Y10
G0 F3000 X102.568 Y123.499
M204 S1000
M205 X8 Y8
G1 F1500 X100.687 Y121.617 E41.51081
M204 S2000
M205 X10 Y10
G0 F3000 X101.252 Y121.617
M204 S1000
M205 X8 Y8
G1 F1500 X103.134 Y123.499 E41.59934
M204 S2000
M205 X10 Y10
G0 F3000 X103.7 Y123.499
M204 S1000
M205 X8 Y8
G1 F1500 X101.817 Y121.616 E41.68791
M204 S2000
M205 X10 Y10
G0 F3000 X102.383 Y121.616
M204 S1000
M205 X8 Y8
G1 F1500 X104.265 Y123.499 E41.77645
M204 S2000
M205 X10 Y10
G0 F3000 X104.831 Y123.499
M204 S1000
M205 X8 Y8
G1 F1500 X102.949 Y121.616 E41.865
M204 S2000
M205 X10 Y10
G0 F3000 X103.514 Y121.616
M204 S1000
M205 X8 Y8
G1 F1500 X105.397 Y123.499 E41.95357
M204 S2000
M205 X10 Y10
G0 F3000 X105.962 Y123.499
M204 S1000
M205 X8 Y8
G1 F1500 X104.08 Y121.616 E42.04212
M204 S2000
M205 X10 Y10
G0 F3000 X104.645 Y121.616
M204 S1000
M205 X8 Y8
G1 F1500 X106.528 Y123.499 E42.13069
M204 S2000
M205 X10 Y10
G0 F3000 X107.094 Y123.499
M204 S1000
M205 X8 Y8
G1 F1500 X105.211 Y121.616 E42.21926
M204 S2000
M205 X10 Y10
G0 F3000 X105.776 Y121.616
M204 S1000
M205 X8 Y8
G1 F1500 X107.659 Y123.499 E42.30783
M204 S2000
M205 X10 Y10
G0 F3000 X108.225 Y123.499
M204 S1000
M205 X8 Y8
G1 F1500 X106.342 Y121.616 E42.3964
M204 S2000
M205 X10 Y10
G0 F3000 X106.907 Y121.615
M204 S1000
M205 X8 Y8
G1 F1500 X108.791 Y123.499 E42.48502
M204 S2000
M205 X10 Y10
G0 F3000 X109.356 Y123.499
M204 S1000
M205 X8 Y8
G1 F1500 X107.473 Y121.615 E42.57361
M204 S2000
M205 X10 Y10
G0 F3000 X108.038 Y121.615
M204 S1000
M205 X8 Y8
G1 F1500 X109.922 Y123.499 E42.66223
M204 S2000
M205 X10 Y10
G0 F3000 X110.488 Y123.499
M204 S1000
M205 X8 Y8
G1 F1500 X108.604 Y121.615 E42.75085
M204 S2000
M205 X10 Y10
G0 F3000 X109.17 Y121.615
M204 S1000
M205 X8 Y8
G1 F1500 X111.054 Y123.499 E42.83947
M204 S2000
M205 X10 Y10
G0 F3000 X111.62 Y123.499
M204 S1000
M205 X8 Y8
G1 F1500 X109.735 Y121.614 E42.92813
M204 S2000
M205 X10 Y10
G0 F3000 X110.3 Y121.614
M204 S1000
M205 X8 Y8
G1 F1500 X112.186 Y123.499 E43.01682
M204 S2000
M205 X10 Y10
G0 F3000 X112.751 Y123.499
M204 S1000
M205 X8 Y8
G1 F1500 X110.866 Y121.614 E43.10548
M204 S2000
M205 X10 Y10
G0 F3000 X111.432 Y121.614
M204 S1000
M205 X8 Y8
G1 F1500 X113.317 Y123.499 E43.19415
M204 S2000
M205 X10 Y10
G0 F3000 X113.883 Y123.499
M204 S1000
M205 X8 Y8
G1 F1500 X111.997 Y121.613 E43.28286
M204 S2000
M205 X10 Y10
G0 F3000 X112.562 Y121.613
M204 S1000
M205 X8 Y8
G1 F1500 X114.448 Y123.499 E43.37157
M204 S2000
M205 X10 Y10
G0 F3000 X115.014 Y123.499
M204 S1000
M205 X8 Y8
G1 F1500 X113.128 Y121.613 E43.46028
M204 S2000
M205 X10 Y10
G0 F3000 X113.694 Y121.613
M204 S1000
M205 X8 Y8
G1 F1500 X115.58 Y123.499 E43.54899
M204 S2000
M205 X10 Y10
G0 F3000 X116.145 Y123.499
M204 S1000
M205 X8 Y8
G1 F1500 X114.259 Y121.613 E43.63771
M204 S2000
M205 X10 Y10
G0 F3000 X114.824 Y121.613
M204 S1000
M205 X8 Y8
G1 F1500 X116.711 Y123.499 E43.72644
M204 S2000
M205 X10 Y10
G0 F3000 X117.277 Y123.499
M204 S1000
M205 X8 Y8
G1 F1500 X115.39 Y121.613 E43.81518
M204 S2000
M205 X10 Y10
G0 F3000 X115.956 Y121.613
M204 S1000
M205 X8 Y8
G1 F1500 X117.842 Y123.499 E43.90389
M204 S2000
M205 X10 Y10
G0 F3000 X118.408 Y123.499
M204 S1000
M205 X8 Y8
G1 F1500 X116.522 Y121.613 E43.9926
M204 S2000
M205 X10 Y10
G0 F3000 X117.087 Y121.613
M204 S1000
M205 X8 Y8
G1 F1500 X118.974 Y123.499 E44.08133
M204 S2000
M205 X10 Y10
G0 F3000 X119.539 Y123.499
M204 S1000
M205 X8 Y8
G1 F1500 X117.652 Y121.612 E44.17009
M204 S2000
M205 X10 Y10
G0 F3000 X118.218 Y121.612
M204 S1000
M205 X8 Y8
G1 F1500 X120.105 Y123.499 E44.25885
M204 S2000
M205 X10 Y10
G0 F3000 X120.671 Y123.499
M204 S1000
M205 X8 Y8
G1 F1500 X118.784 Y121.612 E44.34761
M204 S2000
M205 X10 Y10
G0 F3000 X119.349 Y121.612
M204 S1000
M205 X8 Y8
G1 F1500 X121.236 Y123.499 E44.43637
M204 S2000
M205 X10 Y10
G0 F3000 X121.802 Y123.499
M204 S1000
M205 X8 Y8
G1 F1500 X119.914 Y121.611 E44.52517
M204 S2000
M205 X10 Y10
G0 F3000 X120.48 Y121.611
M204 S1000
M205 X8 Y8
G1 F1500 X122.368 Y123.499 E44.61398
M204 S2000
M205 X10 Y10
G0 F3000 X122.934 Y123.499
M204 S1000
M205 X8 Y8
G1 F1500 X121.046 Y121.611 E44.70279
M204 S2000
M205 X10 Y10
G0 F3000 X121.611 Y121.611
M204 S1000
M205 X8 Y8
G1 F1500 X123.499 Y123.499 E44.79159
M204 S2000
M205 X10 Y10
G0 F3000 X124.065 Y123.499
M204 S1000
M205 X8 Y8
G1 F1500 X122.177 Y121.611 E44.8804
M204 S2000
M205 X10 Y10
G0 F3000 X122.742 Y121.611
M204 S1000
M205 X8 Y8
G1 F1500 X124.631 Y123.499 E44.96923
M204 S2000
M205 X10 Y10
G0 F3000 X125.196 Y123.499
M204 S1000
M205 X8 Y8
G1 F1500 X123.308 Y121.611 E45.05803
M204 S2000
M205 X10 Y10
G0 F3000 X123.873 Y121.611
M204 S1000
M205 X8 Y8
G1 F1500 X125.762 Y123.499 E45.14686
M204 S2000
M205 X10 Y10
G0 F3000 X126.328 Y123.499
M204 S1000
M205 X8 Y8
G1 F1500 X124.439 Y121.611 E45.23569
M204 S2000
M205 X10 Y10
G0 F3000 X125.004 Y121.61
M204 S1000
M205 X8 Y8
G1 F1500 X126.893 Y123.499 E45.32454
M204 S2000
M205 X10 Y10
G0 F3000 X127.459 Y123.499
M204 S1000
M205 X8 Y8
G1 F1500 X125.57 Y121.61 E45.4134
M204 S2000
M205 X10 Y10
G0 F3000 X126.135 Y121.61
M204 S1000
M205 X8 Y8
G1 F1500 X128.025 Y123.499 E45.50227
M204 S2000
M205 X10 Y10
G0 F3000 X128.59 Y123.499
M204 S1000
