;FLAVOR:Marlin
;TIME:5205
;Filament used: 4.46961m
;Layer height: 0.2
;MINX:90.397
;MINY:63.4
;MINZ:0.2
;MAXX:131.603
;MAXY:158.6
;MAXZ:18
;Generated with Cura_SteamEngine 5.3.1
M140 S60
M105
M190 S60
M104 S200
M105
M109 S200
M82 ;absolute extrusion mode
G28 ;Home
G1 Z15.0 F1200 ;Move the platform down 15mm
;Prime the extruder
G92 E0
G1 F200 E3
G92 E0
G92 E0
G92 E0
G1 F2400 E-6
;LAYER_COUNT:90
;LAYER:0
M107
M204 S2000
M205 X10 Y10
G0 F3000 X92.382 Y76.192 Z0.2
M204 S1000
M205 X8 Y8
;TYPE:SKIRT
G1 F2400 E0
G1 X92.918 Y75.617 E0.02615
G1 X94.81 Y73.951 E0.10999
G1 X96.788 Y72.11 E0.19987
G1 X98.722 Y70.208 E0.29009
G1 X100.651 Y68.197 E0.38277
G1 X102.511 Y66.146 E0.47486
G1 X103.599 Y64.902 E0.52983
G1 X103.961 Y64.549 E0.54665
G1 X104.374 Y64.257 E0.56347
G1 X104.827 Y64.034 E0.58026
G1 X105.311 Y63.886 E0.5971
G1 X105.99 Y63.801 E0.61986
G1 X115.343 Y63.8 E0.93094
G1 X116.048 Y63.811 E0.95439
G1 X116.551 Y63.859 E0.97119
G1 X117.041 Y63.986 E0.98803
G1 X117.504 Y64.188 E1.00483
G1 X117.93 Y64.46 E1.02164
G1 X118.402 Y64.899 E1.04308
G1 X120.417 Y67.192 E1.14461
G1 X122.263 Y69.171 E1.23462
G1 X124.195 Y71.126 E1.32604
G1 X126.162 Y73.007 E1.41656
G1 X129.142 Y75.683 E1.54977
G1 X129.445 Y75.995 E1.56424
G1 X129.941 Y76.613 E1.5906
G1 X130.404 Y77.362 E1.61988
G1 X130.766 Y78.166 E1.64921
G1 X130.987 Y78.87 E1.67375
G1 X131.137 Y79.612 E1.69893
G1 X131.203 Y80.27 E1.72092
G1 X131.187 Y81.168 E1.7508
G1 X131.122 Y82.613 E1.79891
G1 X131.041 Y85.407 E1.89187
G1 X131.039 Y88.135 E1.98261
G1 X131.159 Y91.819 E2.1052
G1 X131.175 Y92.126 E2.11543
G1 X131.2 Y93.434 E2.15894
G1 X131.2 Y129.161 E3.34723
G1 X131.134 Y130.562 E3.39387
G1 X131.042 Y133.291 E3.48469
G1 X131.027 Y136.045 E3.57629
G1 X131.088 Y138.746 E3.66615
G1 X131.195 Y141.1 E3.74453
G1 X131.189 Y141.86 E3.7698
G1 X131.127 Y142.434 E3.78901
G1 X130.96 Y143.274 E3.81749
G1 X130.603 Y144.233 E3.85153
G1 X130.255 Y144.947 E3.87795
G1 X129.618 Y145.808 E3.91357
G1 X129.085 Y146.38 E3.93957
G1 X127.227 Y148.016 E4.02191
G1 X125.192 Y149.909 E4.11435
G1 X123.279 Y151.791 E4.20361
G1 X121.349 Y153.803 E4.29634
G1 X119.489 Y155.854 E4.38843
G1 X118.401 Y157.098 E4.4434
G1 X118.039 Y157.451 E4.46021
G1 X117.626 Y157.743 E4.47704
G1 X117.173 Y157.966 E4.49383
G1 X116.689 Y158.114 E4.51066
G1 X116.01 Y158.199 E4.53342
G1 X106.657 Y158.2 E4.8445
G1 X105.953 Y158.189 E4.86792
G1 X105.45 Y158.141 E4.88473
G1 X104.96 Y158.014 E4.90156
G1 X104.497 Y157.812 E4.91837
G1 X104.071 Y157.54 E4.93518
G1 X103.6 Y157.102 E4.95657
G1 X101.586 Y154.811 E5.05803
G1 X99.736 Y152.828 E5.14823
G1 X97.805 Y150.874 E5.2396
G1 X95.837 Y148.991 E5.33019
G1 X92.855 Y146.314 E5.46347
G1 X92.55 Y146 E5.47803
G1 X92.058 Y145.386 E5.5042
G1 X91.597 Y144.64 E5.53337
G1 X91.298 Y144.025 E5.55611
G1 X91.002 Y143.135 E5.58731
G1 X90.864 Y142.389 E5.61254
G1 X90.797 Y141.731 E5.63454
G1 X90.813 Y140.831 E5.66448
G1 X90.878 Y139.372 E5.71305
G1 X90.959 Y136.593 E5.80552
G1 X90.961 Y133.865 E5.89626
G1 X90.841 Y130.181 E6.01885
G1 X90.825 Y129.874 E6.02908
G1 X90.8 Y128.566 E6.07259
G1 X90.8 Y92.839 E7.26087
G1 X90.866 Y91.438 E7.30752
G1 X90.958 Y88.709 E7.39834
G1 X90.973 Y85.955 E7.48994
G1 X90.912 Y83.254 E7.5798
G1 X90.805 Y80.9 E7.65817
G1 X90.811 Y80.138 E7.68352
G1 X90.874 Y79.559 E7.70289
G1 X90.994 Y78.961 E7.72318
G1 X91.293 Y77.974 E7.75748
G1 X91.754 Y77.041 E7.79209
G1 X92.382 Y76.192 E7.82721
M204 S2000
M205 X10 Y10
G0 F3000 X92.089 Y75.919
M204 S1000
M205 X8 Y8
G1 F2400 X92.625 Y75.344 E7.85336
G1 X94.537 Y73.658 E7.93815
G1 X96.516 Y71.818 E8.02802
G1 X98.433 Y69.931 E8.11749
G1 X100.362 Y67.92 E8.21017
G1 X102.215 Y65.877 E8.30191
G1 X103.32 Y64.616 E8.35767
G1 X103.73 Y64.222 E8.37659
G1 X104.143 Y63.93 E8.39341
G1 X104.65 Y63.675 E8.41229
G1 X105.223 Y63.494 E8.43227
G1 X105.94 Y63.404 E8.45631
G1 X115.349 Y63.4 E8.76925
G1 X116.054 Y63.411 E8.7927
G1 X116.651 Y63.472 E8.81266
G1 X117.201 Y63.619 E8.8316
G1 X117.664 Y63.821 E8.8484
G1 X118.175 Y64.142 E8.86847
G1 X118.674 Y64.606 E8.89113
G1 X120.71 Y66.919 E8.99362
G1 X122.556 Y68.898 E9.08363
G1 X124.48 Y70.845 E9.17468
G1 X126.429 Y72.709 E9.26437
G1 X129.429 Y75.404 E9.3985
G1 X129.732 Y75.716 E9.41297
G1 X130.253 Y76.363 E9.4406
G1 X130.769 Y77.198 E9.47325
G1 X131.148 Y78.046 E9.50414
G1 X131.369 Y78.75 E9.52868
G1 X131.535 Y79.572 E9.55657
G1 X131.603 Y80.277 E9.58013
G1 X131.587 Y81.186 E9.61037
G1 X131.522 Y82.631 E9.65848
G1 X131.441 Y85.419 E9.75125
G1 X131.439 Y88.135 E9.84158
G1 X131.558 Y91.806 E9.96374
G1 X131.575 Y92.118 E9.97413
G1 X131.6 Y93.426 E10.01765
G1 X131.6 Y129.18 E11.20683
G1 X131.534 Y130.581 E11.25348
G1 X131.442 Y133.304 E11.3441
G1 X131.427 Y136.047 E11.43533
G1 X131.488 Y138.728 E11.52453
G1 X131.595 Y141.103 E11.6036
G1 X131.587 Y141.903 E11.63021
G1 X131.525 Y142.477 E11.64941
G1 X131.335 Y143.414 E11.68121
G1 X130.963 Y144.408 E11.71651
G1 X130.598 Y145.156 E11.74419
G1 X129.911 Y146.081 E11.78251
G1 X129.378 Y146.653 E11.80852
G1 X127.491 Y148.316 E11.89218
G1 X125.473 Y150.194 E11.98386
G1 X123.56 Y152.076 E12.07312
G1 X121.638 Y154.08 E12.16547
G1 X119.785 Y156.123 E12.25721
G1 X118.68 Y157.384 E12.31297
G1 X118.27 Y157.778 E12.33189
G1 X117.857 Y158.07 E12.34871
G1 X117.35 Y158.325 E12.36759
G1 X116.777 Y158.506 E12.38757
G1 X116.06 Y158.596 E12.41161
G1 X106.651 Y158.6 E12.72455
G1 X105.947 Y158.589 E12.74797
G1 X105.35 Y158.528 E12.76793
G1 X104.8 Y158.381 E12.78686
G1 X104.337 Y158.179 E12.80366
G1 X103.826 Y157.858 E12.82374
G1 X103.328 Y157.395 E12.84635
G1 X101.286 Y155.075 E12.94915
G1 X99.451 Y153.109 E13.03859
G1 X97.52 Y151.155 E13.12997
G1 X95.56 Y149.28 E13.22018
G1 X92.568 Y146.593 E13.35393
G1 X92.263 Y146.279 E13.36849
G1 X91.746 Y145.636 E13.39594
G1 X91.237 Y144.815 E13.42806
G1 X90.918 Y144.151 E13.45257
G1 X90.622 Y143.261 E13.48376
G1 X90.466 Y142.43 E13.51188
G1 X90.397 Y141.724 E13.53548
G1 X90.413 Y140.813 E13.56578
G1 X90.478 Y139.354 E13.61436
G1 X90.559 Y136.581 E13.70663
G1 X90.561 Y133.865 E13.79696
G1 X90.442 Y130.194 E13.91912
G1 X90.425 Y129.882 E13.92952
G1 X90.4 Y128.574 E13.97303
G1 X90.4 Y92.82 E15.16221
G1 X90.466 Y91.419 E15.20886
G1 X90.558 Y88.696 E15.29948
G1 X90.573 Y85.953 E15.39071
G1 X90.512 Y83.263 E15.48021
G1 X90.405 Y80.897 E15.55898
G1 X90.413 Y80.095 E15.58566
G1 X90.476 Y79.516 E15.60503
G1 X90.611 Y78.845 E15.62779
G1 X90.934 Y77.797 E15.66427
G1 X91.412 Y76.831 E15.70011
G1 X92.089 Y75.919 E15.73789
M204 S2000
M205 X10 Y10
G1 F2400 E9.73789
;MESH:Claw_servo_Place v2.stl
G0 F3000 X105.335 Y75.919
G0 X106.42 Y75.919
G0 X111.322 Y74.376
G0 X111.182 Y73.691
M204 S1000
M205 X8 Y8
;TYPE:WALL-OUTER
G1 F2400 E15.73789
G1 F1500 X110.82 Y73.691 E15.74993
G1 X110.473 Y73.616 E15.76174
G1 X110.195 Y73.498 E15.77178
G1 X109.878 Y73.275 E15.78467
G1 X109.643 Y73.026 E15.79606
G1 X109.481 Y72.767 E15.80622
G1 X109.35 Y72.413 E15.81878
G1 X109.302 Y72.065 E15.83046
G1 X109.323 Y71.721 E15.84192
G1 X109.413 Y71.391 E15.8533
G1 X109.57 Y71.082 E15.86483
G1 X109.753 Y70.845 E15.87479
G1 X110.01 Y70.618 E15.88619
G1 X110.349 Y70.429 E15.8991
G1 X110.662 Y70.334 E15.90998
G1 X111.021 Y70.302 E15.92197
G1 X111.363 Y70.34 E15.93341
G1 X111.651 Y70.429 E15.94344
G1 X111.99 Y70.618 E15.95635
G1 X112.247 Y70.845 E15.96775
G1 X112.43 Y71.082 E15.97771
G1 X112.587 Y71.391 E15.98924
G1 X112.677 Y71.721 E16.00062
G1 X112.698 Y72.075 E16.01241
G1 X112.65 Y72.413 E16.02377
G1 X112.519 Y72.767 E16.03632
G1 X112.331 Y73.059 E16.04787
G1 X112.094 Y73.299 E16.05909
G1 X111.805 Y73.498 E16.07076
G1 X111.527 Y73.616 E16.08081
G1 X111.182 Y73.691 E16.09255
M204 S2000
M205 X10 Y10
G0 F3000 X110.982 Y73.691
G0 X110.982 Y74.392
G0 X115.172 Y77.828
G0 X115.882 Y77.163
M204 S1000
M205 X8 Y8
G1 F1500 X115.801 Y77.025 E16.09787
G1 X115.8 Y67.2 E16.42465
G1 X106.2 Y67.2 E16.74395
G1 X106.198 Y77.034 E17.07103
G1 X106.155 Y77.128 E17.07447
G1 X106.017 Y77.2 E17.07964
G1 X97.51 Y77.2 E17.36259
G1 X97.066 Y77.23 E17.37739
G1 X96.651 Y77.312 E17.39146
G1 X96.231 Y77.455 E17.40622
G1 X95.848 Y77.644 E17.42042
G1 X95.497 Y77.879 E17.43447
G1 X95.163 Y78.171 E17.44923
G1 X94.879 Y78.496 E17.46358
G1 X94.645 Y78.846 E17.47758
G1 X94.455 Y79.231 E17.49186
G1 X94.312 Y79.651 E17.50662
G1 X94.2 Y80.213 E17.52568
G1 X94.2 Y80.827 E17.5461
G1 X102.701 Y80.829 E17.82885
G1 X103.383 Y80.909 E17.85169
G1 X103.998 Y81.118 E17.87329
G1 X104.61 Y81.488 E17.89708
G1 X104.876 Y81.716 E17.90873
G1 X105.326 Y82.259 E17.93218
G1 X105.774 Y83.035 E17.96199
G1 X106.104 Y83.503 E17.98103
G1 X106.464 Y83.928 E17.99956
G1 X106.874 Y84.33 E18.01866
G1 X107.31 Y84.687 E18.0374
G1 X107.773 Y85 E18.05599
G1 X108.268 Y85.271 E18.07476
G1 X108.785 Y85.496 E18.09351
G1 X109.328 Y85.676 E18.11254
G1 X109.872 Y85.801 E18.1311
G1 X110.44 Y85.88 E18.15017
G1 X111 Y85.905 E18.16882
G1 X111.56 Y85.88 E18.18746
G1 X112.128 Y85.802 E18.20653
G1 X112.672 Y85.676 E18.2251
G1 X113.215 Y85.496 E18.24413
G1 X113.732 Y85.271 E18.26288
G1 X114.227 Y84.999 E18.28167
G1 X114.69 Y84.687 E18.30024
G1 X115.126 Y84.33 E18.31898
G1 X115.536 Y83.928 E18.33808
G1 X115.896 Y83.503 E18.35661
G1 X116.226 Y83.035 E18.37565
G1 X116.674 Y82.259 E18.40545
G1 X117.124 Y81.716 E18.42891
G1 X117.39 Y81.488 E18.44056
G1 X118.002 Y81.118 E18.46435
G1 X118.647 Y80.901 E18.48698
G1 X119.297 Y80.828 E18.50874
G1 X127.8 Y80.827 E18.79155
G1 X127.8 Y80.214 E18.81194
G1 X127.69 Y79.66 E18.83072
G1 X127.548 Y79.24 E18.84547
G1 X127.355 Y78.846 E18.86006
G1 X127.126 Y78.503 E18.87378
G1 X126.833 Y78.167 E18.88861
G1 X126.504 Y77.878 E18.90317
G1 X126.152 Y77.644 E18.91723
G1 X125.769 Y77.455 E18.93143
G1 X125.349 Y77.312 E18.94619
G1 X124.934 Y77.23 E18.96026
G1 X124.499 Y77.201 E18.97476
G1 X115.983 Y77.2 E19.258
G1 X115.882 Y77.163 E19.26158
M204 S2000
M205 X10 Y10
G0 F3000 X115.801 Y77.025
G0 X115.801 Y76.985
G0 X115.1 Y76.985
G0 X113.153 Y82.885
G0 X112.614 Y83.66
G0 X111.453 Y84.316
G0 X111.279 Y83.638
M204 S1000
M205 X8 Y8
G1 F1500 X110.915 Y83.659 E19.27371
G1 X110.553 Y83.601 E19.2859
G1 X110.241 Y83.485 E19.29697
G1 X109.964 Y83.311 E19.30785
G1 X109.725 Y83.083 E19.31884
G1 X109.523 Y82.803 E19.33032
G1 X109.383 Y82.483 E19.34194
G1 X109.31 Y82.144 E19.35347
G1 X109.312 Y81.766 E19.36605
G1 X109.378 Y81.451 E19.37675
G1 X109.515 Y81.131 E19.38833
G1 X109.725 Y80.839 E19.40029
G1 X109.974 Y80.604 E19.41168
G1 X110.253 Y80.431 E19.4226
G1 X110.577 Y80.313 E19.43407
G1 X110.905 Y80.263 E19.4451
G1 X111.252 Y80.279 E19.45666
G1 X111.609 Y80.374 E19.46894
G1 X111.918 Y80.531 E19.48047
G1 X112.17 Y80.727 E19.49109
G1 X112.394 Y80.987 E19.5025
G1 X112.556 Y81.275 E19.51349
G1 X112.66 Y81.598 E19.52478
G1 X112.699 Y81.94 E19.53623
G1 X112.66 Y82.324 E19.54907
G1 X112.568 Y82.619 E19.55934
G1 X112.389 Y82.943 E19.57166
G1 X112.155 Y83.208 E19.58341
G1 X111.918 Y83.391 E19.59337
G1 X111.609 Y83.548 E19.6049
G1 X111.279 Y83.638 E19.61628
M204 S2000
M205 X10 Y10
G0 F3000 X111.079 Y83.649
G0 X111.332 Y84.035
M204 S1000
M205 X8 Y8
;TYPE:WALL-INNER
G1 F1500 X110.897 Y84.059 E19.63077
G1 X110.416 Y83.977 E19.647
G1 X110.044 Y83.832 E19.66028
G1 X109.762 Y83.658 E19.6713
G1 X109.447 Y83.371 E19.68547
G1 X109.133 Y82.921 E19.70372
G1 X108.98 Y82.527 E19.71778
G1 X108.914 Y82.202 E19.72881
G1 X108.92 Y81.685 E19.74601
G1 X108.998 Y81.327 E19.75819
G1 X109.144 Y80.977 E19.77081
G1 X109.374 Y80.636 E19.78449
G1 X109.712 Y80.3 E19.80034
G1 X110.079 Y80.071 E19.81473
G1 X110.464 Y79.929 E19.82837
G1 X110.872 Y79.865 E19.84211
G1 X111.338 Y79.887 E19.85763
G1 X111.727 Y79.99 E19.87101
G1 X112.112 Y80.18 E19.88529
G1 X112.424 Y80.417 E19.89832
G1 X112.722 Y80.759 E19.91341
G1 X112.908 Y81.085 E19.92589
G1 X113.056 Y81.534 E19.94162
G1 X113.099 Y81.973 E19.95629
G1 X113.042 Y82.442 E19.972
G1 X112.945 Y82.752 E19.9828
G1 X112.705 Y83.189 E19.99939
G1 X112.473 Y83.457 E20.01118
G1 X112.062 Y83.77 E20.02836
G1 X111.697 Y83.942 E20.04178
G1 X111.332 Y84.035 E20.05431
M204 S2000
M205 X10 Y10
G0 F3000 X110.879 Y84.459
M204 S1000
M205 X8 Y8
G1 F1500 X110.278 Y84.353 E20.07461
G1 X109.846 Y84.18 E20.09008
G1 X109.496 Y83.96 E20.10383
G1 X109.168 Y83.658 E20.11866
G1 X108.807 Y83.163 E20.13904
G1 X108.646 Y82.794 E20.15243
G1 X108.518 Y82.259 E20.17073
G1 X108.508 Y81.807 E20.18576
G1 X108.618 Y81.203 E20.20618
G1 X108.83 Y80.718 E20.22379
G1 X109.109 Y80.328 E20.23974
G1 X109.466 Y79.985 E20.2562
G1 X109.905 Y79.711 E20.27341
G1 X110.358 Y79.543 E20.28948
G1 X110.838 Y79.466 E20.30565
G1 X111.411 Y79.494 E20.32473
G1 X111.864 Y79.614 E20.34032
G1 X112.323 Y79.84 E20.35734
G1 X112.685 Y80.114 E20.37244
G1 X113.051 Y80.531 E20.39089
G1 X113.26 Y80.895 E20.40485
G1 X113.447 Y81.452 E20.42439
G1 X113.499 Y81.981 E20.44207
G1 X113.432 Y82.533 E20.46057
G1 X113.322 Y82.885 E20.47283
G1 X113.022 Y83.434 E20.49364
G1 X112.767 Y83.728 E20.50659
G1 X112.407 Y84.025 E20.52211
G1 X111.815 Y84.324 E20.54417
G1 X111.401 Y84.429 E20.55837
G1 X110.879 Y84.459 E20.57576
M204 S2000
M205 X10 Y10
G0 F3000 X111.814 Y84.159
G0 X112.614 Y83.66
G0 X115.801 Y77.9
G0 X115.801 Y77.567
M204 S1000
M205 X8 Y8
G1 F1500 X115.516 Y77.356 E20.58756
G1 X115.4 Y77.104 E20.59678
G1 X115.4 Y67.6 E20.91289
G1 X106.6 Y67.6 E21.20558
G1 X106.599 Y77.047 E21.51979
G1 X106.501 Y77.332 E21.52981
G1 X106.332 Y77.501 E21.53776
G1 X106.05 Y77.598 E21.54768
G1 X97.523 Y77.6 E21.83129
G1 X96.755 Y77.699 E21.85704
G1 X96.048 Y77.991 E21.88248
G1 X95.447 Y78.454 E21.90772
G1 X94.992 Y79.046 E21.93255
G1 X94.699 Y79.755 E21.95807
G1 X94.6 Y80.253 E21.97495
G1 X94.6 Y80.427 E21.98074
G1 X102.745 Y80.431 E22.25165
G1 X103.45 Y80.509 E22.27524
G1 X104.188 Y80.76 E22.30116
G1 X104.845 Y81.164 E22.32682
G1 X105.185 Y81.46 E22.34181
G1 X105.653 Y82.029 E22.36631
G1 X106.112 Y82.819 E22.3967
G1 X106.421 Y83.258 E22.41456
G1 X106.757 Y83.656 E22.43188
G1 X107.141 Y84.032 E22.44976
G1 X107.549 Y84.366 E22.4673
G1 X107.981 Y84.658 E22.48464
G1 X108.444 Y84.911 E22.50219
G1 X108.928 Y85.122 E22.51975
G1 X109.436 Y85.291 E22.53755
G1 X109.945 Y85.407 E22.55492
G1 X110.476 Y85.481 E22.57275
G1 X111 Y85.505 E22.5902
G1 X111.524 Y85.481 E22.60764
G1 X112.056 Y85.408 E22.6255
G1 X112.564 Y85.29 E22.64285
G1 X113.072 Y85.123 E22.66063
G1 X113.556 Y84.911 E22.67821
G1 X114.019 Y84.657 E22.69577
G1 X114.45 Y84.366 E22.71307
G1 X114.858 Y84.032 E22.73061
G1 X115.242 Y83.655 E22.74851
G1 X115.579 Y83.258 E22.76583
G1 X115.888 Y82.819 E22.78368
G1 X116.356 Y82.011 E22.81474
G1 X116.842 Y81.432 E22.83988
G1 X117.148 Y81.166 E22.85337
G1 X117.813 Y80.759 E22.8793
G1 X118.546 Y80.511 E22.90503
G1 X119.252 Y80.43 E22.92867
G1 X127.4 Y80.427 E23.19967
G1 X127.4 Y80.253 E23.20546
G1 X127.303 Y79.763 E23.22208
G1 X127.178 Y79.393 E23.23506
G1 X126.808 Y78.747 E23.25983
G1 X126.549 Y78.45 E23.27293
G1 X126.26 Y78.196 E23.28573
G1 X125.615 Y77.825 E23.31048
G1 X125.245 Y77.699 E23.32348
G1 X124.485 Y77.601 E23.34896
G1 X115.95 Y77.599 E23.63284
G1 X115.801 Y77.567 E23.63791
M204 S2000
M205 X10 Y10
G0 F3000 X115.587 Y77.912
M204 S1000
M205 X8 Y8
G1 F1500 X115.257 Y77.671 E23.6515
G1 X115.135 Y77.504 E23.65838
G1 X115.026 Y77.228 E23.66825
G1 X115 Y77.026 E23.67502
G1 X115 Y68 E23.97523
G1 X107 Y68 E24.24131
G1 X106.998 Y77.078 E24.54325
G1 X106.931 Y77.368 E24.55314
G1 X106.835 Y77.552 E24.56005
G1 X106.553 Y77.834 E24.57331
G1 X106.331 Y77.945 E24.58157
G1 X106.084 Y77.997 E24.58996
G1 X97.263 Y78 E24.88335
G1 X96.538 Y78.195 E24.90832
G1 X96.248 Y78.338 E24.91907
G1 X95.731 Y78.738 E24.94082
G1 X95.339 Y79.247 E24.96218
G1 X95.196 Y79.538 E24.97297
G1 X95.053 Y80.027 E24.98991
G1 X102.789 Y80.033 E25.24721
G1 X103.537 Y80.116 E25.27225
G1 X104.359 Y80.395 E25.30112
G1 X105.09 Y80.842 E25.32962
G1 X105.484 Y81.195 E25.34721
G1 X105.968 Y81.775 E25.37234
G1 X106.449 Y82.603 E25.40418
G1 X106.884 Y83.221 E25.42932
G1 X107.408 Y83.734 E25.45371
G1 X108.19 Y84.316 E25.48613
G1 X109.071 Y84.748 E25.51877
G1 X109.544 Y84.905 E25.53534
G1 X110.513 Y85.082 E25.56811
G1 X111.488 Y85.083 E25.60054
G1 X111.999 Y85.011 E25.6177
G1 X112.929 Y84.748 E25.64984
G1 X113.81 Y84.315 E25.68249
G1 X114.591 Y83.734 E25.71487
G1 X115.123 Y83.213 E25.73964
