;FLAVOR:Marlin
;TIME:2824
;Filament used: 2.2032m
;Layer height: 0.2
;MINX:75.14
;MINY:94.4
;MINZ:0.2
;MAXX:148.259
;MAXY:127.6
;MAXZ:7
;Generated with Cura_SteamEngine 5.3.1
M140 S60
M105
M190 S60
M104 S200
M105
M109 S200
M82 ;absolute extrusion mode
G28 ;Home
G1 Z15.0 F1200 ;Move the platform down 15mm
;Prime the extruder
G92 E0
G1 F200 E3
G92 E0
G92 E0
G92 E0
G1 F2400 E-6
;LAYER_COUNT:35
;LAYER:0
M107
M204 S2000
M205 X10 Y10
G0 F3000 X76.919 Y95.384 Z0.2
M204 S1000
M205 X8 Y8
;TYPE:SKIRT
G1 F2400 E0
G1 X77.355 Y95.128 E0.01682
G1 X77.826 Y94.945 E0.03362
G1 X78.32 Y94.838 E0.05043
G1 X78.768 Y94.801 E0.06539
G1 X135.391 Y94.8 E1.94867
G1 X136.092 Y94.81 E1.97199
G1 X136.714 Y94.88 E1.99281
G1 X137.525 Y95.053 E2.02039
G1 X138.652 Y95.313 E2.05886
G1 X139.626 Y95.514 E2.09194
G1 X140.294 Y95.748 E2.11548
G1 X142.676 Y96.856 E2.20286
G1 X143.63 Y97.289 E2.2377
G1 X144.236 Y97.649 E2.26115
G1 X146.332 Y99.232 E2.34851
G1 X146.71 Y99.568 E2.36533
G1 X147.03 Y99.959 E2.38213
G1 X147.354 Y100.514 E2.40351
G1 X147.671 Y101.489 E2.43761
G1 X147.789 Y101.98 E2.4544
G1 X147.821 Y102.683 E2.47781
G1 X147.692 Y104.589 E2.54135
G1 X147.556 Y107.338 E2.63289
G1 X147.498 Y110.045 E2.72295
G1 X147.519 Y112.808 E2.81485
G1 X147.615 Y115.523 E2.90521
G1 X147.793 Y118.317 E2.99832
G1 X147.859 Y119.183 E3.02721
G1 X147.857 Y119.688 E3.04401
G1 X147.743 Y120.335 E3.06586
G1 X147.472 Y121.22 E3.09664
G1 X147.244 Y121.915 E3.12097
G1 X147.049 Y122.382 E3.1378
G1 X146.782 Y122.812 E3.15464
G1 X146.452 Y123.194 E3.17143
G1 X146.031 Y123.565 E3.19009
G1 X145.278 Y124.097 E3.22076
G1 X144.687 Y124.427 E3.24327
G1 X142.199 Y125.49 E3.33326
G1 X140.718 Y126.153 E3.38723
G1 X139.681 Y126.58 E3.42453
G1 X139.213 Y126.759 E3.44119
G1 X138.647 Y126.926 E3.46082
G1 X136.345 Y127.176 E3.53783
G1 X135.102 Y127.2 E3.57918
G1 X79.401 Y127.2 E5.43181
G1 X78.703 Y127.19 E5.45502
G1 X78.2 Y127.143 E5.47183
G1 X77.71 Y127.017 E5.48865
G1 X77.246 Y126.815 E5.50549
G1 X76.82 Y126.543 E5.5223
G1 X76.442 Y126.208 E5.5391
G1 X76.122 Y125.817 E5.5559
G1 X75.867 Y125.38 E5.57273
G1 X75.684 Y124.909 E5.58954
G1 X75.577 Y124.415 E5.60635
G1 X75.541 Y123.962 E5.62146
G1 X75.54 Y98.656 E6.46314
G1 X75.549 Y97.967 E6.48606
G1 X75.596 Y97.464 E6.50286
G1 X75.721 Y96.974 E6.51968
G1 X75.922 Y96.51 E6.5365
G1 X76.193 Y96.083 E6.55332
G1 X76.528 Y95.705 E6.57012
G1 X76.919 Y95.384 E6.58695
M204 S2000
M205 X10 Y10
G0 F3000 X76.716 Y95.039
M204 S1000
M205 X8 Y8
G1 F2400 X77.21 Y94.755 E6.6059
G1 X77.741 Y94.554 E6.62478
G1 X78.287 Y94.439 E6.64334
G1 X78.735 Y94.402 E6.65829
G1 X135.397 Y94.4 E8.54288
G1 X136.098 Y94.41 E8.5662
G1 X136.797 Y94.489 E8.58959
G1 X137.615 Y94.663 E8.61741
G1 X138.733 Y94.921 E8.65557
G1 X139.758 Y95.136 E8.6904
G1 X140.463 Y95.385 E8.71527
G1 X142.845 Y96.494 E8.80266
G1 X143.834 Y96.945 E8.83882
G1 X144.477 Y97.33 E8.86374
G1 X146.598 Y98.933 E8.95217
G1 X146.976 Y99.269 E8.96899
G1 X147.34 Y99.706 E8.98791
G1 X147.72 Y100.348 E9.01272
G1 X148.06 Y101.396 E9.04937
G1 X148.187 Y101.926 E9.06749
G1 X148.221 Y102.665 E9.0921
G1 X148.092 Y104.609 E9.1569
G1 X147.956 Y107.358 E9.24844
G1 X147.898 Y110.054 E9.33813
G1 X147.919 Y112.794 E9.42927
G1 X148.015 Y115.509 E9.51962
G1 X148.192 Y118.287 E9.61221
G1 X148.259 Y119.185 E9.64216
G1 X148.257 Y119.724 E9.66009
G1 X148.137 Y120.404 E9.68305
G1 X147.852 Y121.345 E9.71576
G1 X147.624 Y122.04 E9.74008
G1 X147.389 Y122.593 E9.76007
G1 X147.122 Y123.023 E9.7769
G1 X146.755 Y123.455 E9.79576
G1 X146.262 Y123.892 E9.81767
G1 X145.509 Y124.424 E9.84833
G1 X144.844 Y124.795 E9.87366
G1 X142.356 Y125.858 E9.96365
G1 X140.881 Y126.518 E10.01739
G1 X139.824 Y126.954 E10.05542
G1 X139.326 Y127.143 E10.07314
G1 X138.726 Y127.32 E10.09395
G1 X136.388 Y127.574 E10.17216
G1 X135.11 Y127.6 E10.21468
G1 X79.395 Y127.6 E12.06777
G1 X78.697 Y127.59 E12.09099
G1 X78.1 Y127.53 E12.11094
G1 X77.55 Y127.384 E12.12987
G1 X77.086 Y127.182 E12.1467
G1 X76.605 Y126.88 E12.16559
G1 X76.132 Y126.461 E12.18661
G1 X75.812 Y126.07 E12.20341
G1 X75.494 Y125.525 E12.2244
G1 X75.293 Y124.994 E12.24328
G1 X75.178 Y124.447 E12.26187
G1 X75.142 Y123.994 E12.27699
G1 X75.14 Y98.651 E13.1199
G1 X75.149 Y97.962 E13.14282
G1 X75.208 Y97.365 E13.16277
G1 X75.333 Y96.875 E13.17959
G1 X75.555 Y96.351 E13.19852
G1 X75.855 Y95.869 E13.2174
G1 X76.274 Y95.396 E13.23842
G1 X76.716 Y95.039 E13.25732
M204 S2000
M205 X10 Y10
G1 F2400 E7.25732
G0 F3000 X136.168 Y97.336
G0 X136.983 Y97.641
G0 X137.92 Y99.741
M204 S1000
M205 X8 Y8
G1 F2400 E13.25732
G1 X138.585 Y98.955 E13.29156
G1 X138.909 Y98.855 E13.30284
G1 X139.472 Y99.237 E13.32547
G1 X140.417 Y100.064 E13.36723
G1 X140.694 Y100.803 E13.39348
G1 X140.772 Y100.901 E13.39765
G1 X140.893 Y100.933 E13.40181
G1 X141.019 Y100.878 E13.40638
G1 X141.542 Y100.379 E13.43043
G1 X142.223 Y100.392 E13.45308
G1 X143.245 Y101.475 E13.50261
G1 X143.311 Y101.522 E13.5053
G1 X144.25 Y101.928 E13.53933
G1 X144.429 Y102.479 E13.5586
G1 X144.242 Y103.054 E13.57871
G1 X143.75 Y103.412 E13.59895
G1 X143.088 Y103.412 E13.62096
G1 X142.969 Y103.451 E13.62513
G1 X142.911 Y103.52 E13.62813
G1 X142.707 Y103.912 E13.64283
G1 X141.629 Y104.594 E13.68525
G1 X141.55 Y104.69 E13.68939
G1 X141.546 Y104.825 E13.69388
G1 X141.703 Y105.308 E13.71077
G1 X141.38 Y105.96 E13.73497
G1 X141.362 Y106.084 E13.73914
G1 X141.441 Y106.211 E13.74411
G1 X142.219 Y106.778 E13.77613
G1 X142.306 Y108.404 E13.83029
G1 X142.102 Y109.03 E13.85219
G1 X142.092 Y109.097 E13.85444
G1 X142.125 Y110.539 E13.90242
G1 X142.06 Y111.584 E13.93724
G1 X142.07 Y111.658 E13.93973
G1 X142.255 Y112.227 E13.95963
G1 X142.003 Y113.429 E14.00047
G1 X142.009 Y113.532 E14.0039
G1 X142.158 Y113.989 E14.01989
G1 X141.921 Y114.717 E14.04536
G1 X141.298 Y115.171 E14.071
G1 X140.532 Y115.171 E14.09647
G1 X139.909 Y114.717 E14.12211
G1 X139.575 Y113.69 E14.15803
G1 X139.893 Y111.933 E14.21742
G1 X139.886 Y111.835 E14.22069
G1 X139.717 Y111.316 E14.23884
G1 X139.895 Y110.393 E14.27011
G1 X139.894 Y110.311 E14.27283
G1 X139.675 Y109.349 E14.30565
G1 X139.962 Y108.077 E14.34902
G1 X139.957 Y107.971 E14.35255
G1 X139.754 Y107.349 E14.37431
G1 X139.992 Y106.62 E14.39982
G1 X140.44 Y106.293 E14.41826
G1 X140.513 Y106.191 E14.42244
G1 X140.511 Y106.066 E14.42659
G1 X140.481 Y106.01 E14.42871
G1 X140.114 Y105.526 E14.44891
G1 X140.012 Y105.455 E14.45304
G1 X139.837 Y105.485 E14.45895
G1 X139.541 Y105.701 E14.47114
G1 X139.468 Y105.803 E14.47531
G1 X139.459 Y105.871 E14.47759
G1 X139.489 Y106.571 E14.50089
G1 X138.724 Y107.169 E14.53319
G1 X138.654 Y107.273 E14.53736
G1 X138.659 Y107.394 E14.54139
G1 X138.797 Y107.781 E14.55505
G1 X138.181 Y108.51 E14.58679
G1 X137.814 Y108.501 E14.599
G1 X138.21 Y107.667 E14.62971
G1 X138.217 Y107.514 E14.63481
G1 X138.074 Y107.114 E14.64893
G1 X138.432 Y106.593 E14.66996
G1 X138.464 Y106.444 E14.67503
G1 X138.297 Y105.538 E14.70567
G1 X138.237 Y105.428 E14.70984
G1 X138.168 Y105.386 E14.71252
G1 X137.917 Y105.295 E14.7214
G1 X137.913 Y105.103 E14.72779
G1 X138.618 Y104.27 E14.76409
G1 X138.665 Y104.155 E14.76822
G1 X138.65 Y104.065 E14.77125
G1 X138.266 Y103.129 E14.8049
G1 X138.127 Y103.01 E14.81099
G1 X137.824 Y102.938 E14.82135
G1 X137.893 Y102.066 E14.85044
G1 X138.835 Y101.154 E14.89405
G1 X138.893 Y101.043 E14.89822
G1 X138.871 Y100.913 E14.9026
G1 X138.406 Y100.078 E14.93439
G1 X138.27 Y99.979 E14.93998
G1 X137.923 Y99.91 E14.95175
G1 X137.92 Y99.741 E14.95737
M204 S2000
M205 X10 Y10
G0 F3000 X138.509 Y99.663
M204 S1000
M205 X8 Y8
G1 F2400 X138.813 Y99.304 E14.97302
G1 X138.844 Y99.294 E14.9741
G1 X139.227 Y99.554 E14.9895
G1 X140.076 Y100.298 E15.02705
G1 X140.319 Y100.944 E15.05
G1 X140.432 Y101.131 E15.05727
G1 X140.604 Y101.265 E15.06452
G1 X140.812 Y101.329 E15.07176
G1 X141.03 Y101.314 E15.07903
G1 X141.295 Y101.167 E15.08911
G1 X141.698 Y100.782 E15.10764
G1 X142.047 Y100.789 E15.11925
G1 X142.954 Y101.75 E15.1632
G1 X143.152 Y101.889 E15.17125
G1 X143.925 Y102.223 E15.19926
G1 X144.008 Y102.479 E15.20821
G1 X143.901 Y102.808 E15.21972
G1 X143.621 Y103.012 E15.23124
G1 X143.088 Y103.012 E15.24897
G1 X142.873 Y103.052 E15.25624
G1 X142.687 Y103.165 E15.26348
G1 X142.556 Y103.335 E15.27062
G1 X142.402 Y103.632 E15.28174
G1 X141.415 Y104.256 E15.32058
G1 X141.255 Y104.404 E15.32783
G1 X141.159 Y104.6 E15.33509
G1 X141.138 Y104.817 E15.34234
G1 X141.165 Y104.948 E15.34679
G1 X141.272 Y105.277 E15.3583
G1 X141.021 Y105.783 E15.37708
G1 X140.962 Y105.993 E15.38434
G1 X140.981 Y106.21 E15.39158
G1 X141.077 Y106.406 E15.39884
G1 X141.206 Y106.534 E15.40489
G1 X141.83 Y106.989 E15.43057
G1 X141.903 Y108.35 E15.4759
G1 X141.722 Y108.906 E15.49535
G1 X141.692 Y109.106 E15.50208
G1 X141.724 Y110.539 E15.54975
G1 X141.661 Y111.559 E15.58374
G1 X141.689 Y111.782 E15.59122
G1 X141.842 Y112.252 E15.60766
G1 X141.612 Y113.347 E15.64487
G1 X141.628 Y113.656 E15.65516
G1 X141.737 Y113.99 E15.66685
G1 X141.58 Y114.471 E15.68368
G1 X141.169 Y114.771 E15.7006
G1 X140.661 Y114.771 E15.7175
G1 X140.25 Y114.471 E15.73442
G1 X139.986 Y113.661 E15.76276
G1 X140.286 Y112.004 E15.81877
G1 X140.267 Y111.711 E15.82853
G1 X140.13 Y111.289 E15.84329
G1 X140.288 Y110.469 E15.87106
G1 X140.284 Y110.222 E15.87928
G1 X140.085 Y109.348 E15.90909
G1 X140.352 Y108.165 E15.94943
G1 X140.337 Y107.847 E15.96002
G1 X140.175 Y107.349 E15.97744
G1 X140.332 Y106.867 E15.9943
G1 X140.676 Y106.616 E16.00846
G1 X140.826 Y106.457 E16.01573
G1 X140.909 Y106.255 E16.02299
G1 X140.915 Y106.037 E16.03025
G1 X140.8 Y105.768 E16.03998
G1 X140.433 Y105.284 E16.06018
G1 X140.272 Y105.137 E16.06743
G1 X140.069 Y105.058 E16.07468
G1 X139.851 Y105.056 E16.08193
G1 X139.601 Y105.162 E16.09096
G1 X139.305 Y105.378 E16.10315
G1 X139.155 Y105.537 E16.11042
G1 X139.072 Y105.738 E16.11765
G1 X139.06 Y105.888 E16.12265
G1 X139.081 Y106.381 E16.13907
G1 X138.852 Y106.561 E16.14875
G1 X138.857 Y106.371 E16.15508
G1 X138.69 Y105.465 E16.18572
G1 X138.612 Y105.261 E16.19298
G1 X138.467 Y105.099 E16.20021
G1 X138.449 Y105.089 E16.2009
G1 X138.923 Y104.529 E16.2253
G1 X139.031 Y104.34 E16.23254
G1 X139.065 Y104.124 E16.23981
G1 X139.02 Y103.913 E16.24699
G1 X138.636 Y102.977 E16.28064
G1 X138.518 Y102.794 E16.28788
G1 X138.342 Y102.665 E16.29514
G1 X138.25 Y102.632 E16.29839
G1 X138.28 Y102.247 E16.31123
G1 X139.113 Y101.441 E16.34978
G1 X139.24 Y101.263 E16.35706
G1 X139.295 Y101.052 E16.36431
G1 X139.27 Y100.835 E16.37157
G1 X139.22 Y100.718 E16.37581
G1 X138.755 Y99.883 E16.40759
G1 X138.616 Y99.715 E16.41485
G1 X138.509 Y99.663 E16.4188
M204 S2000
M205 X10 Y10
G0 F3000 X139.421 Y100.256
M204 S1000
M205 X8 Y8
G1 F2400 X139.739 Y100.534 E16.43285
G1 X139.945 Y101.084 E16.45239
G1 X140.08 Y101.332 E16.46178
G1 X140.279 Y101.532 E16.47116
G1 X140.526 Y101.668 E16.48054
G1 X140.597 Y101.684 E16.48296
G1 X140.493 Y101.824 E16.48876
G1 X140.396 Y102.089 E16.49815
G1 X140.375 Y102.37 E16.50752
G1 X140.422 Y102.609 E16.51562
G1 X140.474 Y102.769 E16.52122
G1 X140.598 Y103.022 E16.53059
G1 X140.788 Y103.231 E16.53998
G1 X141.029 Y103.378 E16.54937
G1 X141.301 Y103.452 E16.55875
G1 X141.583 Y103.447 E16.56813
G1 X141.853 Y103.364 E16.57752
G1 X142.088 Y103.209 E16.58689
G1 X142.271 Y102.993 E16.5963
G1 X142.358 Y102.82 E16.60274
G1 X142.395 Y102.724 E16.60616
G1 X142.458 Y102.449 E16.61555
G1 X142.442 Y102.167 E16.62494
G1 X142.348 Y101.901 E16.63432
G1 X142.184 Y101.672 E16.64369
G1 X142.046 Y101.552 E16.64978
G1 X141.957 Y101.488 E16.65342
G1 X141.707 Y101.357 E16.66281
G1 X141.681 Y101.352 E16.66369
G1 X141.856 Y101.185 E16.67174
G1 X141.872 Y101.186 E16.67227
G1 X142.663 Y102.024 E16.7106
G1 X142.993 Y102.256 E16.72401
G1 X143.578 Y102.509 E16.74521
G1 X143.561 Y102.561 E16.74703
G1 X143.491 Y102.612 E16.74991
G1 X143.088 Y102.612 E16.76332
G1 X142.809 Y102.652 E16.77269
G1 X142.552 Y102.768 E16.78207
G1 X142.337 Y102.951 E16.79146
G1 X142.201 Y103.151 E16.7995
G1 X142.096 Y103.353 E16.80708
G1 X141.202 Y103.918 E16.84225
G1 X140.987 Y104.101 E16.85164
G1 X140.832 Y104.336 E16.861
G1 X140.748 Y104.606 E16.87041
G1 X140.744 Y104.888 E16.87979
G1 X140.785 Y105.072 E16.88606
G1 X140.793 Y105.097 E16.88693
G1 X140.752 Y105.043 E16.88919
G1 X140.551 Y104.844 E16.89859
G1 X140.303 Y104.71 E16.90797
G1 X140.028 Y104.65 E16.91733
G1 X139.746 Y104.669 E16.92673
G1 X139.366 Y104.839 E16.94058
G1 X139.07 Y105.055 E16.95277
G1 X138.995 Y105.128 E16.95625
G1 X138.97 Y105.091 E16.95773
G1 X139.228 Y104.787 E16.97099
G1 X139.378 Y104.549 E16.98035
G1 X139.456 Y104.277 E16.98976
G1 X139.454 Y103.995 E16.99914
G1 X139.39 Y103.761 E17.00721
G1 X139.207 Y103.316 E17.02321
G1 X139.254 Y103.315 E17.02478
G1 X139.523 Y103.23 E17.03416
G1 X139.758 Y103.073 E17.04356
G1 X139.939 Y102.858 E17.05291
G1 X140.053 Y102.6 E17.06229
G1 X140.091 Y102.32 E17.07169
G1 X140.04 Y102.012 E17.08207
G1 X140.034 Y101.994 E17.0827
G1 X139.908 Y101.741 E17.0921
G1 X139.716 Y101.534 E17.10149
G1 X139.584 Y101.455 E17.10661
G1 X139.668 Y101.243 E17.11419
G1 X139.695 Y100.963 E17.12355
G1 X139.642 Y100.685 E17.13296
G1 X139.57 Y100.523 E17.13886
G1 X139.421 Y100.256 E17.14903
M204 S2000
M205 X10 Y10
G1 F2400 E11.14903
G0 F3000 X140.214 Y103.153
M204 S1000
M205 X8 Y8
G1 F2400 E17.14903
G1 X140.234 Y103.196 E17.15061
G1 X140.442 Y103.457 E17.16171
G1 X140.706 Y103.662 E17.17282
G1 X140.823 Y103.714 E17.17708
G1 X140.729 Y103.791 E17.18112
G1 X140.527 Y104.057 E17.19223
G1 X140.407 Y104.333 E17.20224
G1 X140.239 Y104.276 E17.20814
G1 X139.906 Y104.248 E17.21926
G1 X139.851 Y104.257 E17.22111
G1 X139.865 Y104.12 E17.22569
G1 X139.82 Y103.789 E17.2368
G1 X139.76 Y103.61 E17.24308
G1 X139.741 Y103.564 E17.24474
G1 X139.775 Y103.55 E17.24596
G1 X140.045 Y103.353 E17.25708
G1 X140.214 Y103.153 E17.26579
M204 S2000
M205 X10 Y10
G0 F3000 X140.218 Y103.782
M204 S1000
M205 X8 Y8
G1 F2400 X140.225 Y103.788 E17.26609
G1 X140.222 Y103.795 E17.26635
G1 X140.218 Y103.782 E17.2668
M204 S2000
M205 X10 Y10
G1 F2400 E11.2668
G0 F3000 X140.985 Y106.868
M204 S1000
M205 X8 Y8
G1 F2400 E17.2668
G1 X141.44 Y107.2 E17.28553
G1 X141.499 Y108.297 E17.32207
G1 X141.341 Y108.782 E17.33904
G1 X141.292 Y109.115 E17.35023
G1 X141.324 Y110.535 E17.39747
G1 X141.262 Y111.534 E17.43076
G1 X141.309 Y111.905 E17.4432
G1 X141.428 Y112.272 E17.45603
G1 X141.22 Y113.265 E17.48978
G1 X141.202 Y113.546 E17.49914
G1 X141.248 Y113.78 E17.50708
G1 X141.316 Y113.989 E17.51439
G1 X141.239 Y114.225 E17.52264
G1 X141.039 Y114.371 E17.53088
G1 X140.791 Y114.371 E17.53913
G1 X140.591 Y114.225 E17.54736
G1 X140.398 Y113.632 E17.5681
G1 X140.68 Y112.075 E17.62073
G1 X140.691 Y111.793 E17.63012
G1 X140.647 Y111.587 E17.63712
G1 X140.542 Y111.265 E17.64839
G1 X140.681 Y110.545 E17.67278
G1 X140.674 Y110.133 E17.68648
G1 X140.495 Y109.347 E17.7133
G1 X140.742 Y108.253 E17.7506
G1 X140.765 Y107.972 E17.75998
G1 X140.718 Y107.723 E17.7684
G1 X140.596 Y107.349 E17.78149
G1 X140.673 Y107.114 E17.78971
G1 X140.912 Y106.939 E17.79957
G1 X140.985 Y106.868 E17.80295
M204 S2000
M205 X10 Y10
G0 F3000 X141.032 Y107.396
M204 S1000
M205 X8 Y8
G1 F2400 X141.052 Y107.411 E17.80378
G1 X141.054 Y107.465 E17.80558
G1 X141.032 Y107.396 E17.80799
M204 S2000
M205 X10 Y10
G1 F2400 E11.80799
G0 F3000 X138.951 Y109.682
M204 S1000
M205 X8 Y8
G1 F2400 E17.80799
G1 X138.954 Y109.82 E17.81258
G1 X138.313 Y110.578 E17.8456
G1 X137.829 Y110.566 E17.8617
G1 X137.826 Y110.428 E17.86629
G1 X138.467 Y109.67 E17.89931
G1 X138.951 Y109.682 E17.91541
M204 S2000
M205 X10 Y10
G1 F2400 E11.91541
G0 F3000 X138.882 Y111.75
M204 S1000
M205 X8 Y8
G1 F2400 E17.91541
G1 X138.529 Y112.56 E17.9448
G1 X138.536 Y112.735 E17.95063
G1 X138.779 Y113.183 E17.96758
G1 X138.177 Y113.895 E17.99859
G1 X137.799 Y113.886 E18.01116
G1 X138.152 Y113.076 E18.04055
G1 X138.145 Y112.901 E18.04638
G1 X137.902 Y112.453 E18.06333
G1 X138.504 Y111.741 E18.09434
G1 X138.882 Y111.75 E18.10692
M204 S2000
M205 X10 Y10
G1 F2400 E12.10692
G0 F3000 X140.813 Y113.588
M204 S1000
M205 X8 Y8
G1 F2400 E18.10692
G1 X140.823 Y113.647 E18.10891
G1 X140.81 Y113.606 E18.11034
G1 X140.813 Y113.588 E18.11094
M204 S2000
M205 X10 Y10
G1 F2400 E12.11094
