;FLAVOR:Marlin
;TIME:1759
;Filament used: 1.43439m
;Layer height: 0.2
;MINX:66.722
;MINY:75.783
;MINZ:0.2
;MAXX:155.249
;MAXY:138.503
;MAXZ:3.4
;Generated with Cura_SteamEngine 5.3.1
M140 S60
M105
M190 S60
M104 S200
M105
M109 S200
M82 ;absolute extrusion mode
G28 ;Home
G1 Z15.0 F1200 ;Move the platform down 15mm
;Prime the extruder
G92 E0
G1 F200 E3
G92 E0
G92 E0
G92 E0
G1 F2400 E-6
;LAYER_COUNT:17
;LAYER:0
M107
M204 S2000
M205 X10 Y10
G0 F3000 X89.948 Y79.909 Z0.2
M204 S1000
M205 X8 Y8
;TYPE:SKIRT
G1 F2400 E0
G1 X90.454 Y79.402 E0.02382
G1 X90.838 Y79.074 E0.04062
G1 X91.27 Y78.81 E0.05746
G1 X91.737 Y78.617 E0.07427
G1 X92.317 Y78.48 E0.09409
G1 X93.251 Y78.429 E0.1252
G1 X148.945 Y76.201 E1.97907
G1 X149.681 Y76.183 E2.00356
G1 X150.186 Y76.211 E2.02038
G1 X150.68 Y76.317 E2.03718
G1 X151.151 Y76.501 E2.054
G1 X151.587 Y76.756 E2.0708
G1 X151.978 Y77.077 E2.08763
G1 X152.314 Y77.455 E2.10445
G1 X152.585 Y77.881 E2.12124
G1 X152.85 Y78.552 E2.14524
G1 X154.565 Y84.944 E2.36536
G1 X154.761 Y85.714 E2.39178
G1 X154.847 Y86.212 E2.40859
G1 X154.853 Y86.717 E2.42539
G1 X154.779 Y87.218 E2.44223
G1 X154.628 Y87.7 E2.45903
G1 X154.402 Y88.152 E2.47584
G1 X154.108 Y88.564 E2.49268
G1 X153.753 Y88.924 E2.50949
G1 X153.346 Y89.223 E2.52629
G1 X152.896 Y89.455 E2.54313
G1 X152.315 Y89.635 E2.56336
G1 X151.38 Y89.83 E2.59513
G1 X150.352 Y90.031 E2.62996
G1 X147.667 Y90.635 E2.7215
G1 X145.016 Y91.31 E2.81249
G1 X142.402 Y92.055 E2.90289
G1 X139.74 Y92.899 E2.99577
G1 X137.194 Y93.782 E3.0854
G1 X134.63 Y94.753 E3.17659
G1 X132.109 Y95.793 E3.26729
G1 X129.575 Y96.924 E3.35959
G1 X127.143 Y98.091 E3.44931
G1 X124.664 Y99.368 E3.54206
G1 X122.281 Y100.682 E3.63257
G1 X119.938 Y102.064 E3.72304
G1 X117.618 Y103.52 E3.81414
G1 X115.351 Y105.033 E3.90479
G1 X113.106 Y106.627 E3.99637
G1 X110.897 Y108.291 E4.08835
G1 X108.792 Y109.972 E4.17795
G1 X106.666 Y111.769 E4.27054
G1 X104.663 Y113.564 E4.35999
G1 X102.666 Y115.456 E4.45149
G1 X100.71 Y117.419 E4.54366
G1 X98.861 Y119.381 E4.63333
G1 X97.015 Y121.456 E4.7257
G1 X95.264 Y123.539 E4.81621
G1 X93.594 Y125.643 E4.90555
G1 X91.909 Y127.896 E4.99913
G1 X90.354 Y130.101 E5.08887
G1 X88.833 Y132.392 E5.18033
G1 X88.208 Y133.362 E5.21871
G1 X87.681 Y134.017 E5.24667
G1 X87.201 Y134.499 E5.2693
G1 X86.214 Y135.297 E5.31151
G1 X86.081 Y135.416 E5.31745
G1 X85.317 Y136.021 E5.34986
G1 X84.987 Y136.292 E5.36406
G1 X84.429 Y136.66 E5.38629
G1 X83.828 Y136.971 E5.4088
G1 X83.179 Y137.222 E5.43195
G1 X81.041 Y137.789 E5.50551
G1 X80.47 Y137.948 E5.52523
G1 X79.82 Y138.058 E5.54715
G1 X79.124 Y138.103 E5.57035
G1 X78.413 Y138.07 E5.59402
G1 X77.072 Y137.856 E5.63919
G1 X76.979 Y137.849 E5.64229
G1 X75.586 Y137.621 E5.68924
G1 X74.984 Y137.467 E5.70991
G1 X74.245 Y137.186 E5.7362
G1 X73.711 Y136.907 E5.75624
G1 X71.3 Y135.342 E5.85185
G1 X70.791 Y134.933 E5.87356
G1 X70.322 Y134.469 E5.89551
G1 X69.883 Y133.927 E5.91871
G1 X69.302 Y133.025 E5.95439
G1 X69.084 Y132.724 E5.96675
G1 X68.323 Y131.525 E6.01399
G1 X68.057 Y131.006 E6.03338
G1 X67.796 Y130.358 E6.05662
G1 X67.602 Y129.655 E6.08087
G1 X67.429 Y128.543 E6.1183
G1 X67.369 Y128.261 E6.12789
G1 X67.156 Y126.843 E6.17558
G1 X67.122 Y126.268 E6.19474
G1 X67.144 Y125.561 E6.21827
G1 X67.201 Y125.048 E6.23544
G1 X67.74 Y122.288 E6.32897
G1 X68.191 Y119.568 E6.42067
G1 X68.56 Y116.879 E6.51095
G1 X68.853 Y114.173 E6.60147
G1 X69.072 Y111.429 E6.69303
G1 X69.214 Y108.678 E6.78465
G1 X69.277 Y105.956 E6.87521
G1 X69.272 Y103.766 E6.94805
G1 X69.257 Y102.667 E6.98461
G1 X69.29 Y102.162 E7.00144
G1 X69.402 Y101.669 E7.01825
G1 X69.591 Y101.2 E7.03507
G1 X69.92 Y100.651 E7.05636
G1 X70.727 Y99.788 E7.09566
G1 X89.948 Y79.909 E8.01536
M204 S2000
M205 X10 Y10
G0 F3000 X89.665 Y79.626
M204 S1000
M205 X8 Y8
G1 F2400 X90.171 Y79.119 E8.03918
G1 X90.629 Y78.733 E8.0591
G1 X91.117 Y78.44 E8.07804
G1 X91.584 Y78.247 E8.09484
G1 X92.258 Y78.083 E8.11791
G1 X93.235 Y78.029 E8.15046
G1 X148.935 Y75.801 E10.00453
G1 X149.671 Y75.783 E10.02902
G1 X150.27 Y75.82 E10.04898
G1 X150.826 Y75.944 E10.06792
G1 X151.297 Y76.128 E10.08474
G1 X151.841 Y76.447 E10.10572
G1 X152.277 Y76.811 E10.12461
G1 X152.613 Y77.189 E10.14143
G1 X152.943 Y77.698 E10.16161
G1 X153.222 Y78.405 E10.18689
G1 X154.953 Y84.845 E10.40868
G1 X155.149 Y85.615 E10.43511
G1 X155.247 Y86.207 E10.45507
G1 X155.249 Y86.775 E10.47396
G1 X155.161 Y87.338 E10.49291
G1 X155.01 Y87.82 E10.50971
G1 X154.76 Y88.331 E10.52863
G1 X154.434 Y88.796 E10.54752
G1 X154.038 Y89.205 E10.56646
G1 X153.529 Y89.579 E10.58746
G1 X153.05 Y89.826 E10.60539
G1 X152.397 Y90.027 E10.62811
G1 X151.457 Y90.223 E10.66005
G1 X150.429 Y90.423 E10.69488
G1 X147.766 Y91.023 E10.78568
G1 X145.115 Y91.698 E10.87666
G1 X142.512 Y92.44 E10.96669
G1 X139.871 Y93.277 E11.05883
G1 X137.325 Y94.16 E11.14846
G1 X134.783 Y95.123 E11.23887
G1 X132.262 Y96.163 E11.32958
G1 X129.748 Y97.285 E11.42114
G1 X127.316 Y98.452 E11.51086
G1 X124.847 Y99.724 E11.60324
G1 X122.484 Y101.027 E11.69299
G1 X120.141 Y102.409 E11.78346
G1 X117.831 Y103.859 E11.87417
G1 X115.573 Y105.366 E11.96447
G1 X113.338 Y106.953 E12.05564
G1 X111.147 Y108.604 E12.14688
G1 X109.041 Y110.284 E12.23649
G1 X106.933 Y112.067 E12.32831
G1 X104.93 Y113.862 E12.41777
G1 X102.941 Y115.746 E12.50889
G1 X100.993 Y117.701 E12.60068
G1 X99.16 Y119.647 E12.6896
G1 X97.314 Y121.722 E12.78197
G1 X95.577 Y123.788 E12.87175
G1 X93.907 Y125.892 E12.96109
G1 X92.236 Y128.127 E13.05391
G1 X90.681 Y130.332 E13.14365
G1 X89.166 Y132.613 E13.23472
G1 X88.52 Y133.613 E13.27432
G1 X87.993 Y134.268 E13.30228
G1 X87.452 Y134.81 E13.32775
G1 X86.481 Y135.595 E13.36928
G1 X86.329 Y135.73 E13.37604
G1 X85.207 Y136.626 E13.4238
G1 X84.649 Y136.994 E13.44603
G1 X83.972 Y137.344 E13.47138
G1 X83.282 Y137.609 E13.49597
G1 X80.537 Y138.342 E13.59046
G1 X79.846 Y138.457 E13.61376
G1 X79.105 Y138.503 E13.63846
G1 X78.394 Y138.47 E13.66213
G1 X77.027 Y138.254 E13.70816
G1 X76.914 Y138.244 E13.71193
G1 X75.487 Y138.009 E13.76003
G1 X74.885 Y137.855 E13.7807
G1 X74.06 Y137.541 E13.81006
G1 X73.493 Y137.243 E13.83137
G1 X71.082 Y135.678 E13.92697
G1 X70.54 Y135.245 E13.95004
G1 X70.011 Y134.721 E13.97481
G1 X69.572 Y134.179 E13.99801
G1 X68.978 Y133.26 E14.0344
G1 X68.746 Y132.938 E14.0476
G1 X67.985 Y131.739 E14.09483
G1 X67.686 Y131.155 E14.11666
G1 X67.41 Y130.464 E14.1414
G1 X67.216 Y129.761 E14.16566
G1 X67.036 Y128.616 E14.20421
G1 X66.973 Y128.32 E14.21428
G1 X66.76 Y126.902 E14.26197
G1 X66.722 Y126.256 E14.28349
G1 X66.746 Y125.517 E14.30808
G1 X66.808 Y124.971 E14.32636
G1 X67.347 Y122.211 E14.41989
G1 X67.796 Y119.503 E14.51119
G1 X68.162 Y116.836 E14.60073
G1 X68.455 Y114.13 E14.69125
G1 X68.674 Y111.397 E14.78245
G1 X68.814 Y108.669 E14.8733
G1 X68.877 Y105.947 E14.96386
G1 X68.872 Y103.767 E15.03636
G1 X68.857 Y102.672 E15.07279
G1 X68.9 Y102.073 E15.09276
G1 X69.031 Y101.519 E15.1117
G1 X69.22 Y101.05 E15.12851
G1 X69.597 Y100.411 E15.15319
G1 X70.439 Y99.51 E15.19421
G1 X89.665 Y79.626 E16.11414
M204 S2000
M205 X10 Y10
G1 F2400 E10.11414
;MESH:Servo_Attached_Claw v1.stl
G0 F3000 X91.776 Y81.668
G0 X92.541 Y82.407
G0 X75.096 Y131.079
G0 X84.354 Y124.64
G0 X83.939 Y120.324
G0 X84.242 Y117.057
G0 X84.839 Y113.829
G0 X85.721 Y110.669
G0 X86.884 Y107.6
G0 X88.133 Y104.991
G0 X87.893 Y106.884
G0 X84.828 Y122.463
G0 X84.918 Y121.815
M204 S1000
M205 X8 Y8
;TYPE:WALL-OUTER
G1 F2400 E16.11414
G1 F1500 X84.617 Y121.574 E16.12697
G1 X84.385 Y121.318 E16.13846
G1 X84.234 Y121.024 E16.14945
G1 X84.163 Y120.681 E16.1611
G1 X84.176 Y120.369 E16.17149
G1 X84.266 Y120.067 E16.18197
G1 X84.432 Y119.789 E16.19274
G1 X84.663 Y119.557 E16.20363
G1 X84.853 Y119.443 E16.211
G1 X84.939 Y118.471 E16.24345
G1 X84.771 Y118.324 E16.25088
G1 X84.591 Y118.074 E16.26112
G1 X84.479 Y117.794 E16.27115
G1 X84.435 Y117.42 E16.28368
G1 X84.475 Y117.117 E16.29384
G1 X84.595 Y116.823 E16.30441
G1 X84.792 Y116.556 E16.31544
G1 X85.031 Y116.357 E16.32579
G1 X85.233 Y116.26 E16.33324
G1 X85.4 Y115.294 E16.36584
G1 X85.247 Y115.136 E16.37316
G1 X85.093 Y114.872 E16.38333
G1 X85.005 Y114.569 E16.39382
G1 X84.993 Y114.233 E16.405
G1 X85.059 Y113.934 E16.41519
G1 X85.213 Y113.625 E16.42667
G1 X85.432 Y113.378 E16.43765
G1 X85.734 Y113.18 E16.44966
G1 X85.896 Y113.124 E16.45536
G1 X86.155 Y112.185 E16.48776
G1 X86.016 Y112.012 E16.49514
G1 X85.883 Y111.729 E16.50554
G1 X85.822 Y111.42 E16.51602
G1 X85.839 Y111.086 E16.52714
G1 X85.941 Y110.77 E16.53818
G1 X86.111 Y110.499 E16.54882
G1 X86.355 Y110.271 E16.55993
G1 X86.626 Y110.122 E16.57022
G1 X86.837 Y110.062 E16.57751
G1 X87.18 Y109.149 E16.60995
G1 X87.055 Y108.96 E16.61749
G1 X86.951 Y108.674 E16.62761
G1 X86.92 Y108.323 E16.63933
G1 X86.968 Y108.013 E16.64976
G1 X87.101 Y107.709 E16.6608
G1 X87.287 Y107.467 E16.67095
G1 X87.547 Y107.263 E16.68194
G1 X87.831 Y107.136 E16.69229
G1 X88.05 Y107.097 E16.69969
G1 X88.472 Y106.217 E16.73215
G1 X88.386 Y106.069 E16.73784
G1 X88.287 Y105.72 E16.74991
G1 X88.281 Y105.399 E16.76059
G1 X88.352 Y105.101 E16.77078
G1 X88.513 Y104.79 E16.78242
G1 X88.74 Y104.544 E16.79356
G1 X89.012 Y104.367 E16.80435
G1 X89.298 Y104.269 E16.81441
G1 X89.516 Y104.25 E16.82168
G1 X90.023 Y103.41 E16.85432
G1 X89.937 Y103.207 E16.86165
G1 X89.884 Y102.868 E16.87306
G1 X89.914 Y102.552 E16.88362
G1 X90.012 Y102.268 E16.89361
G1 X90.21 Y101.978 E16.90529
G1 X90.441 Y101.769 E16.91565
G1 X90.704 Y101.628 E16.92558
G1 X91.025 Y101.548 E16.93658
G1 X91.246 Y101.547 E16.94393
G1 X91.817 Y100.747 E16.97662
G1 X91.751 Y100.545 E16.98369
G1 X91.728 Y100.208 E16.99492
G1 X91.788 Y99.891 E17.00565
G1 X91.916 Y99.608 E17.01598
G1 X92.114 Y99.361 E17.02651
G1 X92.371 Y99.165 E17.03726
G1 X92.676 Y99.036 E17.04828
G1 X92.986 Y98.992 E17.05869
G1 X93.204 Y99.011 E17.06597
G1 X93.844 Y98.274 E17.09844
G1 X93.796 Y98.059 E17.10576
G1 X93.798 Y97.747 E17.11614
G1 X93.878 Y97.439 E17.12672
G1 X94.038 Y97.146 E17.13783
G1 X94.286 Y96.894 E17.14959
G1 X94.548 Y96.735 E17.15978
G1 X94.855 Y96.637 E17.1705
G1 X95.217 Y96.624 E17.18255
G1 X95.382 Y96.659 E17.18816
G1 X96.088 Y95.983 E17.22067
G1 X96.057 Y95.764 E17.22802
G1 X96.087 Y95.455 E17.23835
G1 X96.205 Y95.133 E17.24976
G1 X96.387 Y94.872 E17.26034
G1 X96.609 Y94.675 E17.27021
G1 X96.911 Y94.517 E17.28155
G1 X97.239 Y94.445 E17.29272
G1 X97.6 Y94.463 E17.30474
G1 X97.763 Y94.513 E17.31041
G1 X98.524 Y93.904 E17.34283
G1 X98.515 Y93.682 E17.35022
G1 X98.571 Y93.376 E17.36056
G1 X98.713 Y93.075 E17.37163
G1 X98.917 Y92.828 E17.38229
G1 X99.204 Y92.623 E17.39402
G1 X99.481 Y92.515 E17.40391
G1 X99.789 Y92.475 E17.41424
G1 X100.116 Y92.51 E17.42517
G1 X100.326 Y92.588 E17.43263
G1 X101.137 Y92.05 E17.46499
G1 X101.148 Y91.829 E17.47235
G1 X101.241 Y91.511 E17.48337
G1 X101.392 Y91.252 E17.49335
G1 X101.605 Y91.031 E17.50355
G1 X101.907 Y90.844 E17.51537
G1 X102.218 Y90.752 E17.52616
G1 X102.547 Y90.741 E17.5371
G1 X102.849 Y90.806 E17.54738
G1 X103.04 Y90.897 E17.55442
G1 X103.908 Y90.435 E17.58712
G1 X103.938 Y90.214 E17.59454
G1 X104.046 Y89.93 E17.60464
G1 X104.225 Y89.67 E17.61514
G1 X104.507 Y89.437 E17.62731
G1 X104.806 Y89.3 E17.63825
G1 X105.077 Y89.246 E17.64744
G1 X105.426 Y89.259 E17.65906
G1 X105.724 Y89.353 E17.66945
G1 X105.907 Y89.462 E17.67653
G1 X106.81 Y89.08 E17.70914
G1 X106.859 Y88.865 E17.71648
G1 X106.995 Y88.586 E17.7268
G1 X107.201 Y88.343 E17.7374
G1 X107.455 Y88.161 E17.74779
G1 X107.782 Y88.032 E17.75948
G1 X108.098 Y87.999 E17.77005
G1 X108.429 Y88.043 E17.78115
G1 X108.717 Y88.162 E17.79152
G1 X108.896 Y88.292 E17.79888
G1 X109.825 Y87.98 E17.83147
G1 X109.891 Y87.777 E17.83857
G1 X110.051 Y87.512 E17.84887
G1 X110.272 Y87.294 E17.85919
G1 X110.544 Y87.132 E17.86972
G1 X110.873 Y87.034 E17.88114
G1 X111.233 Y87.029 E17.89311
G1 X111.529 Y87.102 E17.90325
G1 X111.801 Y87.244 E17.91346
G1 X111.969 Y87.391 E17.92088
G1 X112.922 Y87.17 E17.95342
G1 X112.985 Y87.01 E17.95914
G1 X113.192 Y86.719 E17.97102
G1 X113.437 Y86.517 E17.98158
G1 X113.713 Y86.384 E17.99177
G1 X114.039 Y86.318 E18.00283
G1 X114.37 Y86.335 E18.01386
G1 X114.68 Y86.432 E18.02466
G1 X114.961 Y86.61 E18.03572
G1 X115.112 Y86.768 E18.04299
G1 X116.087 Y86.625 E18.07577
G1 X116.187 Y86.439 E18.08279
G1 X116.392 Y86.207 E18.09309
G1 X116.641 Y86.036 E18.10314
G1 X116.944 Y85.922 E18.1139
G1 X117.282 Y85.885 E18.12521
G1 X117.6 Y85.933 E18.13591
G1 X117.896 Y86.055 E18.14656
G1 X118.162 Y86.258 E18.15769
G1 X118.3 Y86.43 E18.16502
G1 X119.28 Y86.376 E18.19767
G1 X119.4 Y86.195 E18.20489
G1 X119.625 Y85.985 E18.21513
G1 X119.886 Y85.838 E18.22509
G1 X120.208 Y85.749 E18.2362
G1 X120.582 Y85.75 E18.24864
G1 X120.849 Y85.819 E18.25781
G1 X121.158 Y85.982 E18.26943
G1 X121.383 Y86.192 E18.27967
G1 X121.507 Y86.38 E18.28716
G1 X122.479 Y86.421 E18.31952
G1 X122.619 Y86.245 E18.327
G1 X122.86 Y86.056 E18.33718
G1 X123.14 Y85.931 E18.34738
G1 X123.455 Y85.873 E18.35803
G1 X123.787 Y85.896 E18.3691
G1 X124.097 Y86 E18.37998
G1 X124.389 Y86.19 E18.39157
G1 X124.596 Y86.421 E18.40188
G1 X124.701 Y86.615 E18.40922
G1 X125.668 Y86.745 E18.44167
G1 X125.821 Y86.585 E18.44903
G1 X126.082 Y86.415 E18.45939
G1 X126.374 Y86.314 E18.46967
G1 X126.696 Y86.287 E18.48042
G1 X127.065 Y86.354 E18.49289
G1 X127.348 Y86.487 E18.50329
G1 X127.594 Y86.69 E18.5139
G1 X127.775 Y86.933 E18.52398
G1 X127.863 Y87.137 E18.53137
G1 X128.716 Y87.329 E18.56045
G1 X129.022 Y87.247 E18.57098
G1 X129.133 Y87.172 E18.57544
G1 X129.334 Y86.903 E18.58661
G1 X129.413 Y86.688 E18.59423
G1 X129.64 Y86.439 E18.60543
G1 X129.9 Y86.267 E18.6158
G1 X130.214 Y86.159 E18.62685
G1 X130.526 Y86.134 E18.63726
G1 X130.897 Y86.201 E18.6498
G1 X131.177 Y86.333 E18.66009
G1 X131.441 Y86.556 E18.67159
G1 X131.63 Y86.824 E18.68249
G1 X131.698 Y86.995 E18.68861
G1 X131.917 Y87.067 E18.69628
G1 X132.216 Y87.092 E18.70626
G1 X132.517 Y87.049 E18.71637
G1 X132.795 Y86.937 E18.72634
G1 X133.04 Y86.762 E18.73636
G1 X133.471 Y86.286 E18.75771
G1 X133.73 Y86.114 E18.76806
G1 X134.044 Y86.006 E18.7791
G1 X134.357 Y85.981 E18.78954
G1 X134.727 Y86.048 E18.80205
G1 X135.006 Y86.179 E18.8123
G1 X135.236 Y86.366 E18.82216
G1 X135.437 Y86.629 E18.83317
G1 X135.528 Y86.842 E18.84087
G1 X135.747 Y86.914 E18.84854
G1 X136.046 Y86.939 E18.85852
G1 X136.347 Y86.896 E18.86863
G1 X136.626 Y86.784 E18.87863
G1 X136.87 Y86.609 E18.88862
G1 X137.302 Y86.132 E18.91002
G1 X137.56 Y85.961 E18.92032
G1 X137.874 Y85.853 E18.93136
G1 X138.187 Y85.827 E18.94181
G1 X138.557 Y85.894 E18.95432
G1 X138.851 Y86.037 E18.96519
G1 X139.102 Y86.25 E18.97614
G1 X139.268 Y86.474 E18.98541
G1 X139.359 Y86.689 E18.99318
G1 X139.578 Y86.761 E19.00084
G1 X139.883 Y86.788 E19.01103
G1 X140.169 Y86.743 E19.02066
G1 X140.458 Y86.629 E19.03099
G1 X140.7 Y86.455 E19.0409
G1 X141.132 Y85.979 E19.06228
G1 X141.39 Y85.808 E19.07258
G1 X141.705 Y85.699 E19.08367
G1 X142.017 Y85.674 E19.09408
G1 X142.386 Y85.741 E19.10655
G1 X142.669 Y85.874 E19.11695
G1 X142.931 Y86.096 E19.12837
G1 X143.098 Y86.323 E19.13774
G1 X143.189 Y86.537 E19.14548
G1 X143.408 Y86.607 E19.15313
G1 X143.713 Y86.635 E19.16331
G1 X144.001 Y86.59 E19.17301
G1 X144.287 Y86.476 E19.18325
G1 X144.531 Y86.303 E19.1932
G1 X144.961 Y85.826 E19.21456
G1 X145.221 Y85.654 E19.22493
G1 X145.535 Y85.546 E19.23597
G1 X145.847 Y85.521 E19.24638
G1 X146.218 Y85.588 E19.25892
G1 X146.498 Y85.72 E19.26922
G1 X146.762 Y85.943 E19.28071
G1 X146.951 Y86.211 E19.29162
G1 X147.019 Y86.382 E19.29774
G1 X147.238 Y86.454 E19.3054
G1 X147.537 Y86.479 E19.31538
G1 X147.838 Y86.436 E19.3255
G1 X148.116 Y86.324 E19.33547
G1 X148.361 Y86.149 E19.34548
G1 X148.793 Y85.672 E19.36688
G1 X149.044 Y85.505 E19.37691
G1 X149.343 Y85.399 E19.38746
G1 X149.671 Y85.367 E19.39842
G1 X150.047 Y85.435 E19.41113
G1 X150.341 Y85.577 E19.42199
G1 X150.557 Y85.753 E19.43126
G1 X150.789 Y86.078 E19.44454
G1 X151.167 Y85.989 E19.45746
G1 X151.334 Y86.023 E19.46312
G1 X149.607 Y79.577 E19.68508
G1 X92.8 Y81.85 E21.576
G1 X72.651 Y102.691 E22.54016
G1 X73.205 Y122.491 E23.19897
G1 X73.14 Y122.63 E23.20407
G1 X73.019 Y122.7 E23.20872
G1 X72.883 Y122.693 E23.21325
G1 X72.768 Y122.63 E23.21761
